; generated by PrusaSlicer 2.3.0+ on 2021-01-26 at 17:18:40 UTC

; 

; external perimeters extrusion width = 0.45mm
; perimeters extrusion width = 0.45mm
; infill extrusion width = 0.45mm
; solid infill extrusion width = 0.45mm
; top infill extrusion width = 0.40mm
; first layer extrusion width = 0.42mm

M73 P0 R25
M73 Q0 S25
M201 X1000 Y1000 Z200 E5000 ; sets maximum accelerations, mm/sec^2
M203 X200 Y200 Z12 E120 ; sets maximum feedrates, mm/sec
M204 P1250 R1250 T1250 ; sets acceleration (P, T) and retract acceleration (R), mm/sec^2
M205 X8.00 Y8.00 Z0.40 E4.50 ; sets the jerk limits, mm/sec
M205 S0 T0 ; sets the minimum extruding and travel feed rate, mm/sec
M107
;TYPE:Custom
M862.3 P "MK3S" ; printer model check
M862.1 P0.4 ; nozzle diameter check
M115 U3.9.3 ; tell printer latest fw version
G90 ; use absolute coordinates
M83 ; extruder relative mode
M104 S215 ; set extruder temp
M140 S60 ; set bed temp
M190 S60 ; wait for bed temp
M109 S215 ; wait for extruder temp
G28 W ; home all without mesh bed level
G80 ; mesh bed leveling
G1 Y-3.0 F1000.0 ; go outside print area
G92 E0.0
G1 X60.0 E9.0 F1000.0 ; intro line
G1 X100.0 E12.5 F1000.0 ; intro line
G92 E0.0
M221 S95

; Don't change E values below. Excessive value can damage the printer.
M907 E430 ; set extruder motor current
G21 ; set units to millimeters
G90 ; use absolute coordinates
M83 ; use relative distances for extrusion
M900 K0.05 ; Filament gcode LA 1.5
M900 K30 ; Filament gcode LA 1.0
;LAYER_CHANGE
;Z:0.2
;HEIGHT:0.2
;BEFORE_LAYER_CHANGE
G92 E0.0
;0.2


G1 E-0.80000 F2100.000
G1 Z0.400 F10800.000
;AFTER_LAYER_CHANGE
;0.2
G1 X98.151 Y74.910
G1 Z0.200
G1 E0.80000 F2100.000
M204 S1000
;TYPE:Skirt
;WIDTH:0.42
G1 F1200.000
G1 X99.581 Y74.363 E0.04800
G1 X101.108 Y74.121 E0.04847
G1 X148.777 Y74.118 E1.49463
G1 X149.783 Y74.224 E0.03171
G1 X151.248 Y74.639 E0.04775
G1 X152.537 Y75.307 E0.04550
G1 X153.701 Y76.246 E0.04693
G1 X154.634 Y77.378 E0.04597
G1 X155.130 Y78.233 E0.03100
G1 X155.637 Y79.581 E0.04514
G1 X155.871 Y81.009 E0.04538
G1 X155.880 Y128.849 E1.50000
G1 X155.777 Y129.779 E0.02933
G1 X155.397 Y131.160 E0.04490
G1 X154.756 Y132.436 E0.04479
G1 X154.195 Y133.213 E0.03005
G1 X153.141 Y134.255 E0.04645
G1 X151.836 Y135.097 E0.04871
G1 X150.401 Y135.642 E0.04812
G1 X148.812 Y135.881 E0.05037
G1 X101.151 Y135.880 E1.49439
M73 P1 R25
M73 Q1 S25
G1 X100.221 Y135.777 E0.02933
G1 X98.840 Y135.397 E0.04490
G1 X97.564 Y134.756 E0.04479
G1 X96.787 Y134.195 E0.03005
G1 X95.745 Y133.141 E0.04645
G1 X94.903 Y131.836 E0.04871
G1 X94.358 Y130.401 E0.04812
G1 X94.119 Y128.812 E0.05037
G1 X94.120 Y81.151 E1.49439
G1 X94.223 Y80.221 E0.02933
G1 X94.603 Y78.840 E0.04490
G1 X95.244 Y77.564 E0.04479
G1 X95.805 Y76.787 E0.03005
G1 X96.856 Y75.748 E0.04633
G1 X98.100 Y74.943 E0.04647
; printing object bezel_small.stl id:0 copy 0
;WIPE_START
G1 F8640.000
G1 X99.581 Y74.363 E-0.36705
G1 X101.108 Y74.121 E-0.35698
G1 X101.263 Y74.121 E-0.03597
;WIPE_END
G1 E-0.04000 F2100.000
G1 Z0.600 F10800.000
G1 X107.983 Y86.219
G1 Z0.200
G1 E0.80000 F2100.000
;TYPE:Perimeter
G1 F1200.000
G1 X109.194 Y85.188 E0.04989
G1 X110.494 Y84.217 E0.05087
G1 X111.880 Y83.316 E0.05182
G1 X113.267 Y82.535 E0.04990
G1 X114.728 Y81.831 E0.05086
G1 X116.260 Y81.210 E0.05183
G1 X117.800 Y80.700 E0.05087
G1 X119.369 Y80.289 E0.05086
G1 X120.961 Y79.979 E0.05086
G1 X122.540 Y79.776 E0.04989
G1 X124.189 Y79.668 E0.05183
G1 X125.842 Y79.670 E0.05181
G1 X127.430 Y79.772 E0.04989
G1 X129.039 Y79.979 E0.05087
G1 X130.661 Y80.296 E0.05182
G1 X132.200 Y80.700 E0.04990
G1 X133.740 Y81.210 E0.05086
G1 X135.272 Y81.831 E0.05183
G1 X136.734 Y82.535 E0.05087
G1 X138.147 Y83.332 E0.05086
G1 X139.506 Y84.217 E0.05086
G1 X140.781 Y85.169 E0.04989
G1 X142.041 Y86.239 E0.05183
G1 X143.227 Y87.390 E0.05181
G1 X144.296 Y88.568 E0.04989
G1 X145.308 Y89.836 E0.05086
G1 X146.236 Y91.167 E0.05086
G1 X147.078 Y92.554 E0.05087
G1 X147.842 Y94.019 E0.05183
G1 X148.498 Y95.503 E0.05086
G1 X149.047 Y96.997 E0.04990
G1 X149.518 Y98.581 E0.05182
G1 X149.879 Y100.163 E0.05087
G1 X150.137 Y101.764 E0.05086
G1 X150.293 Y103.379 E0.05086
G1 X150.344 Y104.970 E0.04990
G1 X150.290 Y106.652 E0.05276
G1 X150.137 Y108.236 E0.04990
G1 X149.879 Y109.837 E0.05087
G1 X149.510 Y111.449 E0.05182
G1 X149.057 Y112.974 E0.04990
G1 X148.498 Y114.497 E0.05086
G1 X147.829 Y116.008 E0.05183
G1 X147.078 Y117.446 E0.05087
G1 X146.236 Y118.833 E0.05086
G1 X145.308 Y120.164 E0.05086
G1 X144.316 Y121.408 E0.04989
G1 X143.206 Y122.632 E0.05182
G1 X142.017 Y123.781 E0.05182
G1 X140.806 Y124.812 E0.04989
G1 X139.506 Y125.783 E0.05087
G1 X138.120 Y126.684 E0.05182
G1 X136.733 Y127.465 E0.04990
G1 X135.272 Y128.169 E0.05086
G1 X133.740 Y128.790 E0.05183
G1 X132.200 Y129.300 E0.05087
G1 X130.631 Y129.711 E0.05086
G1 X129.039 Y130.021 E0.05086
G1 X127.460 Y130.224 E0.04989
G1 X125.811 Y130.332 E0.05183
G1 X124.158 Y130.330 E0.05181
G1 X122.570 Y130.228 E0.04989
G1 X120.961 Y130.021 E0.05087
G1 X119.339 Y129.704 E0.05182
G1 X117.800 Y129.300 E0.04990
G1 X116.260 Y128.790 E0.05086
G1 X114.728 Y128.169 E0.05183
G1 X113.266 Y127.465 E0.05087
G1 X111.853 Y126.668 E0.05086
G1 X110.494 Y125.783 E0.05086
G1 X109.219 Y124.831 E0.04989
G1 X107.959 Y123.761 E0.05183
G1 X106.773 Y122.610 E0.05181
G1 X105.704 Y121.432 E0.04989
G1 X104.692 Y120.164 E0.05086
G1 X103.764 Y118.833 E0.05086
G1 X102.922 Y117.446 E0.05087
G1 X102.158 Y115.981 E0.05183
G1 X101.502 Y114.497 E0.05086
G1 X100.953 Y113.003 E0.04990
G1 X100.482 Y111.419 E0.05182
G1 X100.121 Y109.837 E0.05087
G1 X99.863 Y108.236 E0.05086
G1 X99.707 Y106.621 E0.05086
G1 X99.656 Y105.030 E0.04990
G1 X99.710 Y103.348 E0.05276
G1 X99.863 Y101.764 E0.04990
G1 X100.121 Y100.163 E0.05087
G1 X100.490 Y98.551 E0.05182
G1 X100.943 Y97.026 E0.04990
G1 X101.502 Y95.503 E0.05086
G1 X102.171 Y93.992 E0.05183
G1 X102.922 Y92.554 E0.05087
G1 X103.764 Y91.167 E0.05086
G1 X104.692 Y89.836 E0.05086
G1 X105.684 Y88.592 E0.04989
G1 X106.794 Y87.368 E0.05182
G1 X107.939 Y86.261 E0.04994
G1 X108.202 Y86.532 F10800.000
;TYPE:External perimeter
G1 F1200.000
G1 X109.430 Y85.483 E0.05065
G1 X110.710 Y84.527 E0.05011
G1 X112.075 Y83.639 E0.05106
G1 X113.441 Y82.870 E0.04914
G1 X114.881 Y82.176 E0.05010
G1 X116.390 Y81.564 E0.05107
G1 X117.907 Y81.062 E0.05011
G1 X119.453 Y80.657 E0.05010
G1 X121.022 Y80.352 E0.05010
G1 X122.576 Y80.151 E0.04914
G1 X124.201 Y80.045 E0.05107
G1 X125.829 Y80.047 E0.05105
G1 X127.394 Y80.148 E0.04914
G1 X128.979 Y80.352 E0.05011
G1 X130.577 Y80.664 E0.05106
G1 X132.093 Y81.062 E0.04914
G1 X133.610 Y81.564 E0.05010
G1 X135.119 Y82.176 E0.05107
G1 X136.559 Y82.870 E0.05011
G1 X137.951 Y83.654 E0.05010
G1 X139.290 Y84.527 E0.05010
G1 X140.546 Y85.464 E0.04914
G1 X141.787 Y86.519 E0.05107
G1 X142.955 Y87.653 E0.05105
G1 X144.009 Y88.813 E0.04914
G1 X145.006 Y90.062 E0.05010
G1 X145.920 Y91.373 E0.05010
G1 X146.749 Y92.739 E0.05011
G1 X147.502 Y94.183 E0.05106
G1 X148.148 Y95.645 E0.05010
G1 X148.689 Y97.116 E0.04914
G1 X149.153 Y98.677 E0.05106
G1 X149.508 Y100.235 E0.05011
G1 X149.763 Y101.812 E0.05010
G1 X149.916 Y103.403 E0.05010
G1 X149.966 Y104.970 E0.04915
G1 X149.913 Y106.627 E0.05200
G1 X149.763 Y108.188 E0.04915
M73 P2 R25
M73 Q2 S25
G1 X149.508 Y109.765 E0.05011
G1 X149.145 Y111.353 E0.05106
G1 X148.699 Y112.855 E0.04914
G1 X148.148 Y114.355 E0.05010
G1 X147.489 Y115.845 E0.05107
G1 X146.749 Y117.261 E0.05011
G1 X145.920 Y118.627 E0.05010
G1 X145.006 Y119.938 E0.05010
G1 X144.028 Y121.163 E0.04914
G1 X142.935 Y122.370 E0.05105
G1 X141.764 Y123.501 E0.05106
G1 X140.570 Y124.517 E0.04914
G1 X139.290 Y125.473 E0.05011
G1 X137.925 Y126.361 E0.05106
G1 X136.559 Y127.130 E0.04914
G1 X135.119 Y127.824 E0.05010
G1 X133.610 Y128.436 E0.05107
G1 X132.093 Y128.938 E0.05011
G1 X130.547 Y129.343 E0.05010
G1 X128.978 Y129.648 E0.05010
G1 X127.424 Y129.849 E0.04914
G1 X125.799 Y129.955 E0.05107
G1 X124.171 Y129.953 E0.05105
G1 X122.606 Y129.852 E0.04914
G1 X121.021 Y129.648 E0.05011
G1 X119.423 Y129.336 E0.05106
G1 X117.907 Y128.938 E0.04914
G1 X116.390 Y128.436 E0.05010
G1 X114.881 Y127.824 E0.05107
G1 X113.441 Y127.130 E0.05011
G1 X112.049 Y126.346 E0.05010
G1 X110.710 Y125.473 E0.05010
G1 X109.454 Y124.536 E0.04914
G1 X108.213 Y123.481 E0.05107
G1 X107.045 Y122.347 E0.05105
G1 X105.991 Y121.187 E0.04914
G1 X104.994 Y119.938 E0.05010
G1 X104.080 Y118.627 E0.05010
G1 X103.251 Y117.261 E0.05011
G1 X102.498 Y115.817 E0.05106
G1 X101.852 Y114.355 E0.05010
G1 X101.311 Y112.884 E0.04914
G1 X100.847 Y111.323 E0.05106
G1 X100.492 Y109.765 E0.05011
G1 X100.237 Y108.188 E0.05010
G1 X100.084 Y106.597 E0.05010
G1 X100.034 Y105.030 E0.04915
G1 X100.087 Y103.373 E0.05200
G1 X100.237 Y101.812 E0.04915
G1 X100.492 Y100.235 E0.05011
G1 X100.855 Y98.647 E0.05106
G1 X101.301 Y97.145 E0.04914
G1 X101.852 Y95.645 E0.05010
G1 X102.511 Y94.155 E0.05107
G1 X103.251 Y92.739 E0.05011
G1 X104.080 Y91.373 E0.05010
G1 X104.994 Y90.062 E0.05010
G1 X105.972 Y88.837 E0.04914
G1 X107.065 Y87.630 E0.05105
G1 X108.158 Y86.574 E0.04767
G1 X108.116 Y86.141 F10800.000
;WIPE_START
G1 F8640.000
G1 X109.430 Y85.483 E-0.38682
G1 X110.710 Y84.527 E-0.36900
G1 X110.725 Y84.517 E-0.00417
;WIPE_END
G1 E-0.04000 F2100.000
G1 Z0.600 F10800.000
G1 X102.834 Y82.342
G1 Z0.200
G1 E0.80000 F2100.000
;TYPE:Perimeter
G1 F1200.000
G1 X102.579 Y82.650 E0.01252
G1 X102.256 Y82.885 E0.01252
G1 X101.885 Y83.032 E0.01252
G1 X101.489 Y83.082 E0.01252
G1 X101.092 Y83.032 E0.01252
G1 X100.721 Y82.885 E0.01252
G1 X100.398 Y82.650 E0.01252
G1 X100.143 Y82.342 E0.01252
G1 X99.973 Y81.981 E0.01252
G1 X99.899 Y81.589 E0.01252
G1 X99.924 Y81.190 E0.01252
G1 X100.047 Y80.810 E0.01252
G1 X100.261 Y80.473 E0.01252
G1 X100.552 Y80.200 E0.01252
G1 X100.902 Y80.007 E0.01252
G1 X101.289 Y79.908 E0.01252
G1 X101.688 Y79.908 E0.01252
G1 X102.075 Y80.007 E0.01252
G1 X102.425 Y80.200 E0.01252
G1 X102.668 Y80.427 E0.01042
G1 X102.926 Y80.798 E0.01417
G1 X103.054 Y81.190 E0.01294
G1 X103.079 Y81.589 E0.01252
G1 X103.004 Y81.981 E0.01252
G1 X102.860 Y82.288 E0.01064
G1 X102.518 Y82.128 F10800.000
;TYPE:External perimeter
G1 F1200.000
G1 X102.319 Y82.373 E0.00991
G1 X102.073 Y82.552 E0.00954
G1 X101.790 Y82.664 E0.00954
G1 X101.489 Y82.702 E0.00954
G1 X101.187 Y82.664 E0.00954
G1 X100.904 Y82.552 E0.00954
G1 X100.658 Y82.373 E0.00954
G1 X100.464 Y82.139 E0.00954
G1 X100.335 Y81.864 E0.00954
G1 X100.278 Y81.565 E0.00954
G1 X100.297 Y81.261 E0.00954
G1 X100.391 Y80.972 E0.00954
G1 X100.554 Y80.715 E0.00954
G1 X100.776 Y80.507 E0.00954
G1 X101.042 Y80.361 E0.00954
G1 X101.337 Y80.285 E0.00954
G1 X101.641 Y80.285 E0.00954
G1 X101.935 Y80.361 E0.00954
G1 X102.202 Y80.507 E0.00954
G1 X102.381 Y80.675 E0.00770
G1 X102.585 Y80.968 E0.01118
G1 X102.680 Y81.261 E0.00968
G1 X102.700 Y81.565 E0.00954
G1 X102.643 Y81.864 E0.00954
G1 X102.544 Y82.073 E0.00727
G1 X102.667 Y82.407 F10800.000
;WIPE_START
G1 F8640.000
G1 X102.319 Y82.373 E-0.08651
G1 X102.073 Y82.552 E-0.07022
G1 X101.790 Y82.664 E-0.07022
G1 X101.489 Y82.702 E-0.07022
G1 X101.187 Y82.664 E-0.07022
G1 X100.904 Y82.552 E-0.07022
G1 X100.658 Y82.373 E-0.07022
G1 X100.464 Y82.139 E-0.07022
G1 X100.335 Y81.864 E-0.07022
G1 X100.278 Y81.565 E-0.07022
G1 X100.289 Y81.386 E-0.04149
;WIPE_END
G1 E-0.04000 F2100.000
G1 Z0.600 F10800.000
G1 X147.112 Y80.719
G1 Z0.200
G1 E0.80000 F2100.000
;TYPE:Perimeter
G1 F1200.000
G1 X147.401 Y80.355 E0.01459
G1 X147.658 Y80.143 E0.01042
G1 X148.019 Y79.973 E0.01252
G1 X148.411 Y79.899 E0.01252
G1 X148.810 Y79.924 E0.01252
G1 X149.190 Y80.047 E0.01252
G1 X149.527 Y80.261 E0.01252
G1 X149.800 Y80.552 E0.01252
G1 X149.993 Y80.902 E0.01252
G1 X150.092 Y81.289 E0.01252
G1 X150.092 Y81.702 E0.01294
G1 X149.960 Y82.134 E0.01417
G1 X149.800 Y82.425 E0.01042
G1 X149.527 Y82.716 E0.01252
G1 X149.190 Y82.930 E0.01252
G1 X148.810 Y83.054 E0.01252
G1 X148.411 Y83.079 E0.01252
G1 X148.019 Y83.004 E0.01252
G1 X147.646 Y82.828 E0.01294
G1 X147.310 Y82.525 E0.01417
G1 X147.115 Y82.256 E0.01042
G1 X146.968 Y81.885 E0.01252
G1 X146.918 Y81.489 E0.01252
G1 X146.960 Y81.159 E0.01042
G1 X147.092 Y80.776 E0.01271
G1 X147.447 Y80.904 F10800.000
;TYPE:External perimeter
G1 F1200.000
G1 X147.672 Y80.621 E0.01133
G1 X147.861 Y80.464 E0.00770
G1 X148.136 Y80.335 E0.00954
G1 X148.435 Y80.278 E0.00954
G1 X148.739 Y80.297 E0.00954
G1 X149.028 Y80.391 E0.00954
G1 X149.285 Y80.554 E0.00954
G1 X149.493 Y80.776 E0.00954
G1 X149.639 Y81.042 E0.00954
G1 X149.715 Y81.337 E0.00954
G1 X149.715 Y81.645 E0.00968
G1 X149.611 Y81.987 E0.01118
G1 X149.493 Y82.202 E0.00770
G1 X149.285 Y82.424 E0.00954
G1 X149.028 Y82.586 E0.00954
G1 X148.739 Y82.680 E0.00954
G1 X148.435 Y82.700 E0.00954
G1 X148.136 Y82.643 E0.00954
G1 X147.857 Y82.511 E0.00968
G1 X147.592 Y82.272 E0.01118
G1 X147.448 Y82.073 E0.00770
G1 X147.336 Y81.790 E0.00954
G1 X147.298 Y81.489 E0.00954
G1 X147.329 Y81.245 E0.00770
G1 X147.427 Y80.960 E0.00945
G1 X147.269 Y80.589 F10800.000
;WIPE_START
G1 F8640.000
G1 X147.672 Y80.621 E-0.09663
G1 X147.861 Y80.464 E-0.05669
G1 X148.136 Y80.335 E-0.07022
G1 X148.435 Y80.278 E-0.07022
G1 X148.739 Y80.297 E-0.07022
G1 X149.028 Y80.391 E-0.07022
G1 X149.285 Y80.554 E-0.07022
G1 X149.493 Y80.776 E-0.07022
G1 X149.639 Y81.042 E-0.07022
G1 X149.715 Y81.337 E-0.07022
G1 X149.715 Y81.531 E-0.04490
;WIPE_END
G1 E-0.04000 F2100.000
G1 Z0.600 F10800.000
G1 X148.895 Y126.963
G1 Z0.200
G1 E0.80000 F2100.000
;TYPE:Perimeter
G1 F1200.000
G1 X149.279 Y127.115 E0.01294
G1 X149.602 Y127.350 E0.01252
G1 X149.857 Y127.658 E0.01252
G1 X150.027 Y128.019 E0.01252
G1 X150.101 Y128.411 E0.01252
G1 X150.076 Y128.810 E0.01252
G1 X149.953 Y129.190 E0.01252
G1 X149.739 Y129.527 E0.01252
G1 X149.448 Y129.800 E0.01252
G1 X149.098 Y129.993 E0.01252
G1 X148.711 Y130.092 E0.01252
G1 X148.312 Y130.092 E0.01252
G1 X147.925 Y129.993 E0.01252
G1 X147.575 Y129.800 E0.01252
G1 X147.284 Y129.527 E0.01252
G1 X147.070 Y129.190 E0.01252
G1 X146.946 Y128.810 E0.01252
G1 X146.921 Y128.411 E0.01252
G1 X146.996 Y128.019 E0.01252
G1 X147.166 Y127.658 E0.01252
G1 X147.421 Y127.350 E0.01252
G1 X147.744 Y127.115 E0.01252
G1 X148.115 Y126.968 E0.01252
G1 X148.445 Y126.926 E0.01042
G1 X148.835 Y126.958 E0.01229
G1 X148.805 Y127.334 F10800.000
;TYPE:External perimeter
G1 F1200.000
G1 X149.096 Y127.448 E0.00980
G1 X149.342 Y127.627 E0.00954
G1 X149.536 Y127.861 E0.00954
G1 X149.665 Y128.136 E0.00954
G1 X149.722 Y128.435 E0.00954
G1 X149.703 Y128.739 E0.00954
G1 X149.609 Y129.028 E0.00954
G1 X149.446 Y129.285 E0.00954
G1 X149.224 Y129.493 E0.00954
G1 X148.958 Y129.639 E0.00954
G1 X148.663 Y129.715 E0.00954
G1 X148.359 Y129.715 E0.00954
G1 X148.065 Y129.639 E0.00954
G1 X147.798 Y129.493 E0.00954
G1 X147.576 Y129.285 E0.00954
G1 X147.414 Y129.028 E0.00954
G1 X147.320 Y128.739 E0.00954
G1 X147.300 Y128.435 E0.00954
G1 X147.357 Y128.136 E0.00954
G1 X147.487 Y127.861 E0.00954
G1 X147.681 Y127.627 E0.00954
G1 X147.927 Y127.448 E0.00954
G1 X148.210 Y127.336 E0.00954
G1 X148.453 Y127.305 E0.00770
G1 X148.745 Y127.329 E0.00918
G1 X149.023 Y127.110 F10800.000
;WIPE_START
G1 F8640.000
G1 X149.096 Y127.448 E-0.08553
G1 X149.342 Y127.627 E-0.07022
G1 X149.536 Y127.861 E-0.07022
G1 X149.665 Y128.136 E-0.07022
G1 X149.722 Y128.435 E-0.07022
G1 X149.703 Y128.739 E-0.07022
G1 X149.609 Y129.028 E-0.07022
G1 X149.446 Y129.285 E-0.07022
G1 X149.224 Y129.493 E-0.07022
G1 X148.958 Y129.639 E-0.07022
G1 X148.780 Y129.685 E-0.04246
;WIPE_END
G1 E-0.04000 F2100.000
G1 Z0.600 F10800.000
G1 X103.082 Y128.511
G1 Z0.200
G1 E0.80000 F2100.000
;TYPE:Perimeter
G1 F1200.000
G1 X103.032 Y128.908 E0.01252
G1 X102.885 Y129.279 E0.01252
G1 X102.650 Y129.602 E0.01252
G1 X102.342 Y129.857 E0.01252
G1 X101.981 Y130.027 E0.01252
G1 X101.589 Y130.101 E0.01252
G1 X101.190 Y130.076 E0.01252
G1 X100.810 Y129.953 E0.01252
G1 X100.473 Y129.739 E0.01252
G1 X100.200 Y129.448 E0.01252
G1 X100.007 Y129.098 E0.01252
G1 X99.908 Y128.711 E0.01252
G1 X99.908 Y128.312 E0.01252
G1 X100.007 Y127.925 E0.01252
G1 X100.200 Y127.575 E0.01252
G1 X100.473 Y127.284 E0.01252
G1 X100.821 Y127.063 E0.01294
G1 X101.257 Y126.942 E0.01417
G1 X101.589 Y126.921 E0.01042
