; generated by PrusaSlicer 2.3.0+ on 2021-01-25 at 20:06:31 UTC

; 

; external perimeters extrusion width = 0.45mm
; perimeters extrusion width = 0.45mm
; infill extrusion width = 0.45mm
; solid infill extrusion width = 0.45mm
; top infill extrusion width = 0.40mm
; first layer extrusion width = 0.42mm

M73 P0 R40
M73 Q0 S41
M201 X1000 Y1000 Z200 E5000 ; sets maximum accelerations, mm/sec^2
M203 X200 Y200 Z12 E120 ; sets maximum feedrates, mm/sec
M204 P1250 R1250 T1250 ; sets acceleration (P, T) and retract acceleration (R), mm/sec^2
M205 X8.00 Y8.00 Z0.40 E4.50 ; sets the jerk limits, mm/sec
M205 S0 T0 ; sets the minimum extruding and travel feed rate, mm/sec
M107
;TYPE:Custom
M862.3 P "MK3S" ; printer model check
M862.1 P0.4 ; nozzle diameter check
M115 U3.9.3 ; tell printer latest fw version
G90 ; use absolute coordinates
M83 ; extruder relative mode
M104 S215 ; set extruder temp
M140 S60 ; set bed temp
M190 S60 ; wait for bed temp
M109 S215 ; wait for extruder temp
G28 W ; home all without mesh bed level
G80 ; mesh bed leveling
G1 Y-3.0 F1000.0 ; go outside print area
G92 E0.0
G1 X60.0 E9.0 F1000.0 ; intro line
G1 X100.0 E12.5 F1000.0 ; intro line
G92 E0.0
M221 S95

; Don't change E values below. Excessive value can damage the printer.

M907 E538 ; set extruder motor current
G21 ; set units to millimeters
G90 ; use absolute coordinates
M83 ; use relative distances for extrusion
M900 K0.05 ; Filament gcode LA 1.5
M900 K30 ; Filament gcode LA 1.0
;LAYER_CHANGE
;Z:0.2
;HEIGHT:0.2
;BEFORE_LAYER_CHANGE
G92 E0.0
;0.2


G1 E-0.80000 F2100.000
G1 Z0.400 F10800.000
;AFTER_LAYER_CHANGE
;0.2
G1 X77.691 Y72.747
G1 Z0.200
G1 E0.80000 F2100.000
M204 S1000
;TYPE:Skirt
;WIDTH:0.42
G1 F1200.000
G1 X78.138 Y71.909 E0.02977
G1 X89.401 Y60.634 E0.49968
G1 X89.997 Y60.221 E0.02272
G1 X90.689 Y60.008 E0.02272
G1 X158.969 Y59.982 E2.14087
M73 Q0 S40
G1 X159.871 Y60.162 E0.02884
G1 X160.640 Y60.673 E0.02896
G1 X171.773 Y71.808 E0.49370
G1 X172.226 Y72.512 E0.02626
G1 X172.406 Y73.326 E0.02614
G1 X164.112 Y140.324 E2.11670
G1 X163.941 Y141.136 E0.02602
G1 X163.659 Y141.969 E0.02759
G1 X163.060 Y143.142 E0.04129
G1 X162.535 Y143.875 E0.02826
G1 X161.473 Y144.935 E0.04705
G1 X160.275 Y145.726 E0.04502
G1 X159.369 Y146.132 E0.03112
G1 X157.988 Y146.495 E0.04479
G1 X129.488 Y149.781 E0.89950
G1 X127.339 Y149.954 E0.06761
G1 X125.210 Y150.017 E0.06679
G1 X123.031 Y149.972 E0.06834
G1 X120.834 Y149.813 E0.06907
G1 X92.073 Y146.504 E0.90770
G1 X91.259 Y146.333 E0.02610
G1 X90.426 Y146.052 E0.02754
G1 X89.249 Y145.451 E0.04145
G1 X88.516 Y144.926 E0.02826
G1 X87.454 Y143.861 E0.04717
G1 X86.661 Y142.659 E0.04514
G1 X86.256 Y141.749 E0.03124
G1 X85.888 Y140.326 E0.04609
G1 X77.607 Y73.692 E2.10531
G1 X77.685 Y72.806 E0.02789
; printing object bezel_large_dual_encoder.stl id:0 copy 0
;WIPE_START
G1 F8640.000
G1 X78.138 Y71.909 E-0.23208
G1 X79.754 Y70.291 E-0.52792
;WIPE_END
G1 E-0.04000 F2100.000
G1 Z0.600 F10800.000
G1 X95.241 Y85.265
G1 Z0.200
G1 E0.80000 F2100.000
;TYPE:Perimeter
G1 F1200.000
G1 X96.459 Y83.713 E0.06185
G1 X97.759 Y82.229 E0.06185
M73 P1 R40
G1 X99.135 Y80.816 E0.06185
M73 Q1 S40
G1 X100.585 Y79.478 E0.06185
G1 X102.104 Y78.220 E0.06185
G1 X103.687 Y77.043 E0.06185
G1 X105.331 Y75.953 E0.06184
G1 X107.031 Y74.952 E0.06186
G1 X108.781 Y74.042 E0.06184
G1 X110.577 Y73.227 E0.06185
G1 X112.414 Y72.508 E0.06185
G1 X114.287 Y71.888 E0.06185
G1 X116.190 Y71.369 E0.06185
G1 X118.118 Y70.951 E0.06185
G1 X120.065 Y70.637 E0.06185
G1 X122.027 Y70.427 E0.06185
G1 X124.031 Y70.320 E0.06292
G1 X126.004 Y70.321 E0.06185
G1 X127.973 Y70.427 E0.06185
G1 X129.935 Y70.637 E0.06185
G1 X131.882 Y70.951 E0.06185
G1 X133.810 Y71.369 E0.06185
G1 X135.713 Y71.888 E0.06185
G1 X137.586 Y72.508 E0.06185
G1 X139.391 Y73.214 E0.06078
G1 X141.219 Y74.042 E0.06291
G1 X142.940 Y74.936 E0.06079
G1 X144.697 Y75.972 E0.06397
G1 X146.313 Y77.043 E0.06079
G1 X147.896 Y78.220 E0.06185
G1 X149.415 Y79.478 E0.06185
G1 X150.865 Y80.816 E0.06185
G1 X152.241 Y82.229 E0.06185
G1 X153.541 Y83.713 E0.06185
G1 X154.759 Y85.265 E0.06185
G1 X155.894 Y86.878 E0.06185
G1 X156.958 Y88.580 E0.06292
G1 X157.913 Y90.306 E0.06185
G1 X158.775 Y92.080 E0.06185
G1 X159.542 Y93.898 E0.06185
G1 X160.210 Y95.754 E0.06185
G1 X160.779 Y97.642 E0.06185
G1 X161.247 Y99.559 E0.06185
G1 X161.612 Y101.497 E0.06185
G1 X161.874 Y103.453 E0.06185
G1 X162.031 Y105.419 E0.06185
G1 X162.083 Y107.357 E0.06079
G1 X162.029 Y109.396 E0.06397
G1 X161.874 Y111.329 E0.06079
G1 X161.606 Y113.318 E0.06291
G1 X161.247 Y115.223 E0.06078
G1 X160.779 Y117.139 E0.06185
G1 X160.210 Y119.028 E0.06185
G1 X159.542 Y120.884 E0.06185
G1 X158.775 Y122.701 E0.06185
G1 X157.913 Y124.476 E0.06185
G1 X156.941 Y126.231 E0.06292
G1 X155.894 Y127.903 E0.06185
G1 X154.759 Y129.517 E0.06185
G1 X153.541 Y131.068 E0.06185
G1 X152.241 Y132.552 E0.06185
G1 X150.865 Y133.965 E0.06185
G1 X149.415 Y135.303 E0.06185
G1 X147.896 Y136.562 E0.06185
G1 X146.340 Y137.718 E0.06078
G1 X144.669 Y138.828 E0.06290
G1 X142.999 Y139.813 E0.06080
G1 X141.188 Y140.754 E0.06397
G1 X139.423 Y141.555 E0.06079
G1 X137.586 Y142.273 E0.06185
G1 X135.713 Y142.893 E0.06185
G1 X133.810 Y143.413 E0.06185
G1 X131.882 Y143.830 E0.06185
G1 X129.935 Y144.145 E0.06185
G1 X127.973 Y144.355 E0.06185
G1 X126.003 Y144.461 E0.06185
G1 X123.997 Y144.461 E0.06292
G1 X122.027 Y144.355 E0.06185
G1 X120.065 Y144.145 E0.06185
G1 X118.118 Y143.830 E0.06185
G1 X116.190 Y143.413 E0.06185
G1 X114.287 Y142.893 E0.06185
G1 X112.414 Y142.273 E0.06185
G1 X110.577 Y141.555 E0.06185
G1 X108.781 Y140.740 E0.06185
G1 X107.031 Y139.830 E0.06184
G1 X105.331 Y138.829 E0.06186
G1 X103.687 Y137.738 E0.06184
G1 X102.104 Y136.562 E0.06185
G1 X100.585 Y135.303 E0.06185
G1 X99.135 Y133.965 E0.06185
G1 X97.759 Y132.552 E0.06185
G1 X96.459 Y131.068 E0.06185
G1 X95.241 Y129.517 E0.06185
G1 X94.106 Y127.903 E0.06185
G1 X93.042 Y126.202 E0.06292
G1 X92.087 Y124.476 E0.06185
G1 X91.225 Y122.701 E0.06185
G1 X90.458 Y120.884 E0.06185
G1 X89.790 Y119.028 E0.06185
G1 X89.221 Y117.139 E0.06185
G1 X88.753 Y115.223 E0.06185
G1 X88.388 Y113.284 E0.06185
G1 X88.126 Y111.329 E0.06185
G1 X87.969 Y109.363 E0.06185
G1 X87.917 Y107.425 E0.06079
G1 X87.971 Y105.385 E0.06397
G1 X88.126 Y103.452 E0.06079
G1 X88.394 Y101.464 E0.06291
G1 X88.753 Y99.559 E0.06078
G1 X89.221 Y97.642 E0.06185
G1 X89.790 Y95.754 E0.06185
G1 X90.458 Y93.898 E0.06185
G1 X91.225 Y92.080 E0.06185
G1 X92.087 Y90.306 E0.06185
G1 X93.059 Y88.550 E0.06292
G1 X94.106 Y86.878 E0.06185
G1 X95.206 Y85.314 E0.05997
G1 X95.515 Y85.530 F10800.000
;TYPE:External perimeter
G1 F1200.000
G1 X96.750 Y83.954 E0.06279
G1 X98.036 Y82.485 E0.06122
G1 X99.398 Y81.086 E0.06122
G1 X100.833 Y79.762 E0.06122
G1 X102.337 Y78.516 E0.06122
G1 X103.904 Y77.352 E0.06122
G1 X105.531 Y76.273 E0.06121
G1 X107.213 Y75.281 E0.06123
M73 P1 R39
G1 X108.946 Y74.381 E0.06121
G1 X110.724 Y73.574 E0.06122
G1 X112.542 Y72.863 E0.06122
G1 X114.396 Y72.249 E0.06122
G1 X116.280 Y71.735 E0.06122
G1 X118.188 Y71.322 E0.06122
G1 X120.115 Y71.011 E0.06122
G1 X122.057 Y70.803 E0.06122
G1 X124.041 Y70.697 E0.06229
G1 X125.993 Y70.698 E0.06122
G1 X127.943 Y70.803 E0.06122
G1 X129.885 Y71.011 E0.06122
G1 X131.812 Y71.322 E0.06122
G1 X133.720 Y71.735 E0.06122
G1 X135.604 Y72.249 E0.06122
G1 X137.458 Y72.863 E0.06122
G1 X139.245 Y73.562 E0.06016
G1 X141.054 Y74.381 E0.06228
G1 X142.757 Y75.266 E0.06016
G1 X144.497 Y76.291 E0.06334
G1 X146.096 Y77.352 E0.06016
G1 X147.663 Y78.516 E0.06122
G1 X149.167 Y79.762 E0.06122
G1 X150.602 Y81.086 E0.06122
G1 X151.964 Y82.485 E0.06122
G1 X153.250 Y83.954 E0.06122
G1 X154.457 Y85.490 E0.06122
G1 X155.580 Y87.087 E0.06122
G1 X156.633 Y88.771 E0.06229
G1 X157.579 Y90.480 E0.06122
G1 X158.432 Y92.236 E0.06122
G1 X159.190 Y94.035 E0.06122
G1 X159.852 Y95.872 E0.06122
G1 X160.416 Y97.742 E0.06122
G1 X160.879 Y99.639 E0.06122
G1 X161.240 Y101.557 E0.06122
G1 X161.499 Y103.493 E0.06122
G1 X161.655 Y105.439 E0.06122
G1 X161.706 Y107.357 E0.06016
G1 X161.652 Y109.376 E0.06334
G1 X161.499 Y111.289 E0.06016
G1 X161.234 Y113.258 E0.06228
G1 X160.879 Y115.143 E0.06016
G1 X160.416 Y117.040 E0.06122
G1 X159.852 Y118.910 E0.06122
G1 X159.190 Y120.746 E0.06122
G1 X158.432 Y122.546 E0.06122
G1 X157.579 Y124.302 E0.06122
G1 X156.616 Y126.040 E0.06229
G1 X155.580 Y127.695 E0.06122
G1 X154.457 Y129.292 E0.06122
G1 X153.250 Y130.827 E0.06122
G1 X151.964 Y132.296 E0.06122
G1 X150.602 Y133.695 E0.06122
G1 X149.167 Y135.019 E0.06122
G1 X147.663 Y136.265 E0.06122
G1 X146.123 Y137.409 E0.06016
G1 X144.469 Y138.509 E0.06227
G1 X142.816 Y139.483 E0.06017
G1 X141.023 Y140.415 E0.06334
G1 X139.276 Y141.207 E0.06016
G1 X137.458 Y141.919 E0.06122
G1 X135.604 Y142.532 E0.06122
G1 X133.720 Y143.046 E0.06122
G1 X131.812 Y143.460 E0.06122
G1 X129.885 Y143.771 E0.06122
G1 X127.943 Y143.979 E0.06122
G1 X125.993 Y144.084 E0.06122
G1 X124.007 Y144.084 E0.06229
G1 X122.057 Y143.979 E0.06122
G1 X120.115 Y143.771 E0.06122
G1 X118.188 Y143.460 E0.06122
G1 X116.280 Y143.046 E0.06122
G1 X114.396 Y142.532 E0.06122
G1 X112.542 Y141.919 E0.06122
G1 X110.724 Y141.207 E0.06122
G1 X108.946 Y140.400 E0.06122
G1 X107.213 Y139.500 E0.06121
G1 X105.531 Y138.509 E0.06123
G1 X103.904 Y137.430 E0.06121
G1 X102.337 Y136.265 E0.06122
G1 X100.833 Y135.019 E0.06122
G1 X99.398 Y133.695 E0.06122
G1 X98.036 Y132.296 E0.06122
G1 X96.750 Y130.827 E0.06122
G1 X95.543 Y129.292 E0.06122
G1 X94.420 Y127.695 E0.06122
G1 X93.367 Y126.010 E0.06229
G1 X92.421 Y124.302 E0.06122
G1 X91.568 Y122.546 E0.06122
G1 X90.810 Y120.746 E0.06122
G1 X90.148 Y118.910 E0.06122
G1 X89.584 Y117.040 E0.06122
G1 X89.121 Y115.143 E0.06122
G1 X88.760 Y113.224 E0.06122
G1 X88.501 Y111.289 E0.06122
G1 X88.345 Y109.343 E0.06122
G1 X88.294 Y107.425 E0.06016
G1 X88.348 Y105.405 E0.06334
G1 X88.501 Y103.493 E0.06016
G1 X88.766 Y101.524 E0.06228
G1 X89.121 Y99.639 E0.06016
G1 X89.584 Y97.742 E0.06122
G1 X90.148 Y95.872 E0.06122
G1 X90.810 Y94.035 E0.06122
G1 X91.568 Y92.236 E0.06122
G1 X92.421 Y90.480 E0.06122
G1 X93.384 Y88.742 E0.06229
G1 X94.420 Y87.087 E0.06122
G1 X95.480 Y85.580 E0.05777
G1 X95.356 Y85.163 F10800.000
;WIPE_START
G1 F8640.000
G1 X96.750 Y83.954 E-0.47621
G1 X97.559 Y83.029 E-0.28379
;WIPE_END
G1 E-0.04000 F2100.000
G1 Z0.600 F10800.000
G1 X93.280 Y137.620
G1 Z0.200
G1 E0.80000 F2100.000
;TYPE:Perimeter
G1 F1200.000
G1 X93.673 Y137.695 E0.01252
G1 X94.034 Y137.865 E0.01252
G1 X94.352 Y138.128 E0.01294
G1 X94.601 Y138.505 E0.01417
G1 X94.723 Y138.814 E0.01042
G1 X94.774 Y139.211 E0.01252
G1 X94.723 Y139.607 E0.01252
G1 X94.601 Y139.916 E0.01042
G1 X94.352 Y140.293 E0.01417
G1 X94.034 Y140.556 E0.01294
M73 P2 R39
G1 X93.673 Y140.726 E0.01252
G1 X93.280 Y140.801 E0.01252
G1 X92.882 Y140.776 E0.01252
G1 X92.502 Y140.652 E0.01252
G1 X92.165 Y140.438 E0.01252
G1 X91.891 Y140.147 E0.01252
G1 X91.699 Y139.797 E0.01252
G1 X91.599 Y139.410 E0.01252
G1 X91.599 Y139.011 E0.01252
G1 X91.699 Y138.624 E0.01252
G1 X91.891 Y138.274 E0.01252
G1 X92.165 Y137.983 E0.01252
M73 Q2 S40
G1 X92.513 Y137.762 E0.01294
G1 X92.949 Y137.641 E0.01417
G1 X93.220 Y137.624 E0.00854
G1 X93.244 Y138.001 F10800.000
;TYPE:External perimeter
G1 F1200.000
G1 X93.555 Y138.057 E0.00991
G1 X93.830 Y138.186 E0.00954
G1 X94.068 Y138.383 E0.00968
G1 X94.265 Y138.681 E0.01118
G1 X94.355 Y138.909 E0.00770
G1 X94.393 Y139.211 E0.00954
G1 X94.355 Y139.512 E0.00954
G1 X94.265 Y139.741 E0.00770
G1 X94.068 Y140.038 E0.01118
G1 X93.830 Y140.235 E0.00968
G1 X93.555 Y140.364 E0.00954
G1 X93.256 Y140.421 E0.00954
G1 X92.953 Y140.402 E0.00954
G1 X92.664 Y140.308 E0.00954
G1 X92.407 Y140.145 E0.00954
G1 X92.199 Y139.924 E0.00954
G1 X92.052 Y139.657 E0.00954
G1 X91.977 Y139.363 E0.00954
G1 X91.977 Y139.059 E0.00954
G1 X92.052 Y138.764 E0.00954
G1 X92.199 Y138.497 E0.00954
G1 X92.407 Y138.276 E0.00954
G1 X92.668 Y138.110 E0.00968
G1 X93.011 Y138.015 E0.01118
G1 X93.184 Y138.004 E0.00543
G1 X93.417 Y137.736 F10800.000
;WIPE_START
G1 F8640.000
G1 X93.555 Y138.057 E-0.08651
G1 X93.830 Y138.186 E-0.07022
G1 X94.068 Y138.383 E-0.07131
G1 X94.265 Y138.681 E-0.08235
G1 X94.355 Y138.909 E-0.05669
G1 X94.393 Y139.211 E-0.07022
G1 X94.355 Y139.512 E-0.07022
G1 X94.265 Y139.741 E-0.05669
G1 X94.068 Y140.038 E-0.08236
G1 X93.830 Y140.235 E-0.07131
G1 X93.665 Y140.313 E-0.04211
;WIPE_END
G1 E-0.04000 F2100.000
G1 Z0.600 F10800.000
G1 X155.230 Y139.111
G1 Z0.200
G1 E0.80000 F2100.000
;TYPE:Perimeter
G1 F1200.000
G1 X155.304 Y138.718 E0.01252
G1 X155.475 Y138.357 E0.01252
G1 X155.729 Y138.049 E0.01252
G1 X156.052 Y137.814 E0.01252
G1 X156.424 Y137.667 E0.01252
G1 X156.753 Y137.626 E0.01042
G1 X157.204 Y137.662 E0.01417
G1 X157.587 Y137.814 E0.01294
G1 X157.911 Y138.049 E0.01252
G1 X158.165 Y138.357 E0.01252
G1 X158.335 Y138.718 E0.01252
G1 X158.410 Y139.111 E0.01252
G1 X158.385 Y139.509 E0.01252
G1 X158.261 Y139.889 E0.01252
G1 X158.047 Y140.226 E0.01252
G1 X157.756 Y140.500 E0.01252
G1 X157.406 Y140.692 E0.01252
G1 X157.020 Y140.791 E0.01252
G1 X156.620 Y140.791 E0.01252
G1 X156.233 Y140.692 E0.01252
G1 X155.883 Y140.500 E0.01252
G1 X155.592 Y140.226 E0.01252
G1 X155.378 Y139.889 E0.01252
G1 X155.255 Y139.509 E0.01252
G1 X155.233 Y139.170 E0.01064
G1 X155.610 Y139.147 F10800.000
;TYPE:External perimeter
G1 F1200.000
G1 X155.666 Y138.836 E0.00991
G1 X155.795 Y138.561 E0.00954
G1 X155.989 Y138.326 E0.00954
G1 X156.235 Y138.147 E0.00954
G1 X156.518 Y138.035 E0.00954
G1 X156.762 Y138.005 E0.00770
G1 X157.117 Y138.034 E0.01118
G1 X157.404 Y138.147 E0.00968
G1 X157.650 Y138.326 E0.00954
G1 X157.844 Y138.561 E0.00954
G1 X157.974 Y138.836 E0.00954
G1 X158.031 Y139.134 E0.00954
G1 X158.012 Y139.438 E0.00954
G1 X157.918 Y139.727 E0.00954
G1 X157.755 Y139.984 E0.00954
G1 X157.533 Y140.192 E0.00954
G1 X157.266 Y140.339 E0.00954
G1 X156.972 Y140.414 E0.00954
G1 X156.668 Y140.414 E0.00954
G1 X156.373 Y140.339 E0.00954
G1 X156.107 Y140.192 E0.00954
G1 X155.885 Y139.984 E0.00954
G1 X155.722 Y139.727 E0.00954
G1 X155.628 Y139.438 E0.00954
G1 X155.613 Y139.207 E0.00727
G1 X155.345 Y138.974 F10800.000
;WIPE_START
G1 F8640.000
G1 X155.666 Y138.836 E-0.08650
G1 X155.795 Y138.561 E-0.07022
G1 X155.989 Y138.326 E-0.07022
G1 X156.235 Y138.147 E-0.07022
G1 X156.518 Y138.035 E-0.07022
G1 X156.762 Y138.005 E-0.05669
G1 X157.117 Y138.034 E-0.08235
G1 X157.404 Y138.147 E-0.07131
G1 X157.650 Y138.326 E-0.07022
G1 X157.844 Y138.561 E-0.07022
G1 X157.921 Y138.724 E-0.04180
;WIPE_END
G1 E-0.04000 F2100.000
G1 Z0.600 F10800.000
G1 X143.357 Y72.469
G1 Z0.200
G1 E0.80000 F2100.000
;TYPE:Perimeter
G1 F1200.000
G1 X144.055 Y71.771 E0.03094
G1 X160.620 Y88.336 E0.73450
G1 X159.922 Y89.034 E0.03095
G1 X160.555 Y90.270 E0.04354
G1 X161.364 Y92.063 E0.06169
G1 X162.083 Y93.895 E0.06169
G1 X162.710 Y95.760 E0.06169
G1 X163.243 Y97.654 E0.06169
G1 X163.680 Y99.572 E0.06169
G1 X164.022 Y101.510 E0.06169
G1 X164.267 Y103.462 E0.06169
G1 X164.414 Y105.424 E0.06169
G1 X164.463 Y107.391 E0.06169
G1 X164.412 Y109.384 E0.06252
G1 X164.261 Y111.372 E0.06251
G1 X164.006 Y113.373 E0.06326
G1 X163.659 Y115.313 E0.06177
G1 X163.210 Y117.256 E0.06252
G1 X162.655 Y119.195 E0.06326
G1 X162.020 Y121.060 E0.06178
G1 X161.282 Y122.913 E0.06251
G1 X160.441 Y124.747 E0.06326
G1 X159.531 Y126.494 E0.06178
G1 X158.522 Y128.214 E0.06252
G1 X157.427 Y129.881 E0.06252
G1 X156.250 Y131.490 E0.06252
G1 X155.715 Y132.148 E0.02658
G1 X159.784 Y136.217 E0.18042
G1 X160.093 Y136.560 E0.01447
G1 X160.352 Y136.917 E0.01382
G1 X160.573 Y137.298 E0.01382
G1 X160.752 Y137.701 E0.01382
G1 X160.888 Y138.121 E0.01382
G1 X160.980 Y138.552 E0.01382
G1 X161.026 Y138.990 E0.01382
G1 X161.026 Y139.431 E0.01382
G1 X160.980 Y139.869 E0.01382
G1 X160.888 Y140.301 E0.01382
G1 X160.752 Y140.720 E0.01382
G1 X160.573 Y141.123 E0.01382
G1 X160.352 Y141.505 E0.01382
G1 X160.093 Y141.861 E0.01382
G1 X159.798 Y142.189 E0.01382
G1 X159.470 Y142.484 E0.01382
G1 X159.114 Y142.743 E0.01382
G1 X158.732 Y142.963 E0.01382
G1 X158.329 Y143.143 E0.01382
G1 X157.910 Y143.279 E0.01382
G1 X157.479 Y143.371 E0.01382
G1 X157.040 Y143.417 E0.01382
G1 X156.599 Y143.417 E0.01382
