; generated by PrusaSlicer 2.3.0+ on 2021-01-26 at 17:19:28 UTC

; 

; external perimeters extrusion width = 0.45mm
; perimeters extrusion width = 0.45mm
; infill extrusion width = 0.45mm
; solid infill extrusion width = 0.45mm
; top infill extrusion width = 0.40mm
; first layer extrusion width = 0.42mm

M73 P0 R44
M73 Q0 S44
M201 X1000 Y1000 Z200 E5000 ; sets maximum accelerations, mm/sec^2
M203 X200 Y200 Z12 E120 ; sets maximum feedrates, mm/sec
M204 P1250 R1250 T1250 ; sets acceleration (P, T) and retract acceleration (R), mm/sec^2
M205 X8.00 Y8.00 Z0.40 E4.50 ; sets the jerk limits, mm/sec
M205 S0 T0 ; sets the minimum extruding and travel feed rate, mm/sec
M107
;TYPE:Custom
M862.3 P "MK3S" ; printer model check
M862.1 P0.4 ; nozzle diameter check
M115 U3.9.3 ; tell printer latest fw version
G90 ; use absolute coordinates
M83 ; extruder relative mode
M104 S215 ; set extruder temp
M140 S60 ; set bed temp
M190 S60 ; wait for bed temp
M109 S215 ; wait for extruder temp
G28 W ; home all without mesh bed level
G80 ; mesh bed leveling
G1 Y-3.0 F1000.0 ; go outside print area
G92 E0.0
G1 X60.0 E9.0 F1000.0 ; intro line
G1 X100.0 E12.5 F1000.0 ; intro line
G92 E0.0
M221 S95

; Don't change E values below. Excessive value can damage the printer.
M907 E430 ; set extruder motor current
G21 ; set units to millimeters
G90 ; use absolute coordinates
M83 ; use relative distances for extrusion
M900 K0.05 ; Filament gcode LA 1.5
M900 K30 ; Filament gcode LA 1.0
;LAYER_CHANGE
;Z:0.2
;HEIGHT:0.2
;BEFORE_LAYER_CHANGE
G92 E0.0
;0.2


G1 E-0.80000 F2100.000
G1 Z0.400 F10800.000
;AFTER_LAYER_CHANGE
;0.2
G1 X98.151 Y74.910
G1 Z0.200
G1 E0.80000 F2100.000
M204 S1000
;TYPE:Skirt
;WIDTH:0.42
G1 F1200.000
G1 X99.581 Y74.363 E0.04800
G1 X101.108 Y74.121 E0.04847
G1 X148.777 Y74.118 E1.49463
G1 X149.783 Y74.224 E0.03171
G1 X151.248 Y74.639 E0.04775
G1 X152.537 Y75.307 E0.04550
G1 X153.704 Y76.249 E0.04705
G1 X154.634 Y77.378 E0.04585
G1 X155.130 Y78.233 E0.03100
G1 X155.637 Y79.581 E0.04514
G1 X155.871 Y81.009 E0.04538
G1 X155.880 Y128.849 E1.50000
G1 X155.777 Y129.779 E0.02933
G1 X155.397 Y131.160 E0.04490
G1 X154.756 Y132.436 E0.04479
G1 X154.195 Y133.213 E0.03005
G1 X153.141 Y134.255 E0.04645
G1 X151.835 Y135.097 E0.04871
G1 X150.401 Y135.642 E0.04812
G1 X148.812 Y135.881 E0.05037
G1 X101.151 Y135.880 E1.49439
G1 X100.221 Y135.777 E0.02933
G1 X98.840 Y135.397 E0.04490
G1 X97.564 Y134.756 E0.04479
G1 X96.787 Y134.195 E0.03005
G1 X95.745 Y133.141 E0.04645
G1 X94.903 Y131.836 E0.04871
G1 X94.358 Y130.401 E0.04812
G1 X94.119 Y128.812 E0.05037
G1 X94.120 Y81.151 E1.49439
G1 X94.223 Y80.221 E0.02933
G1 X94.603 Y78.840 E0.04490
G1 X95.244 Y77.564 E0.04479
G1 X95.805 Y76.787 E0.03005
G1 X96.856 Y75.748 E0.04633
G1 X98.100 Y74.943 E0.04647
; printing object bezel_small_clock.stl id:0 copy 0
;WIPE_START
G1 F8640.000
G1 X99.581 Y74.363 E-0.36705
G1 X101.108 Y74.121 E-0.35698
G1 X101.263 Y74.121 E-0.03597
;WIPE_END
G1 E-0.04000 F2100.000
G1 Z0.600 F10800.000
G1 X103.531 Y111.015
G1 Z0.200
G1 E0.80000 F2100.000
;TYPE:Perimeter
G1 F1200.000
G1 X102.667 Y111.010 E0.02708
G1 X102.417 Y110.981 E0.00790
G1 X102.134 Y110.878 E0.00944
G1 X101.882 Y110.711 E0.00949
G1 X101.676 Y110.488 E0.00950
G1 X101.534 Y110.231 E0.00923
G1 X101.460 Y109.984 E0.00809
G1 X101.440 Y109.774 E0.00661
G1 X101.440 Y93.819 E0.50025
G1 X101.469 Y93.567 E0.00795
G1 X101.572 Y93.284 E0.00944
G1 X101.739 Y93.032 E0.00949
G1 X101.962 Y92.826 E0.00950
G1 X102.219 Y92.684 E0.00923
G1 X102.466 Y92.610 E0.00809
G1 X102.676 Y92.590 E0.00661
G1 X147.331 Y92.590 E1.40012
G1 X147.583 Y92.619 E0.00795
G1 X147.866 Y92.722 E0.00944
G1 X148.118 Y92.889 E0.00949
G1 X148.324 Y93.112 E0.00950
G1 X148.466 Y93.369 E0.00923
G1 X148.540 Y93.616 E0.00809
G1 X148.560 Y93.826 E0.00661
G1 X148.560 Y109.781 E0.50025
G1 X148.531 Y110.033 E0.00795
G1 X148.428 Y110.316 E0.00944
G1 X148.261 Y110.568 E0.00949
G1 X148.038 Y110.774 E0.00950
G1 X147.781 Y110.916 E0.00923
G1 X147.534 Y110.990 E0.00809
G1 X147.326 Y111.010 E0.00654
G1 X146.466 Y111.017 E0.02695
G1 X146.460 Y119.881 E0.27795
G1 X146.431 Y120.133 E0.00794
G1 X146.328 Y120.416 E0.00944
G1 X146.161 Y120.668 E0.00949
G1 X145.938 Y120.874 E0.00950
G1 X145.681 Y121.016 E0.00923
G1 X145.434 Y121.090 E0.00809
G1 X145.224 Y121.110 E0.00661
G1 X104.776 Y121.110 E1.26819
M73 P0 R43
M73 Q1 S44
G1 X104.566 Y121.090 E0.00661
G1 X104.319 Y121.016 E0.00809
G1 X104.062 Y120.874 E0.00923
G1 X103.839 Y120.668 E0.00950
G1 X103.672 Y120.416 E0.00949
G1 X103.569 Y120.133 E0.00944
G1 X103.540 Y119.881 E0.00794
M73 P1 R43
G1 X103.531 Y111.075 E0.27613
G1 X103.908 Y110.691 F10800.000
;TYPE:External perimeter
G1 F1200.000
G1 X103.889 Y110.655 E0.00127
G1 X103.853 Y110.639 E0.00123
G1 X102.690 Y110.633 E0.03648
G1 X102.504 Y110.612 E0.00586
G1 X102.305 Y110.539 E0.00664
G1 X102.128 Y110.422 E0.00666
G1 X101.984 Y110.266 E0.00666
G1 X101.883 Y110.084 E0.00652
G1 X101.832 Y109.911 E0.00566
G1 X101.817 Y109.756 E0.00490
G1 X101.817 Y93.841 E0.49900
G1 X101.838 Y93.654 E0.00588
G1 X101.911 Y93.455 E0.00664
G1 X102.028 Y93.278 E0.00666
G1 X102.184 Y93.134 E0.00666
G1 X102.366 Y93.033 E0.00652
G1 X102.539 Y92.982 E0.00566
G1 X102.694 Y92.967 E0.00490
G1 X147.309 Y92.967 E1.39887
G1 X147.496 Y92.988 E0.00588
G1 X147.695 Y93.061 E0.00664
G1 X147.872 Y93.178 E0.00666
G1 X148.016 Y93.334 E0.00666
G1 X148.117 Y93.516 E0.00652
G1 X148.168 Y93.689 E0.00566
G1 X148.183 Y93.844 E0.00490
G1 X148.183 Y109.759 E0.49900
G1 X148.162 Y109.946 E0.00588
G1 X148.089 Y110.145 E0.00664
G1 X147.972 Y110.322 E0.00666
G1 X147.816 Y110.466 E0.00666
G1 X147.634 Y110.567 E0.00652
G1 X147.461 Y110.618 E0.00566
G1 X147.306 Y110.633 E0.00487
G1 X146.142 Y110.642 E0.03651
G1 X146.105 Y110.661 E0.00129
G1 X146.090 Y110.696 E0.00122
G1 X146.083 Y119.860 E0.28731
G1 X146.062 Y120.046 E0.00588
G1 X145.989 Y120.245 E0.00664
G1 X145.872 Y120.422 E0.00666
G1 X145.716 Y120.566 E0.00666
G1 X145.534 Y120.667 E0.00652
G1 X145.361 Y120.718 E0.00566
G1 X145.206 Y120.733 E0.00490
G1 X104.794 Y120.733 E1.26706
G1 X104.639 Y120.718 E0.00490
G1 X104.466 Y120.667 E0.00566
G1 X104.284 Y120.566 E0.00652
G1 X104.128 Y120.422 E0.00666
G1 X104.011 Y120.245 E0.00666
G1 X103.938 Y120.046 E0.00664
G1 X103.917 Y119.860 E0.00588
G1 X103.908 Y110.751 E0.28559
G1 X103.868 Y110.683 F10800.000
;WIPE_START
G1 F8640.000
G1 X103.889 Y110.655 E-0.02261
G1 X103.853 Y110.639 E-0.00908
G1 X102.690 Y110.633 E-0.26865
G1 X102.504 Y110.612 E-0.04318
G1 X102.305 Y110.539 E-0.04889
G1 X102.128 Y110.422 E-0.04901
G1 X101.984 Y110.266 E-0.04904
G1 X101.883 Y110.084 E-0.04804
G1 X101.832 Y109.911 E-0.04165
G1 X101.817 Y109.756 E-0.03608
G1 X101.817 Y109.133 E-0.14375
;WIPE_END
G1 E-0.04000 F2100.000
G1 Z0.600 F10800.000
G1 X101.489 Y83.782
G1 Z0.200
G1 E0.80000 F2100.000
;TYPE:Perimeter
G1 F1200.000
G1 X100.918 Y83.710 E0.01802
G1 X100.384 Y83.498 E0.01802
G1 X99.919 Y83.160 E0.01802
G1 X99.552 Y82.718 E0.01802
G1 X99.308 Y82.197 E0.01802
G1 X99.200 Y81.633 E0.01802
G1 X99.236 Y81.059 E0.01802
G1 X99.414 Y80.512 E0.01802
G1 X99.722 Y80.027 E0.01802
G1 X100.141 Y79.633 E0.01802
G1 X100.644 Y79.356 E0.01802
G1 X101.201 Y79.213 E0.01802
G1 X101.776 Y79.213 E0.01802
G1 X102.333 Y79.356 E0.01802
G1 X102.837 Y79.633 E0.01802
G1 X103.256 Y80.027 E0.01802
G1 X103.564 Y80.512 E0.01802
G1 X103.741 Y81.059 E0.01802
G1 X103.778 Y81.633 E0.01802
G1 X103.670 Y82.197 E0.01802
G1 X103.425 Y82.718 E0.01802
G1 X103.059 Y83.160 E0.01802
G1 X102.594 Y83.498 E0.01802
G1 X102.059 Y83.710 E0.01802
G1 X101.548 Y83.775 E0.01614
G1 X101.501 Y83.400 F10800.000
;TYPE:External perimeter
G1 F1200.000
G1 X101.013 Y83.342 E0.01541
G1 X100.567 Y83.165 E0.01504
G1 X100.179 Y82.883 E0.01504
G1 X99.873 Y82.514 E0.01504
G1 X99.669 Y82.080 E0.01504
G1 X99.579 Y81.609 E0.01504
G1 X99.609 Y81.130 E0.01504
G1 X99.758 Y80.674 E0.01504
G1 X100.015 Y80.269 E0.01504
G1 X100.364 Y79.941 E0.01504
G1 X100.784 Y79.710 E0.01504
G1 X101.249 Y79.591 E0.01504
G1 X101.728 Y79.591 E0.01504
G1 X102.193 Y79.710 E0.01504
G1 X102.613 Y79.941 E0.01504
G1 X102.963 Y80.269 E0.01504
G1 X103.220 Y80.674 E0.01504
G1 X103.368 Y81.130 E0.01504
G1 X103.398 Y81.609 E0.01504
G1 X103.308 Y82.080 E0.01504
G1 X103.104 Y82.514 E0.01504
G1 X102.798 Y82.883 E0.01504
G1 X102.410 Y83.165 E0.01504
G1 X101.965 Y83.342 E0.01504
G1 X101.560 Y83.393 E0.01277
G1 X101.303 Y83.748 F10800.000
;WIPE_START
G1 F8640.000
G1 X101.013 Y83.342 E-0.12699
G1 X100.567 Y83.165 E-0.11074
G1 X100.179 Y82.883 E-0.11074
G1 X99.873 Y82.514 E-0.11074
G1 X99.669 Y82.080 E-0.11074
G1 X99.579 Y81.609 E-0.11074
G1 X99.601 Y81.266 E-0.07932
;WIPE_END
G1 E-0.04000 F2100.000
G1 Z0.600 F10800.000
G1 X146.218 Y81.489
G1 Z0.200
G1 E0.80000 F2100.000
;TYPE:Perimeter
G1 F1200.000
G1 X146.290 Y80.918 E0.01802
G1 X146.502 Y80.384 E0.01802
G1 X146.840 Y79.919 E0.01802
G1 X147.282 Y79.552 E0.01802
G1 X147.803 Y79.308 E0.01802
G1 X148.328 Y79.207 E0.01678
G1 X148.936 Y79.234 E0.01907
G1 X149.488 Y79.414 E0.01820
G1 X149.973 Y79.722 E0.01802
G1 X150.367 Y80.141 E0.01802
G1 X150.644 Y80.644 E0.01802
G1 X150.787 Y81.201 E0.01802
G1 X150.787 Y81.776 E0.01802
G1 X150.644 Y82.333 E0.01802
G1 X150.367 Y82.837 E0.01802
G1 X149.973 Y83.256 E0.01802
G1 X149.488 Y83.564 E0.01802
G1 X148.941 Y83.741 E0.01802
G1 X148.367 Y83.778 E0.01802
G1 X147.803 Y83.670 E0.01802
G1 X147.282 Y83.425 E0.01802
G1 X146.840 Y83.059 E0.01802
G1 X146.502 Y82.594 E0.01802
G1 X146.290 Y82.059 E0.01802
G1 X146.225 Y81.548 E0.01614
G1 X146.600 Y81.501 F10800.000
;TYPE:External perimeter
G1 F1200.000
G1 X146.658 Y81.013 E0.01541
G1 X146.835 Y80.567 E0.01504
G1 X147.117 Y80.179 E0.01504
G1 X147.486 Y79.873 E0.01504
G1 X147.920 Y79.669 E0.01504
G1 X148.356 Y79.586 E0.01390
G1 X148.868 Y79.609 E0.01608
G1 X149.326 Y79.758 E0.01510
G1 X149.731 Y80.015 E0.01504
G1 X150.059 Y80.364 E0.01504
G1 X150.290 Y80.784 E0.01504
G1 X150.409 Y81.249 E0.01504
G1 X150.409 Y81.728 E0.01504
G1 X150.290 Y82.193 E0.01504
G1 X150.059 Y82.613 E0.01504
G1 X149.731 Y82.963 E0.01504
G1 X149.326 Y83.220 E0.01504
G1 X148.870 Y83.368 E0.01504
G1 X148.391 Y83.398 E0.01504
G1 X147.920 Y83.308 E0.01504
G1 X147.486 Y83.104 E0.01504
G1 X147.117 Y82.798 E0.01504
G1 X146.835 Y82.410 E0.01504
G1 X146.658 Y81.965 E0.01504
G1 X146.607 Y81.560 E0.01277
G1 X146.252 Y81.303 F10800.000
;WIPE_START
G1 F8640.000
G1 X146.658 Y81.013 E-0.12699
G1 X146.835 Y80.567 E-0.11074
G1 X147.117 Y80.179 E-0.11074
G1 X147.486 Y79.873 E-0.11074
G1 X147.920 Y79.669 E-0.11074
G1 X148.356 Y79.586 E-0.10238
G1 X148.735 Y79.603 E-0.08767
;WIPE_END
G1 E-0.04000 F2100.000
G1 Z0.600 F10800.000
G1 X149.076 Y126.288
G1 Z0.200
G1 E0.80000 F2100.000
;TYPE:Perimeter
G1 F1200.000
G1 X149.616 Y126.502 E0.01820
G1 X150.081 Y126.840 E0.01802
G1 X150.448 Y127.282 E0.01802
G1 X150.692 Y127.803 E0.01802
G1 X150.800 Y128.367 E0.01802
G1 X150.764 Y128.941 E0.01802
G1 X150.586 Y129.488 E0.01802
G1 X150.278 Y129.973 E0.01802
G1 X149.859 Y130.367 E0.01802
G1 X149.356 Y130.644 E0.01802
G1 X148.799 Y130.787 E0.01802
G1 X148.224 Y130.787 E0.01802
G1 X147.667 Y130.644 E0.01802
G1 X147.163 Y130.367 E0.01802
G1 X146.744 Y129.973 E0.01802
G1 X146.436 Y129.488 E0.01802
G1 X146.259 Y128.941 E0.01802
G1 X146.222 Y128.367 E0.01802
G1 X146.330 Y127.803 E0.01802
G1 X146.575 Y127.282 E0.01802
G1 X146.941 Y126.840 E0.01802
G1 X147.406 Y126.502 E0.01802
G1 X147.941 Y126.290 E0.01802
G1 X148.472 Y126.223 E0.01678
G1 X149.017 Y126.282 E0.01718
G1 X148.977 Y126.656 F10800.000
;TYPE:External perimeter
G1 F1200.000
G1 X149.433 Y126.835 E0.01537
G1 X149.821 Y127.117 E0.01504
G1 X150.127 Y127.486 E0.01504
G1 X150.331 Y127.920 E0.01504
G1 X150.421 Y128.391 E0.01504
G1 X150.391 Y128.870 E0.01504
G1 X150.242 Y129.326 E0.01504
G1 X149.985 Y129.731 E0.01504
G1 X149.636 Y130.059 E0.01504
G1 X149.216 Y130.290 E0.01504
G1 X148.751 Y130.409 E0.01504
G1 X148.272 Y130.409 E0.01504
G1 X147.807 Y130.290 E0.01504
G1 X147.387 Y130.059 E0.01504
G1 X147.037 Y129.731 E0.01504
G1 X146.780 Y129.326 E0.01504
G1 X146.632 Y128.870 E0.01504
G1 X146.602 Y128.391 E0.01504
G1 X146.692 Y127.920 E0.01504
G1 X146.896 Y127.486 E0.01504
G1 X147.202 Y127.117 E0.01504
G1 X147.590 Y126.835 E0.01504
G1 X148.035 Y126.658 E0.01504
G1 X148.475 Y126.603 E0.01390
G1 X148.917 Y126.650 E0.01392
G1 X149.255 Y126.370 F10800.000
;WIPE_START
G1 F8640.000
G1 X149.433 Y126.835 E-0.12658
G1 X149.821 Y127.117 E-0.11074
G1 X150.127 Y127.486 E-0.11074
G1 X150.331 Y127.920 E-0.11074
G1 X150.421 Y128.391 E-0.11074
G1 X150.391 Y128.870 E-0.11074
G1 X150.284 Y129.198 E-0.07973
;WIPE_END
G1 E-0.04000 F2100.000
G1 Z0.600 F10800.000
G1 X103.782 Y128.511
G1 Z0.200
G1 E0.80000 F2100.000
;TYPE:Perimeter
G1 F1200.000
G1 X103.710 Y129.082 E0.01802
G1 X103.513 Y129.579 E0.01678
G1 X103.165 Y130.078 E0.01907
G1 X102.718 Y130.448 E0.01820
G1 X102.197 Y130.692 E0.01802
G1 X101.633 Y130.800 E0.01802
G1 X101.059 Y130.764 E0.01802
G1 X100.512 Y130.586 E0.01802
G1 X100.027 Y130.278 E0.01802
G1 X99.633 Y129.859 E0.01802
G1 X99.356 Y129.356 E0.01802
G1 X99.213 Y128.799 E0.01802
G1 X99.213 Y128.224 E0.01802
G1 X99.356 Y127.667 E0.01802
G1 X99.633 Y127.163 E0.01802
G1 X100.027 Y126.744 E0.01802
G1 X100.512 Y126.436 E0.01802
G1 X101.059 Y126.259 E0.01802
G1 X101.593 Y126.225 E0.01678
G1 X102.192 Y126.328 E0.01907
G1 X102.718 Y126.575 E0.01820
G1 X103.160 Y126.941 E0.01802
G1 X103.498 Y127.406 E0.01802
G1 X103.710 Y127.941 E0.01802
G1 X103.775 Y128.452 E0.01614
G1 X103.400 Y128.499 F10800.000
;TYPE:External perimeter
G1 F1200.000
G1 X103.342 Y128.987 E0.01541
G1 X103.179 Y129.399 E0.01390
G1 X102.885 Y129.820 E0.01608
G1 X102.514 Y130.127 E0.01510
G1 X102.080 Y130.331 E0.01504
G1 X101.609 Y130.421 E0.01504
G1 X101.130 Y130.391 E0.01504
G1 X100.674 Y130.242 E0.01504
G1 X100.269 Y129.985 E0.01504
G1 X99.941 Y129.636 E0.01504
G1 X99.710 Y129.216 E0.01504
G1 X99.591 Y128.751 E0.01504
G1 X99.591 Y128.272 E0.01504
G1 X99.710 Y127.807 E0.01504
G1 X99.941 Y127.387 E0.01504
G1 X100.269 Y127.037 E0.01504
G1 X100.674 Y126.780 E0.01504
G1 X101.130 Y126.632 E0.01504
G1 X101.573 Y126.604 E0.01390
G1 X102.078 Y126.691 E0.01608
G1 X102.514 Y126.896 E0.01510
G1 X102.883 Y127.202 E0.01504
G1 X103.165 Y127.590 E0.01504
G1 X103.342 Y128.035 E0.01504
G1 X103.393 Y128.440 E0.01277
G1 X103.748 Y128.697 F10800.000
;WIPE_START
G1 F8640.000
G1 X103.342 Y128.987 E-0.12699
G1 X103.179 Y129.399 E-0.10238
G1 X102.885 Y129.820 E-0.11841
G1 X102.514 Y130.127 E-0.11120
G1 X102.080 Y130.331 E-0.11074
G1 X101.609 Y130.421 E-0.11074
G1 X101.265 Y130.399 E-0.07954
;WIPE_END
G1 E-0.04000 F2100.000
G1 Z0.600 F10800.000
G1 X112.093 Y89.537
G1 Z0.200
G1 E0.80000 F2100.000
;TYPE:Perimeter
G1 F1200.000
G1 X119.398 Y85.652 E0.25943
G1 X115.795 Y78.875 E0.24067
G1 X116.566 Y78.602 E0.02566
G1 X118.212 Y78.132 E0.05367
G1 X119.884 Y77.764 E0.05367
G1 X121.593 Y77.498 E0.05424
G1 X123.280 Y77.341 E0.05312
G1 X124.991 Y77.288 E0.05368
G1 X126.702 Y77.340 E0.05367
G1 X128.425 Y77.500 E0.05423
G1 X130.116 Y77.764 E0.05367
G1 X131.788 Y78.132 E0.05368
G1 X133.434 Y78.602 E0.05367
G1 X134.205 Y78.875 E0.02566
G1 X130.602 Y85.652 E0.24067
G1 X137.907 Y89.537 E0.25943
G1 X141.790 Y82.236 E0.25927
G1 X145.517 Y78.525 E0.16492
G1 X145.861 Y78.215 E0.01449
G1 X146.217 Y77.956 E0.01382
G1 X146.599 Y77.736 E0.01382
G1 X147.002 Y77.557 E0.01382
G1 X147.421 Y77.420 E0.01382
G1 X147.852 Y77.329 E0.01382
G1 X148.291 Y77.283 E0.01382
G1 X148.732 Y77.283 E0.01382
G1 X149.170 Y77.329 E0.01382
G1 X149.601 Y77.420 E0.01382
G1 X150.021 Y77.557 E0.01382
G1 X150.423 Y77.736 E0.01382
G1 X150.805 Y77.956 E0.01382
G1 X151.162 Y78.215 E0.01382
G1 X151.490 Y78.510 E0.01382
G1 X151.785 Y78.838 E0.01382
G1 X152.044 Y79.195 E0.01382
G1 X152.264 Y79.577 E0.01382
G1 X152.443 Y79.979 E0.01382
G1 X152.580 Y80.399 E0.01382
G1 X152.671 Y80.830 E0.01382
G1 X152.717 Y81.268 E0.01382
G1 X152.717 Y81.709 E0.01382
G1 X152.671 Y82.148 E0.01382
G1 X152.580 Y82.579 E0.01382
G1 X152.443 Y82.998 E0.01382
G1 X152.264 Y83.401 E0.01382
G1 X152.044 Y83.783 E0.01382
G1 X151.785 Y84.139 E0.01382
G1 X151.476 Y84.482 E0.01447
G1 X147.338 Y88.620 E0.18346
