; generated by PrusaSlicer 2.3.0-rc2+ on 2021-01-25 at 02:12:20 UTC

; 

; external perimeters extrusion width = 0.45mm
; perimeters extrusion width = 0.45mm
; infill extrusion width = 0.45mm
; solid infill extrusion width = 0.45mm
; top infill extrusion width = 0.40mm
; first layer extrusion width = 0.42mm

M73 P0 R36
M73 Q0 S36
M201 X1000 Y1000 Z200 E5000 ; sets maximum accelerations, mm/sec^2
M203 X200 Y200 Z12 E120 ; sets maximum feedrates, mm/sec
M204 P1250 R1250 T1250 ; sets acceleration (P, T) and retract acceleration (R), mm/sec^2
M205 X8.00 Y8.00 Z0.40 E4.50 ; sets the jerk limits, mm/sec
M205 S0 T0 ; sets the minimum extruding and travel feed rate, mm/sec
M107
;TYPE:Custom
M862.3 P "MK3S" ; printer model check
M862.1 P0.4 ; nozzle diameter check
M115 U3.9.2 ; tell printer latest fw version
G90 ; use absolute coordinates
M83 ; extruder relative mode
M104 S215 ; set extruder temp
M140 S60 ; set bed temp
M190 S60 ; wait for bed temp
M109 S215 ; wait for extruder temp
G28 W ; home all without mesh bed level
G80 ; mesh bed leveling
G1 Y-3.0 F1000.0 ; go outside print area
G92 E0.0
G1 X60.0 E9.0 F1000.0 ; intro line
G1 X100.0 E12.5 F1000.0 ; intro line
G92 E0.0
M221 S95

; Don't change E values below. Excessive value can damage the printer.

M907 E538 ; set extruder motor current
G21 ; set units to millimeters
G90 ; use absolute coordinates
M83 ; use relative distances for extrusion
M900 K0.05 ; Filament gcode LA 1.5
M900 K30 ; Filament gcode LA 1.0
;LAYER_CHANGE
;Z:0.2
;HEIGHT:0.2
;BEFORE_LAYER_CHANGE
G92 E0.0
;0.2


G1 E-0.80000 F2100.000
G1 Z0.400 F10800.000
;AFTER_LAYER_CHANGE
;0.2
G1 X92.519 Y60.162
G1 Z0.200
G1 E0.80000 F2100.000
M204 S1000
;TYPE:Skirt
;WIDTH:0.42
G1 F1200.000
G1 X93.429 Y59.982 E0.02907
G1 X160.350 Y68.282 E2.11434
G1 X161.755 Y68.648 E0.04552
G1 X162.664 Y69.055 E0.03124
G1 X163.863 Y69.846 E0.04502
G1 X164.925 Y70.906 E0.04705
G1 X165.452 Y71.642 E0.02838
G1 X166.051 Y72.816 E0.04133
G1 X166.332 Y73.648 E0.02755
G1 X166.503 Y74.460 E0.02600
G1 X169.790 Y102.990 E0.90045
G1 X169.961 Y105.193 E0.06930
G1 X170.017 Y107.423 E0.06993
G1 X169.963 Y109.543 E0.06650
G1 X169.799 Y111.701 E0.06784
G1 X166.495 Y140.378 E0.90511
G1 X166.132 Y141.759 E0.04476
G1 X165.724 Y142.669 E0.03128
G1 X164.936 Y143.863 E0.04486
G1 X163.876 Y144.925 E0.04705
G1 X163.140 Y145.452 E0.02838
G1 X161.966 Y146.052 E0.04133
G1 X161.133 Y146.333 E0.02755
G1 X160.322 Y146.503 E0.02600
G1 X131.879 Y149.781 E0.89771
G1 X129.726 Y149.954 E0.06773
G1 X127.438 Y150.016 E0.07175
G1 X125.418 Y149.972 E0.06337
G1 X123.224 Y149.813 E0.06895
G1 X94.404 Y146.495 E0.90961
G1 X93.023 Y146.132 E0.04477
G1 X92.112 Y145.724 E0.03128
G1 X90.918 Y144.936 E0.04486
G1 X89.856 Y143.876 E0.04705
G1 X89.331 Y143.143 E0.02826
G1 X88.730 Y141.966 E0.04145
G1 X88.449 Y141.133 E0.02755
G1 X88.278 Y140.322 E0.02600
G1 X79.984 Y73.324 E2.11672
M73 P1 R36
M73 Q1 S36
G1 X80.167 Y72.506 E0.02626
G1 X80.620 Y71.806 E0.02614
G1 X91.750 Y60.673 E0.49360
G1 X92.469 Y60.195 E0.02707
;WIPE_START
G1 F8640.000
G1 X93.429 Y59.982 E-0.22697
G1 X95.720 Y60.267 E-0.53303
;WIPE_END
G1 E-0.04000 F2100.000
G1 Z0.600 F10800.000
G1 X105.373 Y77.567
G1 Z0.200
G1 E0.80000 F2100.000
;TYPE:Perimeter
G1 F1200.000
G1 X106.078 Y77.043 E0.02754
G1 X107.721 Y75.953 E0.06184
G1 X109.421 Y74.952 E0.06186
G1 X111.171 Y74.042 E0.06184
G1 X112.968 Y73.227 E0.06185
G1 X114.805 Y72.508 E0.06185
G1 X116.678 Y71.888 E0.06185
G1 X118.581 Y71.369 E0.06185
G1 X120.509 Y70.951 E0.06185
G1 X122.456 Y70.637 E0.06185
G1 X124.417 Y70.427 E0.06185
G1 X126.421 Y70.320 E0.06292
G1 X128.394 Y70.321 E0.06185
G1 X130.364 Y70.427 E0.06185
G1 X132.325 Y70.637 E0.06185
G1 X134.273 Y70.951 E0.06185
G1 X136.201 Y71.369 E0.06185
G1 X138.104 Y71.888 E0.06185
G1 X139.976 Y72.508 E0.06185
G1 X141.782 Y73.214 E0.06078
G1 X143.610 Y74.042 E0.06291
G1 X145.330 Y74.936 E0.06079
G1 X147.088 Y75.972 E0.06397
G1 X148.703 Y77.043 E0.06079
G1 X150.287 Y78.220 E0.06185
G1 X151.806 Y79.478 E0.06185
G1 X153.255 Y80.816 E0.06185
G1 X154.632 Y82.229 E0.06185
G1 X155.931 Y83.713 E0.06185
G1 X157.150 Y85.265 E0.06185
G1 X158.285 Y86.878 E0.06185
G1 X159.349 Y88.580 E0.06292
G1 X160.304 Y90.306 E0.06185
G1 X161.166 Y92.080 E0.06185
G1 X161.932 Y93.898 E0.06185
G1 X162.601 Y95.754 E0.06185
G1 X163.170 Y97.642 E0.06185
M73 P1 R35
G1 X163.638 Y99.559 E0.06185
G1 X164.003 Y101.497 E0.06185
G1 X164.265 Y103.453 E0.06185
G1 X164.422 Y105.419 E0.06185
G1 X164.474 Y107.357 E0.06079
G1 X164.419 Y109.396 E0.06397
G1 X164.265 Y111.329 E0.06079
G1 X163.997 Y113.318 E0.06291
G1 X163.638 Y115.223 E0.06078
G1 X163.170 Y117.139 E0.06185
G1 X162.601 Y119.028 E0.06185
G1 X161.932 Y120.884 E0.06185
G1 X161.166 Y122.701 E0.06185
G1 X160.304 Y124.476 E0.06185
G1 X159.332 Y126.231 E0.06292
G1 X158.285 Y127.903 E0.06185
G1 X157.150 Y129.517 E0.06185
G1 X155.931 Y131.068 E0.06185
G1 X154.632 Y132.552 E0.06185
G1 X153.255 Y133.965 E0.06185
G1 X151.806 Y135.303 E0.06185
G1 X150.287 Y136.562 E0.06185
G1 X148.731 Y137.718 E0.06078
G1 X147.060 Y138.828 E0.06290
G1 X145.389 Y139.813 E0.06080
G1 X143.579 Y140.754 E0.06397
G1 X141.814 Y141.555 E0.06079
G1 X139.976 Y142.273 E0.06185
G1 X138.104 Y142.893 E0.06185
G1 X136.201 Y143.413 E0.06185
G1 X134.273 Y143.830 E0.06185
G1 X132.325 Y144.145 E0.06185
G1 X130.364 Y144.355 E0.06185
G1 X128.394 Y144.461 E0.06185
G1 X126.387 Y144.461 E0.06292
G1 X124.417 Y144.355 E0.06185
G1 X122.456 Y144.145 E0.06185
G1 X120.509 Y143.830 E0.06185
G1 X118.581 Y143.413 E0.06185
G1 X116.678 Y142.893 E0.06185
G1 X114.805 Y142.273 E0.06185
G1 X112.968 Y141.555 E0.06185
G1 X111.171 Y140.740 E0.06185
G1 X109.421 Y139.830 E0.06184
G1 X107.721 Y138.829 E0.06186
G1 X106.078 Y137.738 E0.06184
G1 X104.494 Y136.562 E0.06185
G1 X102.975 Y135.303 E0.06185
G1 X101.526 Y133.965 E0.06185
G1 X100.149 Y132.552 E0.06185
G1 X98.850 Y131.068 E0.06185
G1 X97.631 Y129.517 E0.06185
G1 X96.497 Y127.903 E0.06185
G1 X95.432 Y126.202 E0.06292
G1 X94.477 Y124.476 E0.06185
G1 X93.615 Y122.701 E0.06185
G1 X92.849 Y120.884 E0.06185
G1 X92.180 Y119.028 E0.06185
G1 X91.611 Y117.139 E0.06185
G1 X91.143 Y115.223 E0.06185
G1 X90.778 Y113.284 E0.06185
G1 X90.517 Y111.329 E0.06185
G1 X90.359 Y109.363 E0.06185
G1 X90.308 Y107.425 E0.06079
G1 X90.362 Y105.385 E0.06397
G1 X90.517 Y103.452 E0.06079
G1 X90.784 Y101.464 E0.06291
G1 X91.143 Y99.559 E0.06078
G1 X91.611 Y97.642 E0.06185
G1 X92.180 Y95.754 E0.06185
G1 X92.849 Y93.898 E0.06185
G1 X93.615 Y92.080 E0.06185
G1 X94.477 Y90.306 E0.06185
G1 X95.450 Y88.550 E0.06292
G1 X96.497 Y86.878 E0.06185
G1 X97.631 Y85.265 E0.06185
G1 X98.850 Y83.713 E0.06185
G1 X100.149 Y82.229 E0.06185
G1 X101.526 Y80.816 E0.06185
G1 X102.975 Y79.478 E0.06185
G1 X104.494 Y78.220 E0.06185
G1 X105.325 Y77.603 E0.03243
G1 X105.549 Y77.905 F10800.000
;TYPE:External perimeter
G1 F1200.000
G1 X106.295 Y77.352 E0.02910
G1 X107.922 Y76.273 E0.06121
G1 X109.604 Y75.281 E0.06123
G1 X111.336 Y74.381 E0.06121
G1 X113.114 Y73.574 E0.06122
G1 X114.933 Y72.863 E0.06122
G1 X116.786 Y72.249 E0.06122
G1 X118.670 Y71.735 E0.06122
G1 X120.579 Y71.322 E0.06122
G1 X122.506 Y71.011 E0.06122
G1 X124.448 Y70.803 E0.06122
G1 X126.431 Y70.697 E0.06229
G1 X128.384 Y70.698 E0.06122
G1 X130.334 Y70.803 E0.06122
G1 X132.275 Y71.011 E0.06122
G1 X134.203 Y71.322 E0.06122
G1 X136.111 Y71.735 E0.06122
G1 X137.995 Y72.249 E0.06122
G1 X139.848 Y72.863 E0.06122
G1 X141.635 Y73.562 E0.06016
G1 X143.445 Y74.381 E0.06228
G1 X145.147 Y75.266 E0.06016
G1 X146.888 Y76.291 E0.06334
G1 X148.487 Y77.352 E0.06016
G1 X150.054 Y78.516 E0.06122
G1 X151.557 Y79.762 E0.06122
G1 X152.992 Y81.086 E0.06122
G1 X154.355 Y82.485 E0.06122
G1 X155.641 Y83.954 E0.06122
G1 X156.847 Y85.490 E0.06122
G1 X157.970 Y87.087 E0.06122
G1 X159.024 Y88.771 E0.06229
G1 X159.969 Y90.480 E0.06122
G1 X160.822 Y92.236 E0.06122
G1 X161.581 Y94.035 E0.06122
G1 X162.243 Y95.872 E0.06122
G1 X162.806 Y97.742 E0.06122
G1 X163.269 Y99.639 E0.06122
G1 X163.631 Y101.557 E0.06122
G1 X163.890 Y103.493 E0.06122
G1 X164.045 Y105.439 E0.06122
G1 X164.096 Y107.357 E0.06016
G1 X164.043 Y109.376 E0.06334
G1 X163.890 Y111.289 E0.06016
G1 X163.625 Y113.258 E0.06228
G1 X163.269 Y115.143 E0.06016
G1 X162.806 Y117.040 E0.06122
G1 X162.243 Y118.910 E0.06122
G1 X161.581 Y120.746 E0.06122
G1 X160.822 Y122.546 E0.06122
G1 X159.969 Y124.302 E0.06122
G1 X159.007 Y126.040 E0.06229
G1 X157.970 Y127.695 E0.06122
G1 X156.847 Y129.292 E0.06122
G1 X155.641 Y130.827 E0.06122
G1 X154.355 Y132.296 E0.06122
G1 X152.992 Y133.695 E0.06122
G1 X151.557 Y135.019 E0.06122
G1 X150.054 Y136.265 E0.06122
G1 X148.514 Y137.409 E0.06016
G1 X146.860 Y138.509 E0.06227
G1 X145.206 Y139.483 E0.06017
G1 X143.414 Y140.415 E0.06334
G1 X141.667 Y141.207 E0.06016
G1 X139.848 Y141.919 E0.06122
G1 X137.995 Y142.532 E0.06122
G1 X136.111 Y143.046 E0.06122
G1 X134.203 Y143.460 E0.06122
G1 X132.275 Y143.771 E0.06122
G1 X130.334 Y143.979 E0.06122
G1 X128.384 Y144.084 E0.06122
G1 X126.397 Y144.084 E0.06229
G1 X124.448 Y143.979 E0.06122
G1 X122.506 Y143.771 E0.06122
G1 X120.579 Y143.460 E0.06122
G1 X118.670 Y143.046 E0.06122
G1 X116.786 Y142.532 E0.06122
G1 X114.933 Y141.919 E0.06122
G1 X113.114 Y141.207 E0.06122
G1 X111.336 Y140.400 E0.06122
G1 X109.604 Y139.500 E0.06121
G1 X107.922 Y138.509 E0.06123
G1 X106.295 Y137.430 E0.06121
G1 X104.727 Y136.265 E0.06122
G1 X103.224 Y135.019 E0.06122
M73 P2 R35
G1 X101.789 Y133.695 E0.06122
G1 X100.426 Y132.296 E0.06122
G1 X99.140 Y130.827 E0.06122
G1 X97.934 Y129.292 E0.06122
M73 Q2 S36
G1 X96.811 Y127.695 E0.06122
G1 X95.757 Y126.010 E0.06229
G1 X94.812 Y124.302 E0.06122
G1 X93.959 Y122.546 E0.06122
G1 X93.200 Y120.746 E0.06122
G1 X92.538 Y118.910 E0.06122
G1 X91.975 Y117.040 E0.06122
G1 X91.512 Y115.143 E0.06122
G1 X91.151 Y113.224 E0.06122
G1 X90.892 Y111.289 E0.06122
G1 X90.736 Y109.343 E0.06122
G1 X90.685 Y107.425 E0.06016
G1 X90.739 Y105.405 E0.06334
G1 X90.892 Y103.493 E0.06016
G1 X91.157 Y101.524 E0.06228
G1 X91.512 Y99.639 E0.06016
G1 X91.975 Y97.742 E0.06122
G1 X92.538 Y95.872 E0.06122
G1 X93.200 Y94.035 E0.06122
G1 X93.959 Y92.236 E0.06122
G1 X94.812 Y90.480 E0.06122
G1 X95.775 Y88.742 E0.06229
G1 X96.811 Y87.087 E0.06122
G1 X97.934 Y85.490 E0.06122
G1 X99.140 Y83.954 E0.06122
G1 X100.426 Y82.485 E0.06122
G1 X101.789 Y81.086 E0.06122
G1 X103.224 Y79.762 E0.06122
G1 X104.727 Y78.516 E0.06122
G1 X105.501 Y77.941 E0.03024
G1 X105.499 Y77.509 F10800.000
;WIPE_START
G1 F8640.000
G1 X106.295 Y77.352 E-0.22818
G1 X107.922 Y76.273 E-0.45079
G1 X108.224 Y76.095 E-0.08103
;WIPE_END
G1 E-0.04000 F2100.000
G1 Z0.600 F10800.000
G1 X157.617 Y75.571
G1 Z0.200
G1 E0.80000 F2100.000
;TYPE:Perimeter
G1 F1200.000
G1 X157.667 Y75.175 E0.01252
G1 X157.814 Y74.803 E0.01252
G1 X158.049 Y74.480 E0.01252
G1 X158.367 Y74.217 E0.01294
G1 X158.784 Y74.043 E0.01417
G1 X159.110 Y73.981 E0.01042
G1 X159.509 Y74.006 E0.01252
G1 X159.889 Y74.129 E0.01252
G1 X160.226 Y74.343 E0.01252
G1 X160.499 Y74.634 E0.01252
G1 X160.692 Y74.984 E0.01252
G1 X160.791 Y75.371 E0.01252
G1 X160.791 Y75.771 E0.01252
G1 X160.692 Y76.158 E0.01252
G1 X160.499 Y76.508 E0.01252
G1 X160.226 Y76.799 E0.01252
G1 X159.889 Y77.013 E0.01252
G1 X159.509 Y77.136 E0.01252
G1 X159.110 Y77.161 E0.01252
G1 X158.718 Y77.086 E0.01252
G1 X158.357 Y76.916 E0.01252
G1 X158.049 Y76.662 E0.01252
G1 X157.814 Y76.339 E0.01252
G1 X157.667 Y75.967 E0.01252
G1 X157.625 Y75.631 E0.01064
G1 X157.999 Y75.583 F10800.000
;TYPE:External perimeter
G1 F1200.000
G1 X158.035 Y75.269 E0.00991
G1 X158.147 Y74.987 E0.00954
G1 X158.326 Y74.740 E0.00954
G1 X158.564 Y74.544 E0.00968
G1 X158.893 Y74.406 E0.01118
G1 X159.134 Y74.360 E0.00770
G1 X159.438 Y74.379 E0.00954
G1 X159.727 Y74.473 E0.00954
G1 X159.984 Y74.636 E0.00954
G1 X160.192 Y74.858 E0.00954
G1 X160.338 Y75.124 E0.00954
G1 X160.414 Y75.419 E0.00954
G1 X160.414 Y75.723 E0.00954
G1 X160.338 Y76.018 E0.00954
G1 X160.192 Y76.284 E0.00954
G1 X159.984 Y76.506 E0.00954
G1 X159.727 Y76.669 E0.00954
G1 X159.438 Y76.763 E0.00954
G1 X159.134 Y76.782 E0.00954
G1 X158.836 Y76.725 E0.00954
G1 X158.560 Y76.595 E0.00954
G1 X158.326 Y76.402 E0.00954
G1 X158.147 Y76.155 E0.00954
G1 X158.035 Y75.873 E0.00954
G1 X158.006 Y75.643 E0.00727
G1 X157.724 Y75.427 F10800.000
;WIPE_START
G1 F8640.000
G1 X158.035 Y75.269 E-0.08651
G1 X158.147 Y74.987 E-0.07022
G1 X158.326 Y74.740 E-0.07022
G1 X158.564 Y74.544 E-0.07131
G1 X158.893 Y74.406 E-0.08236
G1 X159.134 Y74.360 E-0.05669
G1 X159.438 Y74.379 E-0.07022
G1 X159.727 Y74.473 E-0.07022
G1 X159.984 Y74.636 E-0.07022
G1 X160.192 Y74.858 E-0.07022
G1 X160.279 Y75.016 E-0.04180
;WIPE_END
G1 E-0.04000 F2100.000
G1 Z0.600 F10800.000
G1 X159.594 Y137.662
G1 Z0.200
G1 E0.80000 F2100.000
;TYPE:Perimeter
G1 F1200.000
G1 X159.978 Y137.814 E0.01294
G1 X160.301 Y138.049 E0.01252
G1 X160.556 Y138.357 E0.01252
G1 X160.726 Y138.718 E0.01252
G1 X160.801 Y139.111 E0.01252
G1 X160.776 Y139.509 E0.01252
G1 X160.652 Y139.889 E0.01252
G1 X160.438 Y140.226 E0.01252
G1 X160.147 Y140.500 E0.01252
G1 X159.797 Y140.692 E0.01252
G1 X159.410 Y140.791 E0.01252
G1 X159.011 Y140.791 E0.01252
G1 X158.624 Y140.692 E0.01252
G1 X158.274 Y140.500 E0.01252
G1 X157.983 Y140.226 E0.01252
G1 X157.769 Y139.889 E0.01252
G1 X157.645 Y139.509 E0.01252
G1 X157.620 Y139.111 E0.01252
G1 X157.695 Y138.718 E0.01252
G1 X157.865 Y138.357 E0.01252
G1 X158.120 Y138.049 E0.01252
G1 X158.443 Y137.814 E0.01252
G1 X158.814 Y137.667 E0.01252
G1 X159.144 Y137.626 E0.01042
G1 X159.535 Y137.658 E0.01229
G1 X159.504 Y138.033 F10800.000
;TYPE:External perimeter
G1 F1200.000
G1 X159.795 Y138.147 E0.00980
G1 X160.041 Y138.326 E0.00954
G1 X160.235 Y138.561 E0.00954
G1 X160.364 Y138.836 E0.00954
G1 X160.421 Y139.134 E0.00954
G1 X160.402 Y139.438 E0.00954
G1 X160.308 Y139.727 E0.00954
G1 X160.145 Y139.984 E0.00954
G1 X159.924 Y140.192 E0.00954
G1 X159.657 Y140.339 E0.00954
G1 X159.363 Y140.414 E0.00954
G1 X159.058 Y140.414 E0.00954
G1 X158.764 Y140.339 E0.00954
G1 X158.497 Y140.192 E0.00954
G1 X158.276 Y139.984 E0.00954
G1 X158.113 Y139.727 E0.00954
G1 X158.019 Y139.438 E0.00954
G1 X158.000 Y139.134 E0.00954
G1 X158.057 Y138.836 E0.00954
G1 X158.186 Y138.561 E0.00954
G1 X158.380 Y138.326 E0.00954
G1 X158.626 Y138.147 E0.00954
G1 X158.909 Y138.035 E0.00954
G1 X159.152 Y138.005 E0.00770
G1 X159.444 Y138.029 E0.00918
G1 X159.722 Y137.809 F10800.000
;WIPE_START
G1 F8640.000
G1 X159.795 Y138.147 E-0.08553
G1 X160.041 Y138.326 E-0.07022
G1 X160.235 Y138.561 E-0.07022
G1 X160.364 Y138.836 E-0.07022
G1 X160.421 Y139.134 E-0.07022
G1 X160.402 Y139.438 E-0.07022
G1 X160.308 Y139.727 E-0.07022
G1 X160.145 Y139.984 E-0.07022
G1 X159.924 Y140.192 E-0.07022
G1 X159.657 Y140.339 E-0.07022
G1 X159.479 Y140.384 E-0.04246
;WIPE_END
G1 E-0.04000 F2100.000
G1 Z0.600 F10800.000
G1 X97.164 Y139.211
G1 Z0.200
G1 E0.80000 F2100.000
;TYPE:Perimeter
G1 F1200.000
G1 X97.114 Y139.607 E0.01252
G1 X96.992 Y139.916 E0.01042
G1 X96.743 Y140.293 E0.01417
G1 X96.425 Y140.556 E0.01294
G1 X96.063 Y140.726 E0.01252
G1 X95.671 Y140.801 E0.01252
G1 X95.272 Y140.776 E0.01252
G1 X94.892 Y140.652 E0.01252
G1 X94.555 Y140.438 E0.01252
G1 X94.282 Y140.147 E0.01252
G1 X94.089 Y139.797 E0.01252
G1 X93.990 Y139.410 E0.01252
G1 X93.990 Y139.011 E0.01252
G1 X94.089 Y138.624 E0.01252
G1 X94.282 Y138.274 E0.01252
G1 X94.555 Y137.983 E0.01252
G1 X94.904 Y137.762 E0.01294
G1 X95.339 Y137.641 E0.01417
G1 X95.671 Y137.620 E0.01042
G1 X96.063 Y137.695 E0.01252
G1 X96.425 Y137.865 E0.01252
G1 X96.743 Y138.128 E0.01294
G1 X96.992 Y138.505 E0.01417
G1 X97.114 Y138.814 E0.01042
G1 X97.157 Y139.151 E0.01064
G1 X96.783 Y139.198 F10800.000
;TYPE:External perimeter
G1 F1200.000
G1 X96.746 Y139.512 E0.00991
G1 X96.656 Y139.741 E0.00770
G1 X96.459 Y140.038 E0.01118
G1 X96.221 Y140.235 E0.00968
G1 X95.946 Y140.364 E0.00954
G1 X95.647 Y140.421 E0.00954
G1 X95.343 Y140.402 E0.00954
G1 X95.054 Y140.308 E0.00954
G1 X94.797 Y140.145 E0.00954
G1 X94.589 Y139.924 E0.00954
G1 X94.443 Y139.657 E0.00954
G1 X94.367 Y139.363 E0.00954
G1 X94.367 Y139.059 E0.00954
G1 X94.443 Y138.764 E0.00954
G1 X94.589 Y138.497 E0.00954
G1 X94.797 Y138.276 E0.00954
