; generated by PrusaSlicer 2.3.0+ on 2021-01-25 at 21:11:00 UTC

; 

; external perimeters extrusion width = 0.45mm
; perimeters extrusion width = 0.45mm
; infill extrusion width = 0.45mm
; solid infill extrusion width = 0.45mm
; top infill extrusion width = 0.40mm
; first layer extrusion width = 0.42mm

M73 P0 R41
M73 Q0 S41
M201 X1000 Y1000 Z200 E5000 ; sets maximum accelerations, mm/sec^2
M203 X200 Y200 Z12 E120 ; sets maximum feedrates, mm/sec
M204 P1250 R1250 T1250 ; sets acceleration (P, T) and retract acceleration (R), mm/sec^2
M205 X8.00 Y8.00 Z0.40 E4.50 ; sets the jerk limits, mm/sec
M205 S0 T0 ; sets the minimum extruding and travel feed rate, mm/sec
M107
;TYPE:Custom
M862.3 P "MK3S" ; printer model check
M862.1 P0.4 ; nozzle diameter check
M115 U3.9.3 ; tell printer latest fw version
G90 ; use absolute coordinates
M83 ; extruder relative mode
M104 S215 ; set extruder temp
M140 S60 ; set bed temp
M190 S60 ; wait for bed temp
M109 S215 ; wait for extruder temp
G28 W ; home all without mesh bed level
G80 ; mesh bed leveling
G1 Y-3.0 F1000.0 ; go outside print area
G92 E0.0
G1 X60.0 E9.0 F1000.0 ; intro line
G1 X100.0 E12.5 F1000.0 ; intro line
G92 E0.0
M221 S95

; Don't change E values below. Excessive value can damage the printer.

M907 E538 ; set extruder motor current
G21 ; set units to millimeters
G90 ; use absolute coordinates
M83 ; use relative distances for extrusion
M900 K0.05 ; Filament gcode LA 1.5
M900 K30 ; Filament gcode LA 1.0
;LAYER_CHANGE
;Z:0.2
;HEIGHT:0.2
;BEFORE_LAYER_CHANGE
G92 E0.0
;0.2


G1 E-0.80000 F2100.000
G1 Z0.400 F10800.000
;AFTER_LAYER_CHANGE
;0.2
G1 X88.532 Y67.451
G1 Z0.200
G1 E0.80000 F2100.000
M204 S1000
;TYPE:Skirt
;WIDTH:0.42
G1 F1200.000
G1 X89.924 Y66.562 E0.05179
G1 X90.653 Y66.252 E0.02484
G1 X91.911 Y65.915 E0.04081
G1 X120.282 Y62.635 E0.89547
G1 X122.622 Y62.439 E0.07365
G1 X125.003 Y62.373 E0.07467
G1 X127.367 Y62.439 E0.07417
G1 X129.718 Y62.635 E0.07397
G1 X158.054 Y65.908 E0.89437
G1 X159.573 Y66.339 E0.04950
G1 X160.731 Y66.928 E0.04074
G1 X161.375 Y67.380 E0.02468
G1 X162.541 Y68.524 E0.05120
G1 X163.400 Y69.846 E0.04942
G1 X163.916 Y71.170 E0.04455
G1 X164.118 Y72.114 E0.03028
G1 X167.400 Y100.613 E0.89946
G1 X167.570 Y102.808 E0.06904
G1 X167.627 Y104.989 E0.06839
G1 X167.572 Y107.165 E0.06825
G1 X167.404 Y109.350 E0.06872
G1 X164.117 Y137.893 E0.90085
G1 X163.945 Y138.730 E0.02681
G1 X163.675 Y139.542 E0.02683
G1 X162.936 Y140.940 E0.04957
G1 X162.119 Y141.949 E0.04070
G1 X161.534 Y142.492 E0.02504
G1 X160.167 Y143.393 E0.05132
G1 X158.624 Y143.971 E0.05167
G1 X157.878 Y144.119 E0.02385
G1 X129.214 Y147.418 E0.90468
G1 X127.039 Y147.578 E0.06836
G1 X124.769 Y147.626 E0.07118
G1 X122.687 Y147.564 E0.06531
G1 X120.529 Y147.392 E0.06789
G1 X92.107 Y144.118 E0.89705
G1 X91.269 Y143.945 E0.02681
G1 X90.457 Y143.675 E0.02683
G1 X89.059 Y142.936 E0.04957
G1 X88.051 Y142.119 E0.04070
G1 X87.507 Y141.534 E0.02504
G1 X86.604 Y140.165 E0.05144
G1 X86.028 Y138.621 E0.05167
G1 X85.880 Y137.878 E0.02373
G1 X82.579 Y109.174 E0.90594
G1 X82.417 Y106.931 E0.07050
G1 X82.376 Y104.600 E0.07310
G1 X82.443 Y102.544 E0.06450
G1 X82.622 Y100.394 E0.06765
G1 X85.882 Y72.107 E0.89278
G1 X86.054 Y71.270 E0.02680
G1 X86.325 Y70.458 E0.02683
G1 X86.664 Y69.726 E0.02528
G1 X87.378 Y68.627 E0.04109
G1 X88.490 Y67.494 E0.04979
; printing object bezel_large_attitude.stl id:0 copy 0
;WIPE_START
G1 F8640.000
G1 X89.924 Y66.562 E-0.39493
G1 X90.653 Y66.252 E-0.18295
G1 X91.415 Y66.048 E-0.18211
;WIPE_END
G1 E-0.04000 F2100.000
G1 Z0.600 F10800.000
G1 X96.747 Y80.963
G1 Z0.200
G1 E0.80000 F2100.000
;TYPE:Perimeter
G1 F1200.000
G1 X153.253 Y80.963 E1.77170
M73 P1 R41
M73 Q1 S41
G1 X154.762 Y82.878 E0.07643
G1 X156.025 Y84.687 E0.06917
G1 X157.133 Y86.490 E0.06637
G1 X158.151 Y88.382 E0.06738
G1 X159.058 Y90.331 E0.06738
G1 X159.863 Y92.363 E0.06853
G1 X160.537 Y94.403 E0.06738
G1 X161.082 Y96.444 E0.06623
G1 X161.524 Y98.585 E0.06853
G1 X161.835 Y100.711 E0.06739
G1 X162.018 Y102.816 E0.06623
G1 X162.083 Y104.999 E0.06849
G1 X162.031 Y106.975 E0.06197
G1 X161.873 Y108.944 E0.06193
G1 X161.605 Y110.935 E0.06301
G1 X161.245 Y112.842 E0.06085
G1 X160.776 Y114.761 E0.06193
G1 X160.205 Y116.652 E0.06193
G1 X159.535 Y118.510 E0.06194
G1 X158.752 Y120.361 E0.06301
G1 X157.903 Y122.105 E0.06085
G1 X156.945 Y123.833 E0.06193
G1 X155.897 Y125.507 E0.06193
G1 X154.761 Y127.123 E0.06193
G1 X153.519 Y128.703 E0.06301
G1 X152.217 Y130.188 E0.06193
G1 X150.837 Y131.601 E0.06193
G1 X149.384 Y132.939 E0.06193
G1 X147.862 Y134.198 E0.06193
G1 X146.275 Y135.374 E0.06193
G1 X144.627 Y136.464 E0.06193
G1 X142.924 Y137.464 E0.06193
G1 X141.201 Y138.357 E0.06085
G1 X139.371 Y139.186 E0.06301
G1 X137.530 Y139.903 E0.06194
G1 X135.654 Y140.520 E0.06193
G1 X133.748 Y141.037 E0.06193
G1 X131.817 Y141.452 E0.06192
G1 X129.866 Y141.763 E0.06194
G1 X127.902 Y141.970 E0.06192
G1 X125.929 Y142.072 E0.06193
G1 X123.954 Y142.069 E0.06193
G1 X121.982 Y141.961 E0.06193
G1 X120.018 Y141.748 E0.06193
G1 X118.069 Y141.430 E0.06193
G1 X116.139 Y141.010 E0.06194
G1 X114.201 Y140.477 E0.06301
M73 P1 R40
G1 X112.360 Y139.863 E0.06085
G1 X110.522 Y139.141 E0.06193
G1 X108.725 Y138.322 E0.06193
G1 X106.974 Y137.408 E0.06193
G1 X105.244 Y136.384 E0.06301
G1 X103.601 Y135.287 E0.06193
G1 X102.019 Y134.105 E0.06193
G1 X100.528 Y132.863 E0.06085
G1 X99.055 Y131.496 E0.06301
G1 X97.681 Y130.077 E0.06194
G1 X96.384 Y128.587 E0.06193
G1 X95.169 Y127.030 E0.06193
G1 X94.038 Y125.411 E0.06193
G1 X92.995 Y123.733 E0.06193
G1 X92.043 Y122.003 E0.06193
G1 X91.185 Y120.224 E0.06193
G1 X90.422 Y118.402 E0.06193
G1 X89.758 Y116.542 E0.06192
G1 X89.193 Y114.649 E0.06193
G1 X88.730 Y112.729 E0.06193
G1 X88.370 Y110.787 E0.06193
G1 X88.114 Y108.829 E0.06193
G1 X87.962 Y106.859 E0.06193
G1 X87.916 Y104.885 E0.06193
G1 X87.975 Y102.910 E0.06194
G1 X88.143 Y100.908 E0.06301
G1 X88.407 Y98.985 E0.06085
G1 X88.779 Y97.045 E0.06193
G1 X89.254 Y95.128 E0.06193
G1 X89.831 Y93.239 E0.06193
G1 X90.519 Y91.351 E0.06301
G1 X91.295 Y89.534 E0.06193
G1 X92.166 Y87.762 E0.06193
G1 X93.114 Y86.067 E0.06087
G1 X94.235 Y84.300 E0.06562
G1 X95.339 Y82.742 E0.05985
G1 X96.710 Y81.010 E0.06927
G1 X96.930 Y81.340 F10800.000
;TYPE:External perimeter
G1 F1200.000
G1 X153.070 Y81.340 E1.76025
G1 X154.459 Y83.103 E0.07035
G1 X155.709 Y84.894 E0.06848
G1 X156.806 Y86.678 E0.06568
G1 X157.814 Y88.551 E0.06669
G1 X158.712 Y90.480 E0.06670
G1 X159.509 Y92.491 E0.06784
G1 X160.176 Y94.511 E0.06670
G1 X160.715 Y96.531 E0.06555
G1 X161.153 Y98.650 E0.06784
G1 X161.460 Y100.755 E0.06670
G1 X161.642 Y102.838 E0.06555
G1 X161.706 Y105.000 E0.06782
G1 X161.654 Y106.955 E0.06132
G1 X161.498 Y108.903 E0.06129
G1 X161.232 Y110.875 E0.06237
G1 X160.876 Y112.762 E0.06022
G1 X160.412 Y114.661 E0.06130
G1 X159.847 Y116.533 E0.06130
G1 X159.184 Y118.372 E0.06130
G1 X158.409 Y120.204 E0.06238
G1 X157.568 Y121.931 E0.06022
G1 X156.620 Y123.641 E0.06130
G1 X155.583 Y125.298 E0.06130
G1 X154.459 Y126.898 E0.06130
G1 X153.229 Y128.462 E0.06238
G1 X151.940 Y129.932 E0.06130
G1 X150.574 Y131.331 E0.06130
G1 X149.136 Y132.655 E0.06130
G1 X147.629 Y133.901 E0.06130
G1 X146.058 Y135.065 E0.06130
G1 X144.428 Y136.144 E0.06130
G1 X142.742 Y137.134 E0.06130
G1 X141.037 Y138.017 E0.06022
G1 X139.225 Y138.838 E0.06238
G1 X137.403 Y139.548 E0.06130
G1 X135.546 Y140.159 E0.06130
G1 X133.659 Y140.671 E0.06130
G1 X131.747 Y141.081 E0.06129
G1 X129.817 Y141.389 E0.06131
G1 X127.872 Y141.594 E0.06129
G1 X125.920 Y141.695 E0.06130
G1 X123.965 Y141.692 E0.06130
G1 X122.013 Y141.585 E0.06130
G1 X120.069 Y141.374 E0.06130
G1 X118.139 Y141.060 E0.06130
G1 X116.229 Y140.643 E0.06130
G1 X114.311 Y140.116 E0.06238
G1 X112.489 Y139.509 E0.06022
G1 X110.669 Y138.794 E0.06130
G1 X108.890 Y137.983 E0.06130
G1 X107.157 Y137.078 E0.06130
G1 X105.445 Y136.064 E0.06238
G1 X103.819 Y134.979 E0.06130
G1 X102.253 Y133.809 E0.06130
G1 X100.777 Y132.579 E0.06022
G1 X99.318 Y131.227 E0.06238
G1 X97.958 Y129.822 E0.06130
G1 X96.675 Y128.347 E0.06130
G1 X95.472 Y126.806 E0.06130
G1 X94.353 Y125.203 E0.06130
G1 X93.321 Y123.543 E0.06130
G1 X92.378 Y121.830 E0.06130
G1 X91.529 Y120.069 E0.06130
G1 X90.774 Y118.266 E0.06130
G1 X90.116 Y116.425 E0.06129
G1 X89.557 Y114.551 E0.06130
G1 X89.099 Y112.650 E0.06130
G1 X88.743 Y110.728 E0.06130
G1 X88.489 Y108.790 E0.06130
G1 X88.339 Y106.840 E0.06130
G1 X88.293 Y104.886 E0.06130
G1 X88.351 Y102.931 E0.06130
G1 X88.518 Y100.949 E0.06238
G1 X88.779 Y99.046 E0.06022
G1 X89.148 Y97.126 E0.06130
G1 X89.618 Y95.229 E0.06130
G1 X90.188 Y93.359 E0.06130
G1 X90.870 Y91.490 E0.06238
G1 X91.638 Y89.692 E0.06130
G1 X92.500 Y87.937 E0.06130
G1 X93.438 Y86.260 E0.06023
G1 X94.548 Y84.510 E0.06499
G1 X95.640 Y82.968 E0.05924
G1 X96.892 Y81.387 E0.06324
G1 X97.015 Y80.949 F10800.000
;WIPE_START
G1 F8640.000
G1 X100.184 Y81.384 E-0.76000
;WIPE_END
G1 E-0.04000 F2100.000
G1 Z0.600 F10800.000
G1 X93.947 Y74.577
G1 Z0.200
G1 E0.80000 F2100.000
;TYPE:Perimeter
G1 F1200.000
G1 X93.576 Y74.724 E0.01252
G1 X93.180 Y74.774 E0.01252
G1 X92.784 Y74.724 E0.01252
G1 X92.412 Y74.577 E0.01252
G1 X92.089 Y74.342 E0.01252
G1 X91.834 Y74.034 E0.01252
G1 X91.664 Y73.673 E0.01252
G1 X91.590 Y73.280 E0.01252
G1 X91.615 Y72.882 E0.01252
G1 X91.738 Y72.502 E0.01252
G1 X91.952 Y72.165 E0.01252
G1 X92.243 Y71.891 E0.01252
G1 X92.593 Y71.699 E0.01252
G1 X92.980 Y71.600 E0.01252
G1 X93.379 Y71.600 E0.01252
G1 X93.766 Y71.699 E0.01252
G1 X94.116 Y71.891 E0.01252
G1 X94.407 Y72.165 E0.01252
G1 X94.621 Y72.502 E0.01252
G1 X94.745 Y72.882 E0.01252
G1 X94.770 Y73.280 E0.01252
G1 X94.695 Y73.673 E0.01252
G1 X94.525 Y74.034 E0.01252
G1 X94.270 Y74.342 E0.01252
G1 X93.996 Y74.541 E0.01064
G1 X93.774 Y74.236 F10800.000
;TYPE:External perimeter
G1 F1200.000
G1 X93.481 Y74.355 E0.00991
G1 X93.180 Y74.394 E0.00954
G1 X92.878 Y74.355 E0.00954
G1 X92.595 Y74.243 E0.00954
G1 X92.349 Y74.065 E0.00954
G1 X92.155 Y73.830 E0.00954
G1 X92.026 Y73.555 E0.00954
G1 X91.969 Y73.256 E0.00954
G1 X91.988 Y72.953 E0.00954
G1 X92.082 Y72.664 E0.00954
G1 X92.245 Y72.407 E0.00954
G1 X92.467 Y72.199 E0.00954
G1 X92.733 Y72.052 E0.00954
G1 X93.028 Y71.977 E0.00954
G1 X93.332 Y71.977 E0.00954
G1 X93.626 Y72.052 E0.00954
G1 X93.893 Y72.199 E0.00954
G1 X94.115 Y72.407 E0.00954
G1 X94.278 Y72.664 E0.00954
G1 X94.372 Y72.953 E0.00954
G1 X94.391 Y73.256 E0.00954
G1 X94.334 Y73.555 E0.00954
G1 X94.204 Y73.830 E0.00954
G1 X94.010 Y74.065 E0.00954
G1 X93.823 Y74.201 E0.00727
G1 X93.770 Y74.552 F10800.000
;WIPE_START
G1 F8640.000
G1 X93.481 Y74.355 E-0.08651
G1 X93.180 Y74.394 E-0.07022
G1 X92.878 Y74.355 E-0.07022
G1 X92.595 Y74.243 E-0.07022
G1 X92.349 Y74.065 E-0.07022
G1 X92.155 Y73.830 E-0.07022
G1 X92.026 Y73.555 E-0.07022
G1 X91.969 Y73.256 E-0.07022
G1 X91.988 Y72.953 E-0.07022
G1 X92.082 Y72.664 E-0.07022
G1 X92.178 Y72.512 E-0.04149
;WIPE_END
G1 E-0.04000 F2100.000
G1 Z0.600 F10800.000
G1 X155.226 Y73.180
G1 Z0.200
G1 E0.80000 F2100.000
;TYPE:Perimeter
G1 F1200.000
G1 X155.276 Y72.784 E0.01252
G1 X155.423 Y72.413 E0.01252
G1 X155.658 Y72.090 E0.01252
G1 X155.976 Y71.827 E0.01294
G1 X156.393 Y71.652 E0.01417
G1 X156.719 Y71.590 E0.01042
G1 X157.118 Y71.615 E0.01252
G1 X157.498 Y71.739 E0.01252
G1 X157.835 Y71.953 E0.01252
G1 X158.108 Y72.244 E0.01252
G1 X158.301 Y72.594 E0.01252
G1 X158.400 Y72.981 E0.01252
G1 X158.400 Y73.380 E0.01252
G1 X158.301 Y73.767 E0.01252
G1 X158.108 Y74.117 E0.01252
G1 X157.835 Y74.408 E0.01252
G1 X157.498 Y74.622 E0.01252
G1 X157.118 Y74.745 E0.01252
G1 X156.719 Y74.770 E0.01252
G1 X156.327 Y74.696 E0.01252
G1 X155.966 Y74.526 E0.01252
G1 X155.658 Y74.271 E0.01252
G1 X155.423 Y73.948 E0.01252
G1 X155.276 Y73.577 E0.01252
G1 X155.234 Y73.240 E0.01064
G1 X155.608 Y73.193 F10800.000
;TYPE:External perimeter
G1 F1200.000
G1 X155.644 Y72.879 E0.00991
G1 X155.756 Y72.596 E0.00954
G1 X155.935 Y72.350 E0.00954
G1 X156.173 Y72.153 E0.00968
G1 X156.502 Y72.015 E0.01118
G1 X156.743 Y71.969 E0.00770
G1 X157.047 Y71.989 E0.00954
G1 X157.336 Y72.083 E0.00954
G1 X157.593 Y72.245 E0.00954
G1 X157.801 Y72.467 E0.00954
G1 X157.947 Y72.734 E0.00954
G1 X158.023 Y73.028 E0.00954
G1 X158.023 Y73.332 E0.00954
G1 X157.947 Y73.627 E0.00954
G1 X157.801 Y73.893 E0.00954
G1 X157.593 Y74.115 E0.00954
G1 X157.336 Y74.278 E0.00954
G1 X157.047 Y74.372 E0.00954
G1 X156.743 Y74.391 E0.00954
G1 X156.444 Y74.334 E0.00954
G1 X156.169 Y74.205 E0.00954
G1 X155.935 Y74.011 E0.00954
G1 X155.756 Y73.765 E0.00954
G1 X155.644 Y73.482 E0.00954
G1 X155.615 Y73.252 E0.00727
G1 X155.333 Y73.037 F10800.000
;WIPE_START
G1 F8640.000
G1 X155.644 Y72.879 E-0.08651
G1 X155.756 Y72.596 E-0.07022
G1 X155.935 Y72.350 E-0.07022
G1 X156.173 Y72.153 E-0.07131
G1 X156.502 Y72.015 E-0.08236
G1 X156.743 Y71.969 E-0.05669
G1 X157.047 Y71.989 E-0.07022
G1 X157.336 Y72.083 E-0.07022
G1 X157.593 Y72.245 E-0.07022
G1 X157.801 Y72.467 E-0.07022
G1 X157.888 Y72.626 E-0.04180
;WIPE_END
G1 E-0.04000 F2100.000
G1 Z0.600 F10800.000
G1 X157.203 Y135.272
M73 Q2 S41
G1 Z0.200
G1 E0.80000 F2100.000
;TYPE:Perimeter
M73 Q2 S40
G1 F1200.000
G1 X157.587 Y135.424 E0.01294
G1 X157.910 Y135.658 E0.01252
G1 X158.165 Y135.966 E0.01252
G1 X158.335 Y136.328 E0.01252
M73 P2 R40
G1 X158.410 Y136.720 E0.01252
G1 X158.384 Y137.118 E0.01252
G1 X158.261 Y137.498 E0.01252
G1 X158.047 Y137.836 E0.01252
G1 X157.756 Y138.109 E0.01252
G1 X157.406 Y138.301 E0.01252
G1 X157.019 Y138.401 E0.01252
G1 X156.620 Y138.401 E0.01252
G1 X156.233 Y138.301 E0.01252
G1 X155.883 Y138.109 E0.01252
G1 X155.592 Y137.836 E0.01252
G1 X155.378 Y137.498 E0.01252
G1 X155.254 Y137.118 E0.01252
G1 X155.229 Y136.720 E0.01252
G1 X155.304 Y136.328 E0.01252
G1 X155.474 Y135.966 E0.01252
G1 X155.729 Y135.658 E0.01252
G1 X156.052 Y135.424 E0.01252
G1 X156.423 Y135.277 E0.01252
G1 X156.753 Y135.235 E0.01042
G1 X157.144 Y135.267 E0.01229
G1 X157.113 Y135.643 F10800.000
;TYPE:External perimeter
G1 F1200.000
G1 X157.404 Y135.757 E0.00980
G1 X157.650 Y135.935 E0.00954
G1 X157.844 Y136.170 E0.00954
G1 X157.973 Y136.445 E0.00954
G1 X158.030 Y136.744 E0.00954
G1 X158.011 Y137.047 E0.00954
G1 X157.917 Y137.336 E0.00954
G1 X157.754 Y137.593 E0.00954
G1 X157.533 Y137.801 E0.00954
G1 X157.266 Y137.948 E0.00954
G1 X156.971 Y138.024 E0.00954
G1 X156.667 Y138.024 E0.00954
G1 X156.373 Y137.948 E0.00954
G1 X156.106 Y137.801 E0.00954
G1 X155.885 Y137.593 E0.00954
G1 X155.722 Y137.336 E0.00954
G1 X155.628 Y137.047 E0.00954
G1 X155.609 Y136.744 E0.00954
G1 X155.666 Y136.445 E0.00954
G1 X155.795 Y136.170 E0.00954
G1 X155.989 Y135.935 E0.00954
G1 X156.235 Y135.757 E0.00954
G1 X156.518 Y135.645 E0.00954
G1 X156.761 Y135.614 E0.00770
G1 X157.053 Y135.638 E0.00918
G1 X157.331 Y135.419 F10800.000
;WIPE_START
G1 F8640.000
G1 X157.404 Y135.757 E-0.08553
G1 X157.650 Y135.935 E-0.07022
G1 X157.844 Y136.170 E-0.07022
G1 X157.973 Y136.445 E-0.07022
G1 X158.030 Y136.744 E-0.07022
G1 X158.011 Y137.047 E-0.07022
G1 X157.917 Y137.336 E-0.07022
G1 X157.754 Y137.593 E-0.07022
G1 X157.533 Y137.801 E-0.07022
G1 X157.266 Y137.948 E-0.07022
G1 X157.088 Y137.994 E-0.04246
;WIPE_END
G1 E-0.04000 F2100.000
G1 Z0.600 F10800.000
G1 X94.773 Y136.820
G1 Z0.200
G1 E0.80000 F2100.000
;TYPE:Perimeter
G1 F1200.000
G1 X94.723 Y137.216 E0.01252
G1 X94.576 Y137.588 E0.01252
G1 X94.341 Y137.911 E0.01252
G1 X94.034 Y138.165 E0.01252
G1 X93.672 Y138.335 E0.01252
G1 X93.280 Y138.410 E0.01252
G1 X92.881 Y138.385 E0.01252
G1 X92.501 Y138.262 E0.01252
G1 X92.164 Y138.048 E0.01252
G1 X91.891 Y137.756 E0.01252
G1 X91.698 Y137.406 E0.01252
G1 X91.599 Y137.020 E0.01252
G1 X91.599 Y136.620 E0.01252
G1 X91.698 Y136.233 E0.01252
G1 X91.891 Y135.883 E0.01252
G1 X92.164 Y135.592 E0.01252
G1 X92.501 Y135.378 E0.01252
G1 X92.881 Y135.255 E0.01252
G1 X93.213 Y135.234 E0.01042
G1 X93.660 Y135.299 E0.01417
G1 X94.034 Y135.475 E0.01294
G1 X94.341 Y135.729 E0.01252
G1 X94.576 Y136.052 E0.01252
G1 X94.723 Y136.424 E0.01252
G1 X94.766 Y136.760 E0.01064
G1 X94.391 Y136.808 F10800.000
;TYPE:External perimeter
G1 F1200.000
G1 X94.355 Y137.122 E0.00991
G1 X94.243 Y137.404 E0.00954
G1 X94.064 Y137.650 E0.00954
