; generated by PrusaSlicer 2.3.0-rc2+ on 2021-01-25 at 01:24:55 UTC

; 

; external perimeters extrusion width = 0.45mm
; perimeters extrusion width = 0.45mm
; infill extrusion width = 0.45mm
; solid infill extrusion width = 0.45mm
; top infill extrusion width = 0.40mm
; first layer extrusion width = 0.42mm

M73 P0 R31
M73 Q0 S32
M201 X1000 Y1000 Z200 E5000 ; sets maximum accelerations, mm/sec^2
M203 X200 Y200 Z12 E120 ; sets maximum feedrates, mm/sec
M204 P1250 R1250 T1250 ; sets acceleration (P, T) and retract acceleration (R), mm/sec^2
M205 X8.00 Y8.00 Z0.40 E4.50 ; sets the jerk limits, mm/sec
M205 S0 T0 ; sets the minimum extruding and travel feed rate, mm/sec
M107
;TYPE:Custom
M862.3 P "MK3S" ; printer model check
M862.1 P0.4 ; nozzle diameter check
M115 U3.9.2 ; tell printer latest fw version
G90 ; use absolute coordinates
M83 ; extruder relative mode
M104 S215 ; set extruder temp
M140 S60 ; set bed temp
M190 S60 ; wait for bed temp
M109 S215 ; wait for extruder temp
G28 W ; home all without mesh bed level
G80 ; mesh bed leveling
G1 Y-3.0 F1000.0 ; go outside print area
G92 E0.0
G1 X60.0 E9.0 F1000.0 ; intro line
G1 X100.0 E12.5 F1000.0 ; intro line
G92 E0.0
M221 S95

; Don't change E values below. Excessive value can damage the printer.

M907 E538 ; set extruder motor current
G21 ; set units to millimeters
G90 ; use absolute coordinates
M83 ; use relative distances for extrusion
M900 K0.05 ; Filament gcode LA 1.5
M900 K30 ; Filament gcode LA 1.0
;LAYER_CHANGE
;Z:0.2
;HEIGHT:0.2
;BEFORE_LAYER_CHANGE
G92 E0.0
;0.2


G1 E-0.80000 F2100.000
G1 Z0.400 F10800.000
;AFTER_LAYER_CHANGE
;0.2
G1 X88.539 Y67.446
G1 Z0.200
G1 E0.80000 F2100.000
M204 S1000
;TYPE:Skirt
;WIDTH:0.42
G1 F1200.000
G1 X89.928 Y66.560 E0.05167
G1 X91.152 Y66.090 E0.04109
G1 X91.926 Y65.912 E0.02492
G1 X119.750 Y62.698 E0.87819
G1 X121.874 Y62.488 E0.06692
G1 X123.939 Y62.386 E0.06484
G1 X126.007 Y62.385 E0.06485
G1 X128.183 Y62.492 E0.06831
G1 X130.264 Y62.699 E0.06557
G1 X158.070 Y65.911 E0.87761
G1 X159.578 Y66.341 E0.04919
G1 X160.735 Y66.930 E0.04070
G1 X161.382 Y67.385 E0.02480
G1 X162.546 Y68.530 E0.05120
G1 X163.410 Y69.866 E0.04990
G1 X163.917 Y71.173 E0.04395
G1 X164.118 Y72.114 E0.03017
G1 X167.414 Y100.739 E0.90345
G1 X167.574 Y102.873 E0.06709
G1 X167.627 Y104.990 E0.06640
G1 X167.574 Y107.126 E0.06700
G1 X167.411 Y109.279 E0.06770
G1 X164.117 Y137.893 E0.90307
G1 X163.944 Y138.734 E0.02693
G1 X163.666 Y139.563 E0.02743
G1 X163.333 Y140.278 E0.02472
G1 X162.626 Y141.367 E0.04069
G1 X161.531 Y142.495 E0.04930
G1 X160.168 Y143.393 E0.05120
G1 X158.632 Y143.969 E0.05144
G1 X157.874 Y144.120 E0.02422
G1 X128.142 Y147.511 E0.93827
G1 X126.061 Y147.614 E0.06533
G1 X123.939 Y147.614 E0.06652
G1 X121.817 Y147.508 E0.06664
G1 X119.755 Y147.303 E0.06497
G1 X92.107 Y144.117 E0.87260
G1 X91.266 Y143.944 E0.02692
G1 X90.437 Y143.666 E0.02743
G1 X89.722 Y143.333 E0.02472
G1 X88.633 Y142.626 E0.04069
G1 X87.505 Y141.531 E0.04930
G1 X86.605 Y140.164 E0.05132
G1 X86.029 Y138.624 E0.05156
G1 X85.881 Y137.878 E0.02385
G1 X82.588 Y109.276 E0.90274
M73 P1 R31
M73 Q1 S32
G1 X82.427 Y107.138 E0.06721
G1 X82.373 Y105.002 E0.06700
G1 X82.424 Y102.934 E0.06485
G1 X82.586 Y100.739 E0.06903
G1 X85.883 Y72.107 E0.90365
M73 Q1 S31
G1 X86.056 Y71.266 E0.02693
G1 X86.334 Y70.437 E0.02743
G1 X86.667 Y69.722 E0.02472
G1 X87.380 Y68.624 E0.04105
G1 X88.497 Y67.489 E0.04991
;WIPE_START
G1 F8640.000
G1 X89.928 Y66.560 E-0.39406
G1 X91.152 Y66.090 E-0.30264
G1 X91.419 Y66.028 E-0.06331
;WIPE_END
G1 E-0.04000 F2100.000
G1 Z0.600 F10800.000
G1 X99.135 Y78.425
G1 Z0.200
G1 E0.80000 F2100.000
;TYPE:Perimeter
G1 F1200.000
G1 X100.585 Y77.088 E0.06185
G1 X102.104 Y75.829 E0.06185
G1 X103.687 Y74.653 E0.06185
G1 X105.331 Y73.562 E0.06184
G1 X107.031 Y72.561 E0.06186
G1 X108.781 Y71.651 E0.06184
G1 X110.577 Y70.836 E0.06185
G1 X112.414 Y70.117 E0.06185
G1 X114.287 Y69.497 E0.06185
G1 X116.190 Y68.978 E0.06185
G1 X118.118 Y68.561 E0.06185
G1 X120.065 Y68.246 E0.06185
G1 X122.027 Y68.036 E0.06185
G1 X124.031 Y67.929 E0.06292
G1 X126.004 Y67.930 E0.06185
G1 X127.973 Y68.036 E0.06185
G1 X129.935 Y68.246 E0.06185
G1 X131.882 Y68.561 E0.06185
G1 X133.810 Y68.978 E0.06185
G1 X135.713 Y69.497 E0.06185
G1 X137.586 Y70.117 E0.06185
G1 X139.391 Y70.823 E0.06078
G1 X141.219 Y71.651 E0.06291
G1 X142.940 Y72.545 E0.06079
G1 X144.697 Y73.581 E0.06397
G1 X146.313 Y74.653 E0.06079
G1 X147.896 Y75.829 E0.06185
G1 X149.415 Y77.088 E0.06185
G1 X150.865 Y78.425 E0.06185
G1 X152.241 Y79.838 E0.06185
G1 X153.541 Y81.323 E0.06185
G1 X154.759 Y82.874 E0.06185
G1 X155.894 Y84.488 E0.06185
G1 X156.958 Y86.189 E0.06292
G1 X157.913 Y87.915 E0.06185
G1 X158.775 Y89.689 E0.06185
G1 X159.542 Y91.507 E0.06185
G1 X160.210 Y93.363 E0.06185
G1 X160.779 Y95.252 E0.06185
G1 X161.247 Y97.168 E0.06185
G1 X161.612 Y99.107 E0.06185
G1 X161.874 Y101.062 E0.06185
G1 X162.031 Y103.028 E0.06185
G1 X162.083 Y104.966 E0.06079
G1 X162.029 Y107.006 E0.06397
G1 X161.874 Y108.938 E0.06079
G1 X161.606 Y110.927 E0.06291
G1 X161.247 Y112.832 E0.06078
G1 X160.779 Y114.748 E0.06185
G1 X160.210 Y116.637 E0.06185
G1 X159.542 Y118.493 E0.06185
G1 X158.775 Y120.311 E0.06185
G1 X157.913 Y122.085 E0.06185
G1 X156.941 Y123.841 E0.06292
G1 X155.894 Y125.512 E0.06185
G1 X154.759 Y127.126 E0.06185
G1 X153.541 Y128.677 E0.06185
G1 X152.241 Y130.162 E0.06185
G1 X150.865 Y131.575 E0.06185
G1 X149.415 Y132.912 E0.06185
G1 X147.896 Y134.171 E0.06185
G1 X146.340 Y135.327 E0.06078
G1 X144.669 Y136.438 E0.06290
G1 X142.999 Y137.422 E0.06080
G1 X141.188 Y138.363 E0.06397
G1 X139.423 Y139.164 E0.06079
G1 X137.586 Y139.883 E0.06185
G1 X135.713 Y140.503 E0.06185
G1 X133.810 Y141.022 E0.06185
G1 X131.882 Y141.439 E0.06185
G1 X129.935 Y141.754 E0.06185
G1 X127.973 Y141.964 E0.06185
G1 X126.003 Y142.070 E0.06185
G1 X123.997 Y142.070 E0.06292
G1 X122.027 Y141.964 E0.06185
G1 X120.065 Y141.754 E0.06185
G1 X118.118 Y141.439 E0.06185
G1 X116.190 Y141.022 E0.06185
G1 X114.287 Y140.503 E0.06185
G1 X112.414 Y139.883 E0.06185
G1 X110.577 Y139.164 E0.06185
G1 X108.781 Y138.349 E0.06185
G1 X107.031 Y137.439 E0.06184
G1 X105.331 Y136.438 E0.06186
G1 X103.687 Y135.347 E0.06184
G1 X102.104 Y134.171 E0.06185
G1 X100.585 Y132.912 E0.06185
G1 X99.135 Y131.575 E0.06185
G1 X97.759 Y130.162 E0.06185
G1 X96.459 Y128.677 E0.06185
G1 X95.241 Y127.126 E0.06185
G1 X94.106 Y125.512 E0.06185
G1 X93.042 Y123.811 E0.06292
G1 X92.087 Y122.085 E0.06185
G1 X91.225 Y120.311 E0.06185
G1 X90.458 Y118.493 E0.06185
G1 X89.790 Y116.637 E0.06185
G1 X89.221 Y114.748 E0.06185
G1 X88.753 Y112.832 E0.06185
G1 X88.388 Y110.893 E0.06185
G1 X88.126 Y108.938 E0.06185
G1 X87.969 Y106.972 E0.06185
G1 X87.917 Y105.034 E0.06079
G1 X87.971 Y102.994 E0.06397
G1 X88.126 Y101.062 E0.06079
G1 X88.394 Y99.073 E0.06291
G1 X88.753 Y97.168 E0.06078
G1 X89.221 Y95.252 E0.06185
G1 X89.790 Y93.363 E0.06185
G1 X90.458 Y91.507 E0.06185
G1 X91.225 Y89.689 E0.06185
G1 X92.087 Y87.915 E0.06185
G1 X93.059 Y86.159 E0.06292
G1 X94.106 Y84.488 E0.06185
G1 X95.241 Y82.874 E0.06185
G1 X96.459 Y81.323 E0.06185
G1 X97.759 Y79.838 E0.06185
G1 X99.093 Y78.468 E0.05997
G1 X99.363 Y78.731 F10800.000
;TYPE:External perimeter
G1 F1200.000
G1 X100.833 Y77.372 E0.06279
G1 X102.337 Y76.126 E0.06122
G1 X103.904 Y74.961 E0.06122
G1 X105.531 Y73.882 E0.06121
G1 X107.213 Y72.891 E0.06123
G1 X108.946 Y71.990 E0.06121
G1 X110.724 Y71.183 E0.06122
G1 X112.542 Y70.472 E0.06122
G1 X114.396 Y69.859 E0.06122
G1 X116.280 Y69.344 E0.06122
G1 X118.188 Y68.931 E0.06122
G1 X120.115 Y68.620 E0.06122
G1 X122.057 Y68.412 E0.06122
G1 X124.041 Y68.306 E0.06229
G1 X125.993 Y68.307 E0.06122
G1 X127.943 Y68.412 E0.06122
G1 X129.885 Y68.620 E0.06122
G1 X131.812 Y68.931 E0.06122
G1 X133.720 Y69.344 E0.06122
G1 X135.604 Y69.859 E0.06122
G1 X137.458 Y70.472 E0.06122
G1 X139.245 Y71.171 E0.06016
G1 X141.054 Y71.990 E0.06228
G1 X142.757 Y72.875 E0.06016
G1 X144.497 Y73.901 E0.06334
G1 X146.096 Y74.961 E0.06016
G1 X147.663 Y76.126 E0.06122
G1 X149.167 Y77.372 E0.06122
G1 X150.602 Y78.696 E0.06122
G1 X151.964 Y80.094 E0.06122
G1 X153.250 Y81.563 E0.06122
G1 X154.457 Y83.099 E0.06122
G1 X155.580 Y84.696 E0.06122
G1 X156.633 Y86.380 E0.06229
G1 X157.579 Y88.089 E0.06122
M73 P2 R31
G1 X158.432 Y89.845 E0.06122
G1 X159.190 Y91.644 E0.06122
G1 X159.852 Y93.481 E0.06122
M73 Q2 S31
G1 X160.416 Y95.351 E0.06122
G1 X160.879 Y97.248 E0.06122
G1 X161.240 Y99.167 E0.06122
G1 X161.499 Y101.102 E0.06122
G1 X161.655 Y103.048 E0.06122
G1 X161.706 Y104.966 E0.06016
G1 X161.652 Y106.986 E0.06334
G1 X161.499 Y108.898 E0.06016
G1 X161.234 Y110.867 E0.06228
G1 X160.879 Y112.752 E0.06016
G1 X160.416 Y114.649 E0.06122
G1 X159.852 Y116.519 E0.06122
G1 X159.190 Y118.356 E0.06122
G1 X158.432 Y120.155 E0.06122
G1 X157.579 Y121.911 E0.06122
G1 X156.616 Y123.649 E0.06229
G1 X155.580 Y125.304 E0.06122
G1 X154.457 Y126.901 E0.06122
G1 X153.250 Y128.437 E0.06122
G1 X151.964 Y129.906 E0.06122
G1 X150.602 Y131.304 E0.06122
G1 X149.167 Y132.628 E0.06122
G1 X147.663 Y133.874 E0.06122
G1 X146.123 Y135.019 E0.06016
G1 X144.469 Y136.118 E0.06227
G1 X142.816 Y137.092 E0.06017
G1 X141.023 Y138.024 E0.06334
G1 X139.276 Y138.817 E0.06016
G1 X137.458 Y139.528 E0.06122
G1 X135.604 Y140.141 E0.06122
G1 X133.720 Y140.656 E0.06122
G1 X131.812 Y141.069 E0.06122
G1 X129.885 Y141.380 E0.06122
G1 X127.943 Y141.588 E0.06122
G1 X125.993 Y141.693 E0.06122
G1 X124.007 Y141.693 E0.06229
G1 X122.057 Y141.588 E0.06122
G1 X120.115 Y141.380 E0.06122
G1 X118.188 Y141.069 E0.06122
G1 X116.280 Y140.656 E0.06122
G1 X114.396 Y140.141 E0.06122
G1 X112.542 Y139.528 E0.06122
G1 X110.724 Y138.817 E0.06122
G1 X108.946 Y138.010 E0.06122
G1 X107.213 Y137.109 E0.06121
G1 X105.531 Y136.118 E0.06123
G1 X103.904 Y135.039 E0.06121
G1 X102.337 Y133.874 E0.06122
G1 X100.833 Y132.628 E0.06122
G1 X99.398 Y131.304 E0.06122
G1 X98.036 Y129.906 E0.06122
G1 X96.750 Y128.437 E0.06122
G1 X95.543 Y126.901 E0.06122
G1 X94.420 Y125.304 E0.06122
G1 X93.367 Y123.620 E0.06229
G1 X92.421 Y121.911 E0.06122
G1 X91.568 Y120.155 E0.06122
G1 X90.810 Y118.356 E0.06122
G1 X90.148 Y116.519 E0.06122
G1 X89.584 Y114.649 E0.06122
G1 X89.121 Y112.752 E0.06122
G1 X88.760 Y110.833 E0.06122
G1 X88.501 Y108.898 E0.06122
G1 X88.345 Y106.952 E0.06122
G1 X88.294 Y105.034 E0.06016
G1 X88.348 Y103.014 E0.06334
G1 X88.501 Y101.102 E0.06016
G1 X88.766 Y99.133 E0.06228
G1 X89.121 Y97.248 E0.06016
G1 X89.584 Y95.351 E0.06122
G1 X90.148 Y93.481 E0.06122
G1 X90.810 Y91.644 E0.06122
G1 X91.568 Y89.845 E0.06122
G1 X92.421 Y88.089 E0.06122
G1 X93.384 Y86.351 E0.06229
G1 X94.420 Y84.696 E0.06122
G1 X95.543 Y83.099 E0.06122
G1 X96.750 Y81.563 E0.06122
G1 X98.036 Y80.094 E0.06122
G1 X99.322 Y78.774 E0.05777
G1 X99.265 Y78.344 F10800.000
;WIPE_START
G1 F8640.000
G1 X100.833 Y77.372 E-0.47621
G1 X101.779 Y76.587 E-0.28379
;WIPE_END
G1 E-0.04000 F2100.000
G1 Z0.600 F10800.000
G1 X94.262 Y74.352
G1 Z0.200
G1 E0.80000 F2100.000
;TYPE:Perimeter
G1 F1200.000
G1 X93.885 Y74.601 E0.01417
G1 X93.576 Y74.723 E0.01042
G1 X93.180 Y74.774 E0.01252
G1 X92.784 Y74.723 E0.01252
G1 X92.413 Y74.576 E0.01252
G1 X92.089 Y74.342 E0.01252
G1 X91.835 Y74.034 E0.01252
G1 X91.665 Y73.673 E0.01252
G1 X91.590 Y73.280 E0.01252
G1 X91.615 Y72.882 E0.01252
G1 X91.739 Y72.502 E0.01252
G1 X91.953 Y72.165 E0.01252
G1 X92.244 Y71.891 E0.01252
G1 X92.594 Y71.699 E0.01252
G1 X92.980 Y71.599 E0.01252
G1 X93.380 Y71.599 E0.01252
G1 X93.767 Y71.699 E0.01252
G1 X94.117 Y71.891 E0.01252
G1 X94.418 Y72.174 E0.01294
G1 X94.643 Y72.566 E0.01417
G1 X94.745 Y72.882 E0.01042
G1 X94.770 Y73.280 E0.01252
G1 X94.696 Y73.673 E0.01252
G1 X94.525 Y74.034 E0.01252
G1 X94.301 Y74.306 E0.01106
G1 X94.010 Y74.065 F10800.000
;TYPE:External perimeter
G1 F1200.000
G1 X93.710 Y74.265 E0.01130
G1 X93.482 Y74.355 E0.00770
G1 X93.180 Y74.393 E0.00954
G1 X92.878 Y74.355 E0.00954
G1 X92.596 Y74.243 E0.00954
G1 X92.350 Y74.065 E0.00954
G1 X92.156 Y73.830 E0.00954
G1 X92.026 Y73.555 E0.00954
G1 X91.969 Y73.256 E0.00954
G1 X91.988 Y72.953 E0.00954
G1 X92.082 Y72.664 E0.00954
G1 X92.245 Y72.407 E0.00954
G1 X92.467 Y72.199 E0.00954
G1 X92.734 Y72.052 E0.00954
G1 X93.028 Y71.977 E0.00954
G1 X93.332 Y71.977 E0.00954
G1 X93.627 Y72.052 E0.00954
G1 X93.893 Y72.199 E0.00954
G1 X94.118 Y72.410 E0.00968
G1 X94.296 Y72.719 E0.01118
G1 X94.372 Y72.953 E0.00770
G1 X94.391 Y73.256 E0.00954
G1 X94.334 Y73.555 E0.00954
G1 X94.205 Y73.830 E0.00954
G1 X94.048 Y74.019 E0.00768
G1 X94.083 Y74.418 F10800.000
;WIPE_START
G1 F8640.000
G1 X93.710 Y74.265 E-0.09656
G1 X93.482 Y74.355 E-0.05669
G1 X93.180 Y74.393 E-0.07022
G1 X92.878 Y74.355 E-0.07022
G1 X92.596 Y74.243 E-0.07022
G1 X92.350 Y74.065 E-0.07022
G1 X92.156 Y73.830 E-0.07022
G1 X92.026 Y73.555 E-0.07022
G1 X91.969 Y73.256 E-0.07022
G1 X91.988 Y72.953 E-0.07022
G1 X92.049 Y72.768 E-0.04497
;WIPE_END
G1 E-0.04000 F2100.000
G1 Z0.600 F10800.000
G1 X155.226 Y73.180
G1 Z0.200
G1 E0.80000 F2100.000
;TYPE:Perimeter
G1 F1200.000
G1 X155.277 Y72.784 E0.01252
G1 X155.424 Y72.413 E0.01252
G1 X155.658 Y72.089 E0.01252
G1 X155.976 Y71.826 E0.01294
G1 X156.393 Y71.652 E0.01417
G1 X156.720 Y71.590 E0.01042
G1 X157.118 Y71.615 E0.01252
G1 X157.498 Y71.739 E0.01252
G1 X157.835 Y71.953 E0.01252
G1 X158.109 Y72.244 E0.01252
G1 X158.301 Y72.594 E0.01252
G1 X158.401 Y72.980 E0.01252
G1 X158.401 Y73.380 E0.01252
G1 X158.301 Y73.767 E0.01252
G1 X158.109 Y74.117 E0.01252
G1 X157.835 Y74.408 E0.01252
G1 X157.498 Y74.622 E0.01252
G1 X157.118 Y74.745 E0.01252
G1 X156.720 Y74.770 E0.01252
G1 X156.327 Y74.696 E0.01252
G1 X155.966 Y74.525 E0.01252
G1 X155.658 Y74.271 E0.01252
G1 X155.424 Y73.948 E0.01252
G1 X155.277 Y73.576 E0.01252
G1 X155.234 Y73.240 E0.01064
G1 X155.608 Y73.192 F10800.000
;TYPE:External perimeter
G1 F1200.000
G1 X155.645 Y72.878 E0.00991
G1 X155.757 Y72.596 E0.00954
G1 X155.935 Y72.350 E0.00954
G1 X156.173 Y72.153 E0.00968
G1 X156.502 Y72.015 E0.01118
G1 X156.744 Y71.969 E0.00770
G1 X157.047 Y71.988 E0.00954
G1 X157.336 Y72.082 E0.00954
G1 X157.593 Y72.245 E0.00954
G1 X157.801 Y72.467 E0.00954
G1 X157.948 Y72.734 E0.00954
G1 X158.023 Y73.028 E0.00954
G1 X158.023 Y73.332 E0.00954
G1 X157.948 Y73.627 E0.00954
G1 X157.801 Y73.893 E0.00954
G1 X157.593 Y74.115 E0.00954
G1 X157.336 Y74.278 E0.00954
G1 X157.047 Y74.372 E0.00954
G1 X156.744 Y74.391 E0.00954
G1 X156.445 Y74.334 E0.00954
G1 X156.170 Y74.205 E0.00954
G1 X155.935 Y74.011 E0.00954
G1 X155.757 Y73.765 E0.00954
G1 X155.645 Y73.482 E0.00954
G1 X155.616 Y73.252 E0.00727
G1 X155.333 Y73.036 F10800.000
;WIPE_START
G1 F8640.000
G1 X155.645 Y72.878 E-0.08651
G1 X155.757 Y72.596 E-0.07022
G1 X155.935 Y72.350 E-0.07022
G1 X156.173 Y72.153 E-0.07131
G1 X156.502 Y72.015 E-0.08235
G1 X156.744 Y71.969 E-0.05669
G1 X157.047 Y71.988 E-0.07022
G1 X157.336 Y72.082 E-0.07022
G1 X157.593 Y72.245 E-0.07022
G1 X157.801 Y72.467 E-0.07022
G1 X157.889 Y72.626 E-0.04180
;WIPE_END
G1 E-0.04000 F2100.000
G1 Z0.600 F10800.000
G1 X157.204 Y135.272
G1 Z0.200
G1 E0.80000 F2100.000
;TYPE:Perimeter
G1 F1200.000
G1 X157.587 Y135.424 E0.01294
G1 X157.911 Y135.658 E0.01252
G1 X158.165 Y135.966 E0.01252
G1 X158.335 Y136.327 E0.01252
G1 X158.410 Y136.720 E0.01252
G1 X158.385 Y137.118 E0.01252
G1 X158.261 Y137.498 E0.01252
G1 X158.047 Y137.835 E0.01252
G1 X157.756 Y138.109 E0.01252
G1 X157.406 Y138.301 E0.01252
G1 X157.020 Y138.401 E0.01252
G1 X156.620 Y138.401 E0.01252
G1 X156.233 Y138.301 E0.01252
G1 X155.883 Y138.109 E0.01252
G1 X155.592 Y137.835 E0.01252
G1 X155.378 Y137.498 E0.01252
G1 X155.255 Y137.118 E0.01252
G1 X155.230 Y136.720 E0.01252
G1 X155.304 Y136.327 E0.01252
G1 X155.475 Y135.966 E0.01252
G1 X155.729 Y135.658 E0.01252
G1 X156.052 Y135.424 E0.01252
G1 X156.424 Y135.277 E0.01252
G1 X156.753 Y135.235 E0.01042
G1 X157.144 Y135.267 E0.01229
G1 X157.113 Y135.643 F10800.000
;TYPE:External perimeter
G1 F1200.000
G1 X157.404 Y135.757 E0.00980
G1 X157.650 Y135.935 E0.00954
G1 X157.844 Y136.170 E0.00954
G1 X157.974 Y136.445 E0.00954
G1 X158.031 Y136.744 E0.00954
G1 X158.012 Y137.047 E0.00954
G1 X157.918 Y137.336 E0.00954
G1 X157.755 Y137.593 E0.00954
G1 X157.533 Y137.801 E0.00954
