; generated by PrusaSlicer 2.3.0+ on 2021-01-26 at 17:19:04 UTC

; 

; external perimeters extrusion width = 0.45mm
; perimeters extrusion width = 0.45mm
; infill extrusion width = 0.45mm
; solid infill extrusion width = 0.45mm
; top infill extrusion width = 0.40mm
; first layer extrusion width = 0.42mm

M73 P0 R30
M73 Q0 S31
M201 X1000 Y1000 Z200 E5000 ; sets maximum accelerations, mm/sec^2
M203 X200 Y200 Z12 E120 ; sets maximum feedrates, mm/sec
M204 P1250 R1250 T1250 ; sets acceleration (P, T) and retract acceleration (R), mm/sec^2
M205 X8.00 Y8.00 Z0.40 E4.50 ; sets the jerk limits, mm/sec
M205 S0 T0 ; sets the minimum extruding and travel feed rate, mm/sec
M107
;TYPE:Custom
M862.3 P "MK3S" ; printer model check
M862.1 P0.4 ; nozzle diameter check
M115 U3.9.3 ; tell printer latest fw version
G90 ; use absolute coordinates
M83 ; extruder relative mode
M104 S215 ; set extruder temp
M140 S60 ; set bed temp
M190 S60 ; wait for bed temp
M109 S215 ; wait for extruder temp
G28 W ; home all without mesh bed level
G80 ; mesh bed leveling
G1 Y-3.0 F1000.0 ; go outside print area
G92 E0.0
G1 X60.0 E9.0 F1000.0 ; intro line
G1 X100.0 E12.5 F1000.0 ; intro line
G92 E0.0
M221 S95

; Don't change E values below. Excessive value can damage the printer.
M907 E430 ; set extruder motor current
G21 ; set units to millimeters
G90 ; use absolute coordinates
M83 ; use relative distances for extrusion
M900 K0.05 ; Filament gcode LA 1.5
M900 K30 ; Filament gcode LA 1.0
;LAYER_CHANGE
;Z:0.2
;HEIGHT:0.2
;BEFORE_LAYER_CHANGE
G92 E0.0
;0.2


G1 E-0.80000 F2100.000
G1 Z0.400 F10800.000
;AFTER_LAYER_CHANGE
;0.2
G1 X98.151 Y74.910
G1 Z0.200
G1 E0.80000 F2100.000
M204 S1000
;TYPE:Skirt
;WIDTH:0.42
G1 F1200.000
G1 X99.581 Y74.363 E0.04800
G1 X101.108 Y74.121 E0.04847
G1 X148.777 Y74.118 E1.49463
G1 X149.783 Y74.224 E0.03171
G1 X151.248 Y74.639 E0.04775
G1 X152.537 Y75.307 E0.04550
G1 X153.704 Y76.249 E0.04705
G1 X154.634 Y77.378 E0.04585
G1 X155.130 Y78.233 E0.03100
G1 X155.637 Y79.581 E0.04514
G1 X155.871 Y81.009 E0.04538
G1 X155.880 Y128.849 E1.50000
G1 X155.777 Y129.779 E0.02933
G1 X155.397 Y131.160 E0.04490
G1 X154.756 Y132.436 E0.04479
G1 X154.195 Y133.213 E0.03005
G1 X153.141 Y134.255 E0.04645
G1 X151.835 Y135.097 E0.04871
G1 X150.401 Y135.642 E0.04812
G1 X148.812 Y135.881 E0.05037
G1 X101.151 Y135.880 E1.49439
M73 Q0 S30
G1 X100.221 Y135.777 E0.02933
G1 X98.840 Y135.397 E0.04490
G1 X97.564 Y134.756 E0.04479
G1 X96.787 Y134.195 E0.03005
G1 X95.745 Y133.141 E0.04645
G1 X94.903 Y131.836 E0.04871
G1 X94.358 Y130.401 E0.04812
G1 X94.119 Y128.812 E0.05037
G1 X94.120 Y81.151 E1.49439
M73 P1 R30
M73 Q1 S30
G1 X94.223 Y80.221 E0.02933
G1 X94.603 Y78.840 E0.04490
G1 X95.244 Y77.564 E0.04479
G1 X95.805 Y76.787 E0.03005
G1 X96.856 Y75.748 E0.04633
G1 X98.100 Y74.943 E0.04647
; printing object bezel_small_egt.stl id:0 copy 0
;WIPE_START
G1 F8640.000
G1 X99.581 Y74.363 E-0.36705
G1 X101.108 Y74.121 E-0.35698
G1 X101.263 Y74.121 E-0.03597
;WIPE_END
G1 E-0.04000 F2100.000
G1 Z0.600 F10800.000
G1 X109.890 Y85.116
G1 Z0.200
G1 E0.80000 F2100.000
;TYPE:External perimeter
G1 F1200.000
G1 X111.328 Y84.109 E0.05505
G1 X112.657 Y83.302 E0.04876
G1 X114.181 Y82.498 E0.05403
G1 X115.670 Y81.841 E0.05102
G1 X117.195 Y81.284 E0.05091
G1 X118.753 Y80.827 E0.05091
G1 X120.368 Y80.467 E0.05189
G1 X121.973 Y80.217 E0.05091
G1 X123.558 Y80.074 E0.04992
G1 X125.213 Y80.034 E0.05190
G1 X126.835 Y80.101 E0.05090
G1 X128.450 Y80.272 E0.05091
G1 X130.019 Y80.543 E0.04992
G1 X131.628 Y80.929 E0.05189
G1 X133.179 Y81.410 E0.05091
G1 X134.695 Y81.992 E0.05091
G1 X136.170 Y82.671 E0.05091
G1 X137.570 Y83.429 E0.04992
G1 X138.972 Y84.308 E0.05189
G1 X140.311 Y85.280 E0.05189
G1 X141.538 Y86.295 E0.04992
G1 X142.719 Y87.410 E0.05091
G1 X143.845 Y88.623 E0.05189
G1 X144.851 Y89.857 E0.04992
G1 X145.793 Y91.179 E0.05091
G1 X146.647 Y92.560 E0.05091
G1 X147.410 Y93.993 E0.05091
G1 X148.090 Y95.502 E0.05189
G1 X148.659 Y97.023 E0.05091
G1 X149.119 Y98.547 E0.04992
G1 X149.494 Y100.159 E0.05189
G1 X149.756 Y101.761 E0.05091
G1 X149.912 Y103.346 E0.04992
G1 X149.967 Y105.000 E0.05189
G1 X149.912 Y106.654 E0.05189
G1 X149.756 Y108.239 E0.04992
G1 X149.494 Y109.841 E0.05091
G1 X149.119 Y111.453 E0.05189
G1 X148.659 Y112.977 E0.04992
G1 X148.090 Y114.498 E0.05091
G1 X147.410 Y116.007 E0.05189
G1 X146.647 Y117.440 E0.05091
G1 X145.793 Y118.821 E0.05091
G1 X144.851 Y120.143 E0.05091
G1 X143.845 Y121.377 E0.04992
G1 X142.719 Y122.590 E0.05189
G1 X141.538 Y123.705 E0.05091
G1 X140.311 Y124.720 E0.04992
G1 X138.972 Y125.692 E0.05189
G1 X137.570 Y126.571 E0.05189
G1 X136.170 Y127.329 E0.04992
G1 X134.695 Y128.008 E0.05091
G1 X133.149 Y128.599 E0.05189
G1 X131.628 Y129.071 E0.04992
G1 X130.050 Y129.451 E0.05091
G1 X128.419 Y129.732 E0.05189
G1 X126.804 Y129.902 E0.05091
G1 X125.182 Y129.967 E0.05091
G1 X123.558 Y129.926 E0.05091
G1 X121.941 Y129.779 E0.05091
G1 X120.368 Y129.533 E0.04992
G1 X118.753 Y129.173 E0.05189
G1 X117.195 Y128.716 E0.05091
G1 X115.670 Y128.159 E0.05090
G1 X114.181 Y127.502 E0.05102
G1 X112.657 Y126.698 E0.05403
G1 X111.328 Y125.891 E0.04876
G1 X109.890 Y124.884 E0.05505
G1 X109.892 Y121.181 E0.11609
G1 X109.907 Y120.673 E0.01593
G1 X109.956 Y120.161 E0.01614
G1 X110.039 Y119.671 E0.01558
G1 X110.049 Y119.190 E0.01507
G1 X110.049 Y90.810 E0.88986
G1 X110.039 Y90.329 E0.01507
G1 X109.956 Y89.839 E0.01558
G1 X109.907 Y89.327 E0.01614
G1 X109.892 Y88.819 E0.01593
G1 X109.890 Y85.176 E0.11421
G1 X109.731 Y84.749 F10800.000
;WIPE_START
G1 F8640.000
G1 X111.328 Y84.109 E-0.41348
G1 X112.611 Y83.330 E-0.34652
;WIPE_END
G1 E-0.04000 F2100.000
G1 Z0.600 F10800.000
G1 X147.421 Y127.350
G1 Z0.200
G1 E0.80000 F2100.000
;TYPE:Perimeter
G1 F1200.000
G1 X147.744 Y127.115 E0.01252
G1 X148.115 Y126.968 E0.01252
G1 X148.445 Y126.926 E0.01042
G1 X148.895 Y126.963 E0.01417
G1 X149.279 Y127.115 E0.01294
G1 X149.602 Y127.350 E0.01252
G1 X149.857 Y127.658 E0.01252
G1 X150.027 Y128.019 E0.01252
G1 X150.101 Y128.411 E0.01252
G1 X150.076 Y128.810 E0.01252
G1 X149.974 Y129.126 E0.01042
G1 X149.749 Y129.518 E0.01417
G1 X149.448 Y129.800 E0.01294
G1 X149.098 Y129.993 E0.01252
G1 X148.711 Y130.092 E0.01252
G1 X148.312 Y130.092 E0.01252
G1 X147.925 Y129.993 E0.01252
G1 X147.575 Y129.800 E0.01252
G1 X147.284 Y129.527 E0.01252
G1 X147.070 Y129.190 E0.01252
G1 X146.946 Y128.810 E0.01252
G1 X146.921 Y128.411 E0.01252
G1 X146.996 Y128.019 E0.01252
G1 X147.166 Y127.658 E0.01252
G1 X147.382 Y127.396 E0.01064
G1 X147.673 Y127.636 F10800.000
;TYPE:External perimeter
G1 F1200.000
G1 X147.927 Y127.448 E0.00991
G1 X148.210 Y127.336 E0.00954
G1 X148.453 Y127.305 E0.00770
G1 X148.809 Y127.334 E0.01118
G1 X149.096 Y127.448 E0.00968
G1 X149.342 Y127.627 E0.00954
G1 X149.536 Y127.861 E0.00954
G1 X149.665 Y128.136 E0.00954
G1 X149.722 Y128.435 E0.00954
G1 X149.703 Y128.739 E0.00954
G1 X149.627 Y128.972 E0.00770
G1 X149.450 Y129.281 E0.01118
G1 X149.224 Y129.493 E0.00968
G1 X148.958 Y129.639 E0.00954
G1 X148.663 Y129.715 E0.00954
G1 X148.359 Y129.715 E0.00954
G1 X148.065 Y129.639 E0.00954
G1 X147.798 Y129.493 E0.00954
G1 X147.576 Y129.285 E0.00954
G1 X147.414 Y129.028 E0.00954
G1 X147.320 Y128.739 E0.00954
G1 X147.300 Y128.435 E0.00954
G1 X147.357 Y128.136 E0.00954
G1 X147.487 Y127.861 E0.00954
G1 X147.635 Y127.683 E0.00727
G1 X147.598 Y127.329 F10800.000
;WIPE_START
G1 F8640.000
G1 X147.927 Y127.448 E-0.08651
G1 X148.210 Y127.336 E-0.07022
G1 X148.453 Y127.305 E-0.05669
G1 X148.809 Y127.334 E-0.08236
G1 X149.096 Y127.448 E-0.07131
G1 X149.342 Y127.627 E-0.07022
G1 X149.536 Y127.861 E-0.07022
G1 X149.665 Y128.136 E-0.07022
G1 X149.722 Y128.435 E-0.07022
G1 X149.703 Y128.739 E-0.07022
G1 X149.647 Y128.911 E-0.04180
;WIPE_END
G1 E-0.04000 F2100.000
G1 Z0.600 F10800.000
G1 X103.082 Y128.511
G1 Z0.200
G1 E0.80000 F2100.000
;TYPE:Perimeter
G1 F1200.000
G1 X103.032 Y128.908 E0.01252
G1 X102.885 Y129.279 E0.01252
G1 X102.650 Y129.602 E0.01252
G1 X102.342 Y129.857 E0.01252
G1 X101.981 Y130.027 E0.01252
G1 X101.589 Y130.101 E0.01252
G1 X101.190 Y130.076 E0.01252
G1 X100.874 Y129.974 E0.01042
G1 X100.482 Y129.749 E0.01417
G1 X100.200 Y129.448 E0.01294
G1 X100.007 Y129.098 E0.01252
G1 X99.908 Y128.711 E0.01252
G1 X99.908 Y128.312 E0.01252
G1 X100.007 Y127.925 E0.01252
G1 X100.200 Y127.575 E0.01252
G1 X100.473 Y127.284 E0.01252
G1 X100.810 Y127.070 E0.01252
G1 X101.190 Y126.946 E0.01252
G1 X101.522 Y126.925 E0.01042
G1 X101.969 Y126.990 E0.01417
G1 X102.342 Y127.166 E0.01294
G1 X102.650 Y127.421 E0.01252
G1 X102.885 Y127.744 E0.01252
G1 X103.032 Y128.115 E0.01252
G1 X103.075 Y128.452 E0.01064
G1 X102.700 Y128.499 F10800.000
;TYPE:External perimeter
G1 F1200.000
G1 X102.664 Y128.813 E0.00991
G1 X102.552 Y129.096 E0.00954
G1 X102.373 Y129.342 E0.00954
G1 X102.139 Y129.536 E0.00954
G1 X101.864 Y129.665 E0.00954
G1 X101.565 Y129.722 E0.00954
G1 X101.261 Y129.703 E0.00954
G1 X101.028 Y129.627 E0.00770
G1 X100.719 Y129.450 E0.01118
G1 X100.507 Y129.224 E0.00968
G1 X100.361 Y128.958 E0.00954
G1 X100.285 Y128.663 E0.00954
G1 X100.285 Y128.359 E0.00954
G1 X100.361 Y128.065 E0.00954
G1 X100.507 Y127.798 E0.00954
G1 X100.715 Y127.576 E0.00954
G1 X100.972 Y127.414 E0.00954
G1 X101.261 Y127.320 E0.00954
G1 X101.506 Y127.304 E0.00770
G1 X101.859 Y127.355 E0.01118
G1 X102.139 Y127.487 E0.00968
G1 X102.373 Y127.681 E0.00954
G1 X102.552 Y127.927 E0.00954
G1 X102.664 Y128.210 E0.00954
G1 X102.693 Y128.440 E0.00727
G1 X102.975 Y128.655 F10800.000
;WIPE_START
G1 F8640.000
G1 X102.664 Y128.813 E-0.08651
G1 X102.552 Y129.096 E-0.07022
G1 X102.373 Y129.342 E-0.07022
G1 X102.139 Y129.536 E-0.07022
G1 X101.864 Y129.665 E-0.07022
G1 X101.565 Y129.722 E-0.07022
G1 X101.261 Y129.703 E-0.07022
G1 X101.028 Y129.627 E-0.05669
G1 X100.719 Y129.450 E-0.08235
G1 X100.507 Y129.224 E-0.07131
G1 X100.420 Y129.066 E-0.04180
;WIPE_END
G1 E-0.04000 F2100.000
G1 Z0.600 F10800.000
G1 X101.489 Y83.082
G1 Z0.200
G1 E0.80000 F2100.000
;TYPE:Perimeter
G1 F1200.000
G1 X101.092 Y83.032 E0.01252
G1 X100.721 Y82.885 E0.01252
G1 X100.398 Y82.650 E0.01252
G1 X100.143 Y82.342 E0.01252
G1 X99.973 Y81.981 E0.01252
G1 X99.899 Y81.589 E0.01252
G1 X99.924 Y81.190 E0.01252
G1 X100.026 Y80.874 E0.01042
G1 X100.251 Y80.482 E0.01417
G1 X100.552 Y80.200 E0.01294
G1 X100.902 Y80.007 E0.01252
G1 X101.289 Y79.908 E0.01252
G1 X101.688 Y79.908 E0.01252
G1 X102.075 Y80.007 E0.01252
G1 X102.425 Y80.200 E0.01252
G1 X102.668 Y80.427 E0.01042
G1 X102.926 Y80.798 E0.01417
G1 X103.054 Y81.190 E0.01294
G1 X103.079 Y81.589 E0.01252
G1 X103.004 Y81.981 E0.01252
G1 X102.834 Y82.342 E0.01252
G1 X102.579 Y82.650 E0.01252
G1 X102.256 Y82.885 E0.01252
G1 X101.885 Y83.032 E0.01252
G1 X101.548 Y83.075 E0.01064
G1 X101.501 Y82.700 F10800.000
;TYPE:External perimeter
G1 F1200.000
G1 X101.187 Y82.664 E0.00991
G1 X100.904 Y82.552 E0.00954
G1 X100.658 Y82.373 E0.00954
G1 X100.464 Y82.139 E0.00954
G1 X100.335 Y81.864 E0.00954
G1 X100.278 Y81.565 E0.00954
G1 X100.297 Y81.261 E0.00954
G1 X100.373 Y81.028 E0.00770
G1 X100.550 Y80.719 E0.01118
G1 X100.776 Y80.507 E0.00968
G1 X101.042 Y80.361 E0.00954
G1 X101.337 Y80.285 E0.00954
G1 X101.641 Y80.285 E0.00954
G1 X101.935 Y80.361 E0.00954
G1 X102.202 Y80.507 E0.00954
G1 X102.381 Y80.675 E0.00770
G1 X102.585 Y80.968 E0.01118
G1 X102.680 Y81.261 E0.00968
G1 X102.700 Y81.565 E0.00954
G1 X102.643 Y81.864 E0.00954
G1 X102.513 Y82.139 E0.00954
G1 X102.319 Y82.373 E0.00954
G1 X102.073 Y82.552 E0.00954
G1 X101.790 Y82.664 E0.00954
G1 X101.560 Y82.693 E0.00727
G1 X101.345 Y82.975 F10800.000
;WIPE_START
G1 F8640.000
G1 X101.187 Y82.664 E-0.08651
G1 X100.904 Y82.552 E-0.07022
G1 X100.658 Y82.373 E-0.07022
G1 X100.464 Y82.139 E-0.07022
G1 X100.335 Y81.864 E-0.07022
G1 X100.278 Y81.565 E-0.07022
G1 X100.297 Y81.261 E-0.07022
G1 X100.373 Y81.028 E-0.05669
G1 X100.550 Y80.719 E-0.08235
G1 X100.776 Y80.507 E-0.07131
G1 X100.934 Y80.420 E-0.04180
;WIPE_END
G1 E-0.04000 F2100.000
G1 Z0.600 F10800.000
G1 X146.918 Y81.489
G1 Z0.200
G1 E0.80000 F2100.000
;TYPE:Perimeter
G1 F1200.000
G1 X146.968 Y81.092 E0.01252
G1 X147.120 Y80.709 E0.01294
G1 X147.401 Y80.355 E0.01417
G1 X147.658 Y80.143 E0.01042
G1 X148.019 Y79.973 E0.01252
G1 X148.411 Y79.899 E0.01252
G1 X148.810 Y79.924 E0.01252
G1 X149.190 Y80.047 E0.01252
G1 X149.527 Y80.261 E0.01252
G1 X149.800 Y80.552 E0.01252
G1 X149.993 Y80.902 E0.01252
G1 X150.092 Y81.289 E0.01252
G1 X150.092 Y81.702 E0.01294
G1 X149.960 Y82.134 E0.01417
G1 X149.800 Y82.425 E0.01042
G1 X149.527 Y82.716 E0.01252
G1 X149.190 Y82.930 E0.01252
G1 X148.810 Y83.054 E0.01252
G1 X148.411 Y83.079 E0.01252
G1 X148.019 Y83.004 E0.01252
G1 X147.658 Y82.834 E0.01252
G1 X147.350 Y82.579 E0.01252
G1 X147.115 Y82.256 E0.01252
G1 X146.968 Y81.885 E0.01252
G1 X146.925 Y81.548 E0.01064
G1 X147.300 Y81.501 F10800.000
;TYPE:External perimeter
G1 F1200.000
G1 X147.336 Y81.187 E0.00991
G1 X147.450 Y80.900 E0.00968
G1 X147.672 Y80.621 E0.01118
G1 X147.861 Y80.464 E0.00770
G1 X148.136 Y80.335 E0.00954
G1 X148.435 Y80.278 E0.00954
G1 X148.739 Y80.297 E0.00954
G1 X149.028 Y80.391 E0.00954
G1 X149.285 Y80.554 E0.00954
G1 X149.493 Y80.776 E0.00954
G1 X149.639 Y81.042 E0.00954
G1 X149.715 Y81.337 E0.00954
G1 X149.715 Y81.645 E0.00968
G1 X149.611 Y81.987 E0.01118
G1 X149.493 Y82.202 E0.00770
G1 X149.285 Y82.424 E0.00954
G1 X149.028 Y82.586 E0.00954
G1 X148.739 Y82.680 E0.00954
G1 X148.435 Y82.700 E0.00954
G1 X148.136 Y82.643 E0.00954
G1 X147.861 Y82.513 E0.00954
G1 X147.627 Y82.319 E0.00954
G1 X147.448 Y82.073 E0.00954
G1 X147.336 Y81.790 E0.00954
G1 X147.307 Y81.560 E0.00727
G1 X147.025 Y81.345 F10800.000
;WIPE_START
G1 F8640.000
G1 X147.336 Y81.187 E-0.08651
G1 X147.450 Y80.900 E-0.07131
G1 X147.672 Y80.621 E-0.08236
G1 X147.861 Y80.464 E-0.05669
G1 X148.136 Y80.335 E-0.07022
G1 X148.435 Y80.278 E-0.07022
G1 X148.739 Y80.297 E-0.07022
G1 X149.028 Y80.391 E-0.07022
G1 X149.285 Y80.554 E-0.07022
G1 X149.493 Y80.776 E-0.07022
G1 X149.580 Y80.934 E-0.04180
;WIPE_END
G1 E-0.04000 F2100.000
G1 Z0.600 F10800.000
G1 X108.620 Y82.662
G1 Z0.200
G1 E0.80000 F2100.000
;TYPE:Perimeter
G1 F1200.000
G1 X109.258 Y82.192 E0.02485
G1 X110.706 Y81.258 E0.05402
G1 X112.220 Y80.410 E0.05441
G1 X113.752 Y79.673 E0.05332
G1 X115.347 Y79.023 E0.05398
G1 X116.978 Y78.474 E0.05397
G1 X118.641 Y78.027 E0.05397
G1 X120.327 Y77.684 E0.05397
G1 X122.051 Y77.445 E0.05455
G1 X123.767 Y77.315 E0.05397
G1 X125.470 Y77.292 E0.05339
G1 X127.208 Y77.376 E0.05455
G1 X128.919 Y77.566 E0.05397
G1 X130.614 Y77.862 E0.05398
G1 X132.271 Y78.258 E0.05339
G1 X133.934 Y78.767 E0.05456
G1 X135.546 Y79.373 E0.05397
G1 X137.100 Y80.069 E0.05339
G1 X138.641 Y80.877 E0.05456
G1 X140.112 Y81.771 E0.05397
G1 X141.386 Y82.656 E0.04864
M73 Q2 S30
G1 X145.518 Y78.524 E0.18322
G1 X145.861 Y78.215 E0.01447
G1 X146.217 Y77.956 E0.01382
G1 X146.599 Y77.736 E0.01382
G1 X147.002 Y77.557 E0.01382
G1 X147.421 Y77.420 E0.01382
G1 X147.852 Y77.329 E0.01382
G1 X148.291 Y77.283 E0.01382
G1 X148.732 Y77.283 E0.01382
G1 X149.170 Y77.329 E0.01382
G1 X149.571 Y77.414 E0.01284
G1 X150.022 Y77.557 E0.01486
M73 P2 R30
G1 X150.423 Y77.736 E0.01376
G1 X150.805 Y77.956 E0.01382
G1 X151.162 Y78.215 E0.01382
G1 X151.490 Y78.510 E0.01382
G1 X151.785 Y78.838 E0.01382
G1 X152.044 Y79.195 E0.01382
G1 X152.264 Y79.577 E0.01382
G1 X152.443 Y79.979 E0.01382
G1 X152.580 Y80.399 E0.01382
G1 X152.671 Y80.830 E0.01382
G1 X152.717 Y81.268 E0.01382
G1 X152.717 Y81.709 E0.01382
G1 X152.671 Y82.148 E0.01382
G1 X152.580 Y82.579 E0.01382
G1 X152.443 Y82.998 E0.01382
G1 X152.264 Y83.401 E0.01382
G1 X152.044 Y83.783 E0.01382
G1 X151.785 Y84.139 E0.01382
G1 X151.476 Y84.482 E0.01447
G1 X147.355 Y88.603 E0.18270
G1 X148.492 Y90.300 E0.06404
G1 X149.350 Y91.771 E0.05340
G1 X150.125 Y93.308 E0.05398
G1 X150.809 Y94.908 E0.05455
G1 X151.380 Y96.512 E0.05339
G1 X151.861 Y98.184 E0.05456
G1 X152.233 Y99.865 E0.05398
G1 X152.499 Y101.566 E0.05397
G1 X152.659 Y103.280 E0.05397
G1 X152.713 Y105.000 E0.05397
G1 X152.659 Y106.721 E0.05398
G1 X152.499 Y108.434 E0.05397
G1 X152.233 Y110.135 E0.05397
G1 X151.856 Y111.834 E0.05457
G1 X151.386 Y113.471 E0.05340
G1 X150.809 Y115.093 E0.05397
