; generated by PrusaSlicer 2.2.0+ on 2020-11-25 at 16:41:43 UTC

; 

; external perimeters extrusion width = 0.45mm
; perimeters extrusion width = 0.45mm
; infill extrusion width = 0.45mm
; solid infill extrusion width = 0.45mm
; top infill extrusion width = 0.40mm
; first layer extrusion width = 0.42mm

M73 P0 R15
M73 Q0 S15
M201 X1000 Y1000 Z200 E5000 ; sets maximum accelerations, mm/sec^2
M203 X200 Y200 Z12 E120 ; sets maximum feedrates, mm/sec
M204 P1250 R1250 T1250 ; sets acceleration (P, T) and retract acceleration (R), mm/sec^2
M205 X8.00 Y8.00 Z0.40 E4.50 ; sets the jerk limits, mm/sec
M205 S0 T0 ; sets the minimum extruding and travel feed rate, mm/sec
M107
M862.3 P "MK3S" ; printer model check
M862.1 P0.4 ; nozzle diameter check
M115 U3.9.1 ; tell printer latest fw version
G90 ; use absolute coordinates
M83 ; extruder relative mode
M104 S215 ; set extruder temp
M140 S60 ; set bed temp
M190 S60 ; wait for bed temp
M109 S215 ; wait for extruder temp
G28 W ; home all without mesh bed level
G80 ; mesh bed leveling
G1 Y-3.0 F1000.0 ; go outside print area
G92 E0.0
G1 X60.0 E9.0 F1000.0 ; intro line
M73 Q0 S15
M73 P0 R14
G1 X100.0 E12.5 F1000.0 ; intro line
G92 E0.0
M221 S95

; Don't change E values below. Excessive value can damage the printer.

M907 E538 ; set extruder motor current
G21 ; set units to millimeters
G90 ; use absolute coordinates
M83 ; use relative distances for extrusion
M900 K0.05 ; Filament gcode LA 1.5
M900 K30 ; Filament gcode LA 1.0
;BEFORE_LAYER_CHANGE
G92 E0.0
;0.2


G1 E-0.80000 F2100.00000
G1 Z0.600 F10800.000
;AFTER_LAYER_CHANGE
;0.2
G1 X74.693 Y90.514
G1 Z0.200
G1 E0.80000 F2100.00000
M204 S1000
G1 F1200.000
G1 X75.359 Y90.211 E0.02296
G1 X76.000 Y90.123 E0.02027
G1 X174.004 Y90.123 E3.07284
G1 X174.902 Y90.301 E0.02872
G1 X175.664 Y90.803 E0.02860
G1 X176.181 Y91.555 E0.02860
G1 X176.377 Y92.449 E0.02872
G1 X176.372 Y117.652 E0.79022
G1 X176.213 Y118.367 E0.02296
G1 X175.847 Y118.997 E0.02284
G1 X175.307 Y119.486 E0.02284
G1 X174.641 Y119.789 E0.02296
G1 X174.000 Y119.877 E0.02027
G1 X75.962 Y119.877 E3.07392
G1 X75.215 Y119.744 E0.02378
G1 X74.548 Y119.382 E0.02378
G1 X74.029 Y118.829 E0.02378
G1 X73.711 Y118.141 E0.02378
G1 X73.623 Y117.509 E0.02000
G1 X73.627 Y92.359 E0.78855
G1 X73.783 Y91.644 E0.02296
G1 X74.148 Y91.009 E0.02296
G1 X74.649 Y90.555 E0.02119
G1 F8640.000
G1 X75.359 Y90.211 E-0.18231
G1 X76.000 Y90.123 E-0.14930
G1 X77.855 Y90.123 E-0.42839
G1 E-0.04000 F2100.00000
G1 Z0.800 F10800.000
G1 X77.590 Y93.390
G1 Z0.200
G1 E0.80000 F2100.00000
G1 F1200.000
G1 X172.410 Y93.390 E2.97301
G1 X172.410 Y116.610 E0.72805
G1 X77.590 Y116.610 E2.97301
G1 X77.590 Y93.450 E0.72617
G1 X77.418 Y93.029 F10800.000
G1 X77.213 Y93.450
G1 F1200.000
G1 X77.213 Y116.713 E0.72939
G1 X76.787 Y116.713 E0.01335
G1 X76.787 Y93.287 E0.73450
G1 X77.213 Y93.287 E0.01335
G1 X77.213 Y93.390 E0.00323
G1 F8640.000
G1 X77.213 Y96.681 E-0.76000
G1 E-0.04000 F2100.00000
G1 Z0.800 F10800.000
G1 X172.787 Y93.390
G1 Z0.200
G1 E0.80000 F2100.00000
G1 F1200.000
G1 X172.787 Y93.287 E0.00323
G1 X173.213 Y93.287 E0.01335
G1 X173.213 Y116.713 E0.73450
G1 X172.787 Y116.713 E0.01335
G1 X172.787 Y93.450 E0.72939
G1 X173.590 Y92.910 F10800.000
G1 F1200.000
G1 X173.590 Y117.090 E0.75815
G1 X76.410 Y117.090 E3.04701
G1 X76.410 Y92.910 E0.75815
G1 X173.530 Y92.910 E3.04513
G1 X173.419 Y93.272 F10800.000
G1 X172.599 Y93.150
G1 F1200.000
G1 X77.401 Y93.150 E0.81470
G1 F8640.000
G1 X80.693 Y93.150 E-0.76000
G1 E-0.04000 F2100.00000
G1 Z0.800 F10800.000
G1 X77.401 Y116.850
G1 Z0.200
G1 E0.80000 F2100.00000
G1 F1200.000
G1 X172.599 Y116.850 E0.81470
M106 S255
;BEFORE_LAYER_CHANGE
G92 E0.0
;0.35


G1 F8640.000
G1 X169.307 Y116.850 E-0.76000
G1 E-0.04000 F2100.00000
G1 Z0.800 F10800.000
;AFTER_LAYER_CHANGE
;0.35
G1 X175.307 Y119.486
G1 Z0.350
G1 E0.80000 F2100.00000
G1 F3000.000
G1 X174.641 Y119.789 E0.01771
G1 X174.000 Y119.877 E0.01564
G1 X75.962 Y119.877 E2.37104
M73 Q7 S14
G1 X75.215 Y119.744 E0.01835
G1 X74.548 Y119.382 E0.01835
G1 X74.029 Y118.829 E0.01835
G1 X73.711 Y118.141 E0.01835
G1 X73.623 Y117.509 E0.01543
G1 X73.627 Y92.359 E0.60824
M73 P7 R13
G1 X73.783 Y91.644 E0.01771
G1 X74.148 Y91.009 E0.01771
G1 X74.693 Y90.514 E0.01780
G1 X75.359 Y90.211 E0.01771
G1 X76.000 Y90.123 E0.01564
G1 X174.004 Y90.123 E2.37021
G1 X174.902 Y90.301 E0.02215
G1 X175.664 Y90.803 E0.02206
G1 X176.181 Y91.555 E0.02206
G1 X176.377 Y92.449 E0.02215
G1 X176.372 Y117.652 E0.60953
G1 X176.213 Y118.367 E0.01771
G1 X175.847 Y118.997 E0.01762
G1 X175.351 Y119.445 E0.01617
G1 F8640.000
G1 X174.641 Y119.789 E-0.18232
G1 X174.000 Y119.877 E-0.14930
G1 X172.145 Y119.877 E-0.42838
G1 E-0.04000 F2100.00000
G1 Z0.950 F10800.000
G1 X172.643 Y116.843
G1 Z0.350
G1 E0.80000 F2100.00000
M204 S800
G1 F3600.000
G1 X77.357 Y116.843 E2.48274
G1 X77.357 Y93.157 E0.61715
G1 X172.643 Y93.157 E2.48274
G1 X172.643 Y116.783 E0.61558
M204 S1000
G1 X172.225 Y116.425 F10800.000
M204 S800
G1 F2100.000
G1 X77.775 Y116.425 E2.46097
G1 X77.775 Y93.575 E0.59537
G1 X172.225 Y93.575 E2.46097
G1 X172.225 Y116.365 E0.59381
M204 S1000
G1 X172.397 Y116.786 F10800.000
G1 F8640.000
G1 X168.934 Y116.367 E-0.76000
G1 E-0.04000 F2100.00000
G1 Z0.950 F10800.000
G1 X173.357 Y116.857
G1 Z0.350
G1 E0.80000 F2100.00000
M204 S800
G1 F3600.000
G1 X76.643 Y116.857 E2.51997
G1 X76.643 Y93.143 E0.61790
G1 X173.357 Y93.143 E2.51997
G1 X173.357 Y116.797 E0.61633
M204 S1000
G1 X173.775 Y117.275 F10800.000
M204 S800
G1 F2100.000
G1 X76.225 Y117.275 E2.54174
G1 X76.225 Y92.725 E0.63967
G1 X173.775 Y92.725 E2.54174
G1 X173.775 Y117.215 E0.63811
M204 S1000
G1 X173.376 Y117.242 F10800.000
G1 X173.000 Y116.648
G1 F2400.000
G1 X173.000 Y93.352 E0.43087
G1 F8640.000
G1 X173.000 Y96.643 E-0.76000
G1 E-0.04000 F2100.00000
G1 Z0.950 F10800.000
G1 X77.000 Y93.352
G1 Z0.350
G1 E0.80000 F2100.00000
G1 F2400.000
G1 X77.000 Y116.648 E0.43087
;BEFORE_LAYER_CHANGE
G92 E0.0
;0.5


G1 F8640.000
G1 X77.000 Y113.357 E-0.76000
G1 E-0.04000 F2100.00000
G1 Z0.950 F10800.000
;AFTER_LAYER_CHANGE
;0.5
G1 X74.029 Y118.829
G1 Z0.500
G1 E0.80000 F2100.00000
G1 F3000.000
G1 X73.711 Y118.141 E0.01835
G1 X73.623 Y117.509 E0.01543
G1 X73.627 Y92.359 E0.60824
G1 X73.783 Y91.644 E0.01771
G1 X74.148 Y91.009 E0.01771
G1 X74.693 Y90.514 E0.01780
G1 X75.359 Y90.211 E0.01771
G1 X76.000 Y90.123 E0.01564
G1 X174.004 Y90.123 E2.37021
G1 X174.902 Y90.301 E0.02215
G1 X175.664 Y90.803 E0.02206
G1 X176.181 Y91.555 E0.02206
G1 X176.377 Y92.449 E0.02215
G1 X176.372 Y117.652 E0.60953
G1 X176.213 Y118.367 E0.01771
G1 X175.847 Y118.997 E0.01762
G1 X175.307 Y119.486 E0.01762
G1 X174.641 Y119.789 E0.01771
G1 X174.000 Y119.877 E0.01564
G1 X75.962 Y119.877 E2.37104
G1 X75.215 Y119.744 E0.01835
G1 X74.548 Y119.382 E0.01835
G1 X74.070 Y118.873 E0.01689
G1 F8640.000
G1 X73.711 Y118.141 E-0.18835
G1 X73.623 Y117.509 E-0.14731
G1 X73.623 Y115.671 E-0.42434
G1 E-0.04000 F2100.00000
G1 Z1.100 F10800.000
G1 X77.357 Y116.843
G1 Z0.500
G1 E0.80000 F2100.00000
M204 S800
G1 F3600.000
G1 X77.357 Y93.157 E0.61715
G1 X172.643 Y93.157 E2.48274
G1 X172.643 Y116.843 E0.61715
G1 X77.417 Y116.843 E2.48118
M204 S1000
G1 X77.775 Y116.425 F10800.000
M204 S800
G1 F2100.000
G1 X77.775 Y93.575 E0.59537
G1 X172.225 Y93.575 E2.46097
G1 X172.225 Y116.425 E0.59537
G1 X77.835 Y116.425 E2.45940
M204 S1000
G1 X77.376 Y116.457 F10800.000
G1 F8640.000
G1 X77.826 Y113.134 E-0.76000
G1 E-0.04000 F2100.00000
G1 Z1.100 F10800.000
G1 X76.643 Y116.857
G1 Z0.500
G1 E0.80000 F2100.00000
M204 S800
G1 F3600.000
G1 X76.643 Y93.143 E0.61790
G1 X173.357 Y93.143 E2.51997
G1 X173.357 Y116.857 E0.61790
G1 X76.703 Y116.857 E2.51840
M204 S1000
G1 X76.225 Y117.275 F10800.000
M204 S800
G1 F2100.000
G1 X76.225 Y92.725 E0.63967
G1 X173.775 Y92.725 E2.54174
G1 X173.775 Y117.275 E0.63967
G1 X76.285 Y117.275 E2.54018
M204 S1000
G1 X76.396 Y116.913 F10800.000
G1 X77.000 Y116.648
G1 F2400.000
G1 X77.000 Y93.352 E0.43087
G1 F8640.000
G1 X77.000 Y96.643 E-0.76000
G1 E-0.04000 F2100.00000
G1 Z1.100 F10800.000
G1 X173.000 Y93.352
G1 Z0.500
G1 E0.80000 F2100.00000
M73 Q14 S13
G1 F2400.000
G1 X173.000 Y116.648 E0.43087
;BEFORE_LAYER_CHANGE
G92 E0.0
;0.65


G1 F8640.000
G1 X173.000 Y113.357 E-0.76000
G1 E-0.04000 F2100.00000
G1 Z1.100 F10800.000
;AFTER_LAYER_CHANGE
;0.65
G1 X77.357 Y93.157
G1 Z0.650
G1 E0.80000 F2100.00000
M73 P14 R12
M204 S800
G1 F3600.000
G1 X172.643 Y93.157 E2.48274
G1 X172.643 Y116.843 E0.61715
G1 X77.357 Y116.843 E2.48274
G1 X77.357 Y93.217 E0.61558
M204 S1000
G1 X77.775 Y93.575 F10800.000
M204 S800
G1 F2100.000
G1 X172.225 Y93.575 E2.46097
G1 X172.225 Y116.425 E0.59537
G1 X77.775 Y116.425 E2.46097
G1 X77.775 Y93.635 E0.59381
M204 S1000
G1 X77.603 Y93.214 F10800.000
G1 F8640.000
G1 X81.066 Y93.633 E-0.76000
G1 E-0.04000 F2100.00000
G1 Z1.250 F10800.000
G1 X76.643 Y93.143
G1 Z0.650
G1 E0.80000 F2100.00000
M204 S800
G1 F3600.000
G1 X173.357 Y93.143 E2.51997
G1 X173.357 Y116.857 E0.61790
G1 X76.643 Y116.857 E2.51997
G1 X76.643 Y93.203 E0.61633
M204 S1000
G1 X76.225 Y92.725 F10800.000
M204 S800
G1 F2100.000
G1 X173.775 Y92.725 E2.54174
G1 X173.775 Y117.275 E0.63967
G1 X76.225 Y117.275 E2.54174
G1 X76.225 Y92.785 E0.63811
M204 S1000
G1 X76.624 Y92.758 F10800.000
G1 X77.000 Y93.352
G1 F2400.000
G1 X77.000 Y116.648 E0.43087
G1 F8640.000
G1 X77.000 Y113.357 E-0.76000
G1 E-0.04000 F2100.00000
G1 Z1.250 F10800.000
G1 X173.000 Y116.648
G1 Z0.650
G1 E0.80000 F2100.00000
G1 F2400.000
G1 X173.000 Y93.352 E0.43087
;BEFORE_LAYER_CHANGE
G92 E0.0
;0.8


G1 F8640.000
G1 X173.000 Y96.643 E-0.76000
G1 E-0.04000 F2100.00000
G1 Z1.250 F10800.000
;AFTER_LAYER_CHANGE
;0.8
G1 X77.357 Y93.157
G1 Z0.800
G1 E0.80000 F2100.00000
M204 S800
G1 F3600.000
G1 X172.643 Y93.157 E2.48274
G1 X172.643 Y116.843 E0.61715
G1 X77.357 Y116.843 E2.48274
G1 X77.357 Y93.217 E0.61558
M204 S1000
G1 X77.775 Y93.575 F10800.000
M204 S800
G1 F2100.000
G1 X172.225 Y93.575 E2.46097
G1 X172.225 Y116.425 E0.59537
G1 X77.775 Y116.425 E2.46097
G1 X77.775 Y93.635 E0.59381
M204 S1000
G1 X77.603 Y93.214 F10800.000
G1 F8640.000
G1 X81.066 Y93.633 E-0.76000
G1 E-0.04000 F2100.00000
G1 Z1.400 F10800.000
G1 X76.643 Y93.143
G1 Z0.800
G1 E0.80000 F2100.00000
M204 S800
G1 F3600.000
G1 X173.357 Y93.143 E2.51997
G1 X173.357 Y116.857 E0.61790
G1 X76.643 Y116.857 E2.51997
G1 X76.643 Y93.203 E0.61633
M204 S1000
G1 X76.225 Y92.725 F10800.000
M204 S800
G1 F2100.000
G1 X173.775 Y92.725 E2.54174
G1 X173.775 Y117.275 E0.63967
G1 X76.225 Y117.275 E2.54174
G1 X76.225 Y92.785 E0.63811
M204 S1000
G1 X76.624 Y92.758 F10800.000
G1 X77.000 Y93.352
G1 F2400.000
G1 X77.000 Y116.648 E0.43087
G1 F8640.000
G1 X77.000 Y113.357 E-0.76000
G1 E-0.04000 F2100.00000
G1 Z1.400 F10800.000
G1 X173.000 Y116.648
G1 Z0.800
G1 E0.80000 F2100.00000
G1 F2400.000
G1 X173.000 Y93.352 E0.43087
;BEFORE_LAYER_CHANGE
G92 E0.0
;0.95


G1 F8640.000
G1 X173.000 Y96.643 E-0.76000
G1 E-0.04000 F2100.00000
G1 Z1.400 F10800.000
;AFTER_LAYER_CHANGE
;0.95
G1 X77.357 Y93.157
G1 Z0.950
G1 E0.80000 F2100.00000
M204 S800
G1 F3600.000
G1 X172.643 Y93.157 E2.48274
G1 X172.643 Y116.843 E0.61715
G1 X77.357 Y116.843 E2.48274
G1 X77.357 Y93.217 E0.61558
M73 Q20 S12
M204 S1000
G1 X77.775 Y93.575 F10800.000
M204 S800
G1 F2100.000
G1 X172.225 Y93.575 E2.46097
G1 X172.225 Y116.425 E0.59537
M73 P21 R11
G1 X77.775 Y116.425 E2.46097
G1 X77.775 Y93.635 E0.59381
M204 S1000
G1 X77.603 Y93.214 F10800.000
G1 F8640.000
G1 X81.066 Y93.633 E-0.76000
G1 E-0.04000 F2100.00000
G1 Z1.550 F10800.000
G1 X76.643 Y93.143
G1 Z0.950
G1 E0.80000 F2100.00000
M204 S800
G1 F3600.000
G1 X173.357 Y93.143 E2.51997
G1 X173.357 Y116.857 E0.61790
G1 X76.643 Y116.857 E2.51997
G1 X76.643 Y93.203 E0.61633
M204 S1000
G1 X76.225 Y92.725 F10800.000
M204 S800
G1 F2100.000
G1 X173.775 Y92.725 E2.54174
G1 X173.775 Y117.275 E0.63967
G1 X76.225 Y117.275 E2.54174
G1 X76.225 Y92.785 E0.63811
M204 S1000
G1 X76.624 Y92.758 F10800.000
G1 X77.000 Y93.352
G1 F2400.000
G1 X77.000 Y116.648 E0.43087
G1 F8640.000
G1 X77.000 Y113.357 E-0.76000
G1 E-0.04000 F2100.00000
G1 Z1.550 F10800.000
G1 X173.000 Y116.648
G1 Z0.950
G1 E0.80000 F2100.00000
G1 F2400.000
G1 X173.000 Y93.352 E0.43087
;BEFORE_LAYER_CHANGE
G92 E0.0
;1.1


G1 F8640.000
G1 X173.000 Y96.643 E-0.76000
G1 E-0.04000 F2100.00000
G1 Z1.550 F10800.000
;AFTER_LAYER_CHANGE
;1.1
G1 X77.357 Y93.157
G1 Z1.100
G1 E0.80000 F2100.00000
M204 S800
G1 F3600.000
G1 X172.643 Y93.157 E2.48274
G1 X172.643 Y116.843 E0.61715
G1 X77.357 Y116.843 E2.48274
G1 X77.357 Y93.217 E0.61558
M204 S1000
G1 X77.775 Y93.575 F10800.000
M204 S800
G1 F2100.000
G1 X172.225 Y93.575 E2.46097
G1 X172.225 Y116.425 E0.59537
G1 X77.775 Y116.425 E2.46097
G1 X77.775 Y93.635 E0.59381
M204 S1000
G1 X77.603 Y93.214 F10800.000
G1 F8640.000
G1 X81.066 Y93.633 E-0.76000
G1 E-0.04000 F2100.00000
G1 Z1.700 F10800.000
G1 X76.643 Y93.143
G1 Z1.100
G1 E0.80000 F2100.00000
M204 S800
G1 F3600.000
G1 X173.357 Y93.143 E2.51997
G1 X173.357 Y116.857 E0.61790
G1 X76.643 Y116.857 E2.51997
G1 X76.643 Y93.203 E0.61633
M204 S1000
G1 X76.225 Y92.725 F10800.000
M204 S800
G1 F2100.000
G1 X173.775 Y92.725 E2.54174
G1 X173.775 Y117.275 E0.63967
G1 X76.225 Y117.275 E2.54174
G1 X76.225 Y92.785 E0.63811
M204 S1000
G1 X76.624 Y92.758 F10800.000
G1 X77.000 Y93.352
G1 F2400.000
G1 X77.000 Y116.648 E0.43087
G1 F8640.000
G1 X77.000 Y113.357 E-0.76000
G1 E-0.04000 F2100.00000
G1 Z1.700 F10800.000
G1 X173.000 Y116.648
G1 Z1.100
G1 E0.80000 F2100.00000
G1 F2400.000
G1 X173.000 Y93.352 E0.43087
;BEFORE_LAYER_CHANGE
G92 E0.0
;1.25


G1 F8640.000
G1 X173.000 Y96.643 E-0.76000
G1 E-0.04000 F2100.00000
G1 Z1.700 F10800.000
;AFTER_LAYER_CHANGE
;1.25
G1 X77.357 Y93.157
G1 Z1.250
G1 E0.80000 F2100.00000
M204 S800
G1 F3600.000
G1 X172.643 Y93.157 E2.48274
G1 X172.643 Y116.843 E0.61715
G1 X77.357 Y116.843 E2.48274
G1 X77.357 Y93.217 E0.61558
M204 S1000
G1 X77.775 Y93.575 F10800.000
M204 S800
G1 F2100.000
G1 X172.225 Y93.575 E2.46097
G1 X172.225 Y116.425 E0.59537
G1 X77.775 Y116.425 E2.46097
G1 X77.775 Y93.635 E0.59381
M73 Q27 S11
M204 S1000
G1 X77.603 Y93.214 F10800.000
G1 F8640.000
G1 X81.066 Y93.633 E-0.76000
G1 E-0.04000 F2100.00000
G1 Z1.850 F10800.000
G1 X76.643 Y93.143
G1 Z1.250
G1 E0.80000 F2100.00000
M204 S800
G1 F3600.000
G1 X173.357 Y93.143 E2.51997
G1 X173.357 Y116.857 E0.61790
G1 X76.643 Y116.857 E2.51997
M73 P28 R10
G1 X76.643 Y93.203 E0.61633
M204 S1000
G1 X76.225 Y92.725 F10800.000
M204 S800
G1 F2100.000
G1 X173.775 Y92.725 E2.54174
G1 X173.775 Y117.275 E0.63967
G1 X76.225 Y117.275 E2.54174
G1 X76.225 Y92.785 E0.63811
M204 S1000
G1 X76.624 Y92.758 F10800.000
G1 X77.000 Y93.352
G1 F2400.000
G1 X77.000 Y116.648 E0.43087
G1 F8640.000
G1 X77.000 Y113.357 E-0.76000
G1 E-0.04000 F2100.00000
G1 Z1.850 F10800.000
G1 X173.000 Y116.648
G1 Z1.250
G1 E0.80000 F2100.00000
G1 F2400.000
G1 X173.000 Y93.352 E0.43087
;BEFORE_LAYER_CHANGE
G92 E0.0
;1.4


G1 F8640.000
G1 X173.000 Y96.643 E-0.76000
G1 E-0.04000 F2100.00000
G1 Z1.850 F10800.000
;AFTER_LAYER_CHANGE
;1.4
G1 X77.357 Y93.157
G1 Z1.400
G1 E0.80000 F2100.00000
M204 S800
G1 F3600.000
G1 X172.643 Y93.157 E2.48274
G1 X172.643 Y116.843 E0.61715
G1 X77.357 Y116.843 E2.48274
G1 X77.357 Y93.217 E0.61558
M204 S1000
G1 X77.775 Y93.575 F10800.000
M204 S800
G1 F2100.000
G1 X172.225 Y93.575 E2.46097
G1 X172.225 Y116.425 E0.59537
G1 X77.775 Y116.425 E2.46097
G1 X77.775 Y93.635 E0.59381
M204 S1000
G1 X77.603 Y93.214 F10800.000
G1 F8640.000
G1 X81.066 Y93.633 E-0.76000
G1 E-0.04000 F2100.00000
G1 Z2.000 F10800.000
G1 X76.643 Y93.143
G1 Z1.400
G1 E0.80000 F2100.00000
M204 S800
G1 F3600.000
G1 X173.357 Y93.143 E2.51997
G1 X173.357 Y116.857 E0.61790
G1 X76.643 Y116.857 E2.51997
G1 X76.643 Y93.203 E0.61633
M204 S1000
G1 X76.225 Y92.725 F10800.000
M204 S800
G1 F2100.000
G1 X173.775 Y92.725 E2.54174
G1 X173.775 Y117.275 E0.63967
G1 X76.225 Y117.275 E2.54174
G1 X76.225 Y92.785 E0.63811
M204 S1000
G1 X76.624 Y92.758 F10800.000
G1 X77.000 Y93.352
G1 F2400.000
G1 X77.000 Y116.648 E0.43087
G1 F8640.000
G1 X77.000 Y113.357 E-0.76000
G1 E-0.04000 F2100.00000
G1 Z2.000 F10800.000
G1 X173.000 Y116.648
G1 Z1.400
G1 E0.80000 F2100.00000
G1 F2400.000
