; generated by PrusaSlicer 2.2.0+ on 2020-11-25 at 16:42:43 UTC

; 

; external perimeters extrusion width = 0.45mm
; perimeters extrusion width = 0.45mm
; infill extrusion width = 0.45mm
; solid infill extrusion width = 0.45mm
; top infill extrusion width = 0.40mm
; first layer extrusion width = 0.42mm

M73 P0 R8
M73 Q0 S8
M201 X1000 Y1000 Z200 E5000 ; sets maximum accelerations, mm/sec^2
M203 X200 Y200 Z12 E120 ; sets maximum feedrates, mm/sec
M204 P1250 R1250 T1250 ; sets acceleration (P, T) and retract acceleration (R), mm/sec^2
M205 X8.00 Y8.00 Z0.40 E4.50 ; sets the jerk limits, mm/sec
M205 S0 T0 ; sets the minimum extruding and travel feed rate, mm/sec
M107
M862.3 P "MK3S" ; printer model check
M862.1 P0.4 ; nozzle diameter check
M115 U3.9.1 ; tell printer latest fw version
G90 ; use absolute coordinates
M83 ; extruder relative mode
M104 S215 ; set extruder temp
M140 S60 ; set bed temp
M190 S60 ; wait for bed temp
M109 S215 ; wait for extruder temp
G28 W ; home all without mesh bed level
G80 ; mesh bed leveling
G1 Y-3.0 F1000.0 ; go outside print area
G92 E0.0
G1 X60.0 E9.0 F1000.0 ; intro line
M73 Q0 S8
M73 P0 R8
G1 X100.0 E12.5 F1000.0 ; intro line
G92 E0.0
M221 S95

; Don't change E values below. Excessive value can damage the printer.
M907 E430 ; set extruder motor current
G21 ; set units to millimeters
G90 ; use absolute coordinates
M83 ; use relative distances for extrusion
M900 K0.05 ; Filament gcode LA 1.5
M900 K30 ; Filament gcode LA 1.0
;BEFORE_LAYER_CHANGE
G92 E0.0
;0.2


G1 E-0.80000 F2100.00000
G1 Z0.600 F10800.000
;AFTER_LAYER_CHANGE
;0.2
G1 X117.890 Y100.173
G1 Z0.200
G1 E0.80000 F2100.00000
M204 S1000
G1 F900
G1 X118.941 Y99.471 E0.03961
G1 X119.626 Y99.213 E0.02295
G1 X120.400 Y99.083 E0.02460
G1 X129.304 Y99.069 E0.27920
G1 X130.072 Y99.145 E0.02420
G1 X130.617 Y99.288 E0.01766
G1 X131.311 Y99.593 E0.02377
G1 X131.917 Y100.011 E0.02307
G1 X132.348 Y100.413 E0.01848
G1 X132.796 Y101.001 E0.02319
G1 X133.291 Y102.141 E0.03895
G1 X133.431 Y103.162 E0.03231
G1 X133.431 Y106.852 E0.11573
G1 X133.360 Y107.537 E0.02157
G1 X133.218 Y108.104 E0.01834
G1 X132.914 Y108.802 E0.02386
G1 X132.110 Y109.827 E0.04086
G1 X131.543 Y110.267 E0.02250
G1 X131.049 Y110.538 E0.01766
G1 X130.351 Y110.795 E0.02331
G1 X129.600 Y110.917 E0.02386
G1 X120.652 Y110.931 E0.28057
G1 X119.730 Y110.815 E0.02912
G1 X118.930 Y110.528 E0.02665
G1 X118.352 Y110.194 E0.02093
G1 X117.673 Y109.610 E0.02811
G1 X117.038 Y108.710 E0.03452
G1 X116.647 Y107.582 E0.03743
G1 X116.569 Y106.856 E0.02290
G1 X116.570 Y103.130 E0.11682
G1 X116.687 Y102.222 E0.02871
G1 X116.976 Y101.421 E0.02668
G1 X117.309 Y100.848 E0.02080
G1 X117.851 Y100.218 E0.02606
G1 X118.138 Y100.470 F10800.000
G1 F900
G1 X118.190 Y100.411 E0.00246
G1 X118.760 Y99.988 E0.02226
G1 X119.360 Y99.701 E0.02087
G1 X120.461 Y99.456 E0.03536
G1 X129.304 Y99.446 E0.27728
G1 X130.499 Y99.646 E0.03800
G1 X131.136 Y99.927 E0.02181
G1 X131.698 Y100.319 E0.02150
G1 X132.492 Y101.225 E0.03776
G1 X132.934 Y102.268 E0.03552
G1 X133.054 Y103.170 E0.02852
G1 X133.054 Y106.841 E0.11511
G1 X132.988 Y107.475 E0.01999
G1 X132.859 Y107.987 E0.01656
G1 X132.571 Y108.642 E0.02242
G1 X131.810 Y109.589 E0.03809
G1 X130.869 Y110.204 E0.03528
G1 X130.240 Y110.435 E0.02100
G1 X129.537 Y110.544 E0.02229
G1 X120.643 Y110.554 E0.27888
G1 X119.799 Y110.444 E0.02668
G1 X119.060 Y110.173 E0.02467
G1 X118.546 Y109.868 E0.01873
G1 X117.911 Y109.310 E0.02650
G1 X117.362 Y108.514 E0.03034
G1 X117.013 Y107.483 E0.03413
G1 X116.946 Y106.841 E0.02024
G1 X116.947 Y103.114 E0.11685
G1 X117.059 Y102.287 E0.02617
G1 X117.332 Y101.548 E0.02469
G1 X117.634 Y101.042 E0.01848
G1 X118.098 Y100.515 E0.02202
G1 F8640.000
G1 X118.190 Y100.411 E-0.03197
G1 X118.760 Y99.988 E-0.16390
G1 X119.360 Y99.701 E-0.15368
G1 X120.461 Y99.456 E-0.26037
G1 X121.111 Y99.455 E-0.15007
G1 E-0.04000 F2100.00000
G1 Z0.800 F10800.000
G1 X132.232 Y108.476
G1 Z0.200
G1 E0.80000 F2100.00000
G1 F900
G1 X131.521 Y109.340 E0.03507
G1 X131.007 Y109.714 E0.01992
G1 X130.454 Y109.968 E0.01908
G1 X129.481 Y110.170 E0.03116
G1 X120.643 Y110.176 E0.27713
G1 X119.876 Y110.074 E0.02426
G1 X119.196 Y109.821 E0.02276
G1 X118.540 Y109.388 E0.02464
G1 X118.160 Y109.021 E0.01657
G1 X117.690 Y108.326 E0.02632
G1 X117.381 Y107.393 E0.03080
G1 X117.323 Y106.829 E0.01777
G1 X117.325 Y103.109 E0.11666
G1 X117.429 Y102.361 E0.02367
G1 X117.684 Y101.686 E0.02263
G1 X118.114 Y101.037 E0.02441
G1 X118.479 Y100.660 E0.01645
G1 X118.993 Y100.286 E0.01992
G1 X119.546 Y100.032 E0.01908
G1 X120.519 Y99.830 E0.03115
G1 X129.304 Y99.823 E0.27546
G1 X130.379 Y100.004 E0.03418
G1 X130.970 Y100.265 E0.02025
G1 X131.478 Y100.626 E0.01955
G1 X132.186 Y101.447 E0.03400
G1 X132.581 Y102.401 E0.03237
G1 X132.677 Y103.182 E0.02467
G1 X132.677 Y106.834 E0.11451
G1 X132.616 Y107.418 E0.01841
G1 X132.252 Y108.420 E0.03342
G1 F8640.000
G1 X131.521 Y109.340 E-0.27134
G1 X131.007 Y109.714 E-0.14668
G1 X130.454 Y109.968 E-0.14050
G1 X129.600 Y110.145 E-0.20147
G1 E-0.04000 F2100.00000
G1 Z0.800 F10800.000
G1 X127.412 Y106.887
G1 Z0.200
G1 E0.80000 F2100.00000
G1 F900
G1 X122.588 Y106.887 E0.15126
G1 X122.588 Y103.113 E0.11834
G1 X127.412 Y103.113 E0.15126
G1 X127.412 Y106.827 E0.11645
G1 X127.035 Y106.510 F10800.000
G1 F900
G1 X122.965 Y106.510 E0.12761
G1 X122.965 Y103.490 E0.09469
G1 X127.035 Y103.490 E0.12761
G1 X127.035 Y106.450 E0.09281
G1 X127.157 Y106.891 F10800.000
G1 F8640.000
G1 X123.744 Y106.499 E-0.76000
G1 E-0.04000 F2100.00000
G1 Z0.800 F10800.000
G1 X129.403 Y106.979
G1 Z0.200
G1 E0.80000 F2100.00000
G1 F900
G1 X129.248 Y107.013 E0.00497
G1 X120.752 Y107.013 E0.26641
G1 X120.597 Y106.979 E0.00497
G1 X120.521 Y106.903 E0.00335
G1 X120.487 Y106.748 E0.00497
G1 X120.487 Y103.252 E0.10964
G1 X120.521 Y103.097 E0.00497
G1 X120.597 Y103.021 E0.00335
G1 X120.752 Y102.987 E0.00497
G1 X129.248 Y102.987 E0.26641
G1 X129.403 Y103.021 E0.00497
G1 X129.479 Y103.097 E0.00335
G1 X129.513 Y103.252 E0.00497
G1 X129.513 Y106.748 E0.10964
G1 X129.499 Y106.853 E0.00332
G1 X129.450 Y106.941 E0.00315
G1 X129.808 Y107.093 F10800.000
G1 F900
G1 X129.715 Y107.215 E0.00480
G1 X129.593 Y107.308 E0.00480
G1 X129.452 Y107.366 E0.00480
G1 X129.273 Y107.390 E0.00565
G1 X120.727 Y107.390 E0.26796
G1 X120.548 Y107.366 E0.00565
G1 X120.407 Y107.308 E0.00480
G1 X120.285 Y107.215 E0.00480
G1 X120.192 Y107.093 E0.00480
G1 X120.134 Y106.952 E0.00480
G1 X120.110 Y106.773 E0.00565
G1 X120.110 Y103.227 E0.11119
G1 X120.134 Y103.048 E0.00565
G1 X120.192 Y102.907 E0.00480
G1 X120.285 Y102.785 E0.00480
G1 X120.407 Y102.692 E0.00480
G1 X120.548 Y102.634 E0.00480
G1 X120.727 Y102.610 E0.00565
G1 X129.273 Y102.610 E0.26796
G1 X129.452 Y102.634 E0.00565
G1 X129.593 Y102.692 E0.00480
G1 X129.715 Y102.785 E0.00480
G1 X129.808 Y102.907 E0.00480
G1 X129.866 Y103.048 E0.00480
G1 X129.890 Y103.227 E0.00565
G1 X129.890 Y106.773 E0.11119
G1 X129.866 Y106.952 E0.00565
G1 X129.831 Y107.038 E0.00292
G1 X129.655 Y107.094 F10800.000
G1 F8640.000
G1 X129.715 Y107.215 E-0.04886
G1 X129.593 Y107.308 E-0.03535
G1 X129.452 Y107.366 E-0.03535
G1 X129.273 Y107.390 E-0.04161
G1 X126.680 Y107.390 E-0.59882
G1 E-0.04000 F2100.00000
G1 Z0.800 F10800.000
G1 X128.338 Y106.900
G1 Z0.200
G1 E0.80000 F2100.00000
G1 F900
G1 X127.695 Y106.257 E0.03033
G1 X127.695 Y105.689 E0.01891
G1 X128.736 Y106.730 E0.04907
G1 X129.217 Y106.730 E0.01607
G1 X129.230 Y106.658 E0.00246
G1 X127.695 Y105.122 E0.07240
G1 X127.695 Y104.555 E0.01891
G1 X129.230 Y106.090 E0.07240
G1 X129.230 Y105.523 E0.01891
G1 X127.695 Y103.988 E0.07240
G1 X127.695 Y103.421 E0.01891
G1 X129.230 Y104.956 E0.07240
G1 X129.230 Y104.389 E0.01891
G1 X128.111 Y103.270 E0.05278
G1 X128.678 Y103.270 E0.01891
G1 X129.400 Y103.992 E0.03404
G1 F8640.000
G1 X128.678 Y103.270 E-0.23571
G1 X128.111 Y103.270 E-0.13095
G1 X129.230 Y104.389 E-0.36549
G1 X129.230 Y104.510 E-0.02785
G1 E-0.04000 F2100.00000
G1 Z0.800 F10800.000
G1 X122.475 Y103.915
G1 Z0.200
G1 E0.80000 F2100.00000
G1 F900
G1 X121.830 Y103.270 E0.03050
G1 X121.261 Y103.270 E0.01900
G1 X122.305 Y104.314 E0.04934
G1 X122.305 Y104.882 E0.01900
G1 X120.770 Y103.347 E0.07256
G1 X120.770 Y103.915 E0.01900
G1 X122.305 Y105.451 E0.07256
G1 X122.305 Y106.019 E0.01900
G1 X120.770 Y104.484 E0.07256
G1 X120.770 Y105.052 E0.01900
G1 X122.305 Y106.587 E0.07256
G1 X122.305 Y106.730 E0.00477
G1 X121.879 Y106.730 E0.01423
G1 X120.770 Y105.621 E0.05244
G1 X120.770 Y106.189 E0.01900
G1 X121.481 Y106.900 E0.03360
M106 S255
;BEFORE_LAYER_CHANGE
G92 E0.0
;0.35


G1 F8640.000
G1 X120.770 Y106.189 E-0.23213
G1 X120.770 Y105.621 E-0.13124
G1 X121.879 Y106.730 E-0.36233
G1 X122.028 Y106.730 E-0.03429
G1 E-0.04000 F2100.00000
G1 Z0.800 F10800.000
;AFTER_LAYER_CHANGE
;0.35
G1 X119.730 Y110.815
G1 Z0.350
G1 E0.80000 F2100.00000
G1 F900
G1 X118.930 Y110.528 E0.02056
G1 X118.352 Y110.194 E0.01615
G1 X117.673 Y109.610 E0.02168
G1 X117.038 Y108.710 E0.02662
G1 X116.647 Y107.582 E0.02887
G1 X116.569 Y106.856 E0.01767
G1 X116.570 Y103.130 E0.09011
G1 X116.687 Y102.222 E0.02215
G1 X116.976 Y101.421 E0.02058
G1 X117.309 Y100.848 E0.01604
G1 X117.890 Y100.173 E0.02155
G1 X118.941 Y99.471 E0.03055
G1 X119.626 Y99.213 E0.01770
G1 X120.400 Y99.083 E0.01898
G1 X129.304 Y99.069 E0.21536
G1 X130.072 Y99.145 E0.01867
G1 X130.617 Y99.288 E0.01362
G1 X131.311 Y99.593 E0.01833
G1 X131.917 Y100.011 E0.01779
G1 X132.348 Y100.413 E0.01425
G1 X132.796 Y101.001 E0.01789
G1 X133.291 Y102.141 E0.03005
G1 X133.431 Y103.162 E0.02492
G1 X133.431 Y106.852 E0.08926
G1 X133.360 Y107.537 E0.01664
G1 X133.218 Y108.104 E0.01415
G1 X132.914 Y108.802 E0.01841
G1 X132.110 Y109.827 E0.03152
G1 X131.543 Y110.267 E0.01735
G1 X131.049 Y110.538 E0.01362
G1 X130.351 Y110.795 E0.01798
G1 X129.600 Y110.917 E0.01840
G1 X120.652 Y110.931 E0.21641
G1 X119.790 Y110.823 E0.02101
G1 X119.839 Y110.449 F10800.000
G1 F900
G1 X119.060 Y110.173 E0.01998
G1 X118.546 Y109.868 E0.01445
G1 X117.911 Y109.310 E0.02044
G1 X117.362 Y108.514 E0.02340
G1 X117.013 Y107.483 E0.02633
G1 X116.946 Y106.841 E0.01561
G1 X116.947 Y103.114 E0.09013
G1 X117.059 Y102.287 E0.02019
G1 X117.332 Y101.548 E0.01904
G1 X117.634 Y101.042 E0.01425
G1 X118.190 Y100.411 E0.02033
G1 X118.760 Y99.988 E0.01717
G1 X119.360 Y99.701 E0.01610
G1 X120.461 Y99.456 E0.02727
G1 X129.304 Y99.446 E0.21387
G1 X130.499 Y99.646 E0.02931
G1 X131.136 Y99.927 E0.01683
G1 X131.698 Y100.319 E0.01658
G1 X132.492 Y101.225 E0.02912
G1 X132.934 Y102.268 E0.02740
G1 X133.054 Y103.170 E0.02200
G1 X133.054 Y106.841 E0.08879
G1 X132.988 Y107.475 E0.01542
G1 X132.859 Y107.987 E0.01277
G1 X132.571 Y108.642 E0.01729
G1 X131.810 Y109.589 E0.02938
G1 X130.869 Y110.204 E0.02721
G1 X130.240 Y110.435 E0.01620
G1 X129.537 Y110.544 E0.01719
G1 X120.643 Y110.554 E0.21512
G1 X119.898 Y110.457 E0.01816
G1 X119.948 Y110.084 F10800.000
G1 F900
G1 X119.876 Y110.074 E0.00175
G1 X119.196 Y109.821 E0.01755
G1 X118.540 Y109.388 E0.01900
G1 X118.160 Y109.021 E0.01278
G1 X117.690 Y108.326 E0.02030
G1 X117.381 Y107.393 E0.02376
G1 X117.323 Y106.829 E0.01371
G1 X117.325 Y103.109 E0.08998
G1 X117.429 Y102.361 E0.01825
G1 X117.684 Y101.686 E0.01746
G1 X118.114 Y101.037 E0.01883
G1 X118.479 Y100.660 E0.01269
G1 X118.993 Y100.286 E0.01537
G1 X119.546 Y100.032 E0.01472
G1 X120.519 Y99.830 E0.02403
G1 X129.304 Y99.823 E0.21247
G1 X130.379 Y100.004 E0.02637
G1 X130.970 Y100.265 E0.01562
G1 X131.478 Y100.626 E0.01508
G1 X132.186 Y101.447 E0.02622
G1 X132.581 Y102.401 E0.02497
G1 X132.677 Y103.182 E0.01903
G1 X132.677 Y106.834 E0.08833
G1 X132.616 Y107.418 E0.01420
G1 X132.232 Y108.476 E0.02723
G1 X131.521 Y109.340 E0.02705
G1 X131.007 Y109.714 E0.01536
G1 X130.454 Y109.968 E0.01472
G1 X129.481 Y110.170 E0.02403
G1 X120.643 Y110.176 E0.21376
G1 X120.007 Y110.092 E0.01551
G1 F8640.000
G1 X119.876 Y110.074 E-0.03055
G1 X119.196 Y109.821 E-0.16759
G1 X118.540 Y109.388 E-0.18144
G1 X118.160 Y109.021 E-0.12200
G1 X117.690 Y108.326 E-0.19383
G1 X117.602 Y108.060 E-0.06461
G1 E-0.04000 F2100.00000
G1 Z0.950 F10800.000
G1 X122.732 Y106.743
G1 Z0.350
G1 E0.80000 F2100.00000
M204 S800
G1 F900
G1 X122.732 Y103.257 E0.09082
G1 X127.268 Y103.257 E0.11818
G1 X127.268 Y106.743 E0.09082
G1 X122.792 Y106.743 E0.11662
M204 S1000
G1 X123.150 Y106.325 F10800.000
M204 S800
G1 F900
G1 X123.150 Y103.675 E0.06905
G1 X126.850 Y103.675 E0.09641
G1 X126.850 Y106.325 E0.06905
G1 X123.210 Y106.325 E0.09484
M204 S1000
G1 X122.759 Y106.407 F10800.000
G1 F8640.000
G1 X123.150 Y103.675 E-0.61205
G1 X123.791 Y103.675 E-0.14795
G1 E-0.04000 F2100.00000
G1 Z0.950 F10800.000
G1 X120.451 Y107.049
G1 Z0.350
G1 E0.80000 F2100.00000
M204 S800
G1 F900
G1 X120.360 Y106.891 E0.00474
G1 X120.343 Y106.758 E0.00350
G1 X120.343 Y103.242 E0.09161
G1 X120.360 Y103.109 E0.00350
G1 X120.395 Y103.024 E0.00239
G1 X120.524 Y102.895 E0.00474
G1 X120.609 Y102.860 E0.00239
G1 X120.742 Y102.843 E0.00350
G1 X129.258 Y102.843 E0.22188
G1 X129.385 Y102.860 E0.00334
G1 X129.478 Y102.897 E0.00261
G1 X129.605 Y103.024 E0.00467
G1 X129.640 Y103.109 E0.00239
G1 X129.657 Y103.242 E0.00350
G1 X129.657 Y106.758 E0.09161
G1 X129.640 Y106.891 E0.00350
G1 X129.605 Y106.976 E0.00239
G1 X129.476 Y107.105 E0.00474
G1 X129.391 Y107.140 E0.00239
G1 X129.258 Y107.157 E0.00350
G1 X120.742 Y107.157 E0.22188
G1 X120.609 Y107.140 E0.00350
G1 X120.499 Y107.085 E0.00320
M204 S1000
G1 X120.245 Y107.417 F10800.000
M204 S800
G1 F900
G1 X120.153 Y107.347 E0.00300
G1 X120.031 Y107.187 E0.00526
G1 X119.953 Y107.000 E0.00526
G1 X119.925 Y106.785 E0.00565
G1 X119.925 Y103.215 E0.09303
G1 X119.953 Y103.000 E0.00565
G1 X120.031 Y102.813 E0.00526
G1 X120.153 Y102.653 E0.00526
G1 X120.313 Y102.531 E0.00526
G1 X120.500 Y102.453 E0.00526
G1 X120.715 Y102.425 E0.00565
G1 X129.285 Y102.425 E0.22331
G1 X129.492 Y102.452 E0.00545
G1 X129.687 Y102.531 E0.00548
G1 X129.847 Y102.653 E0.00523
G1 X129.969 Y102.813 E0.00526
G1 X130.047 Y103.000 E0.00526
G1 X130.075 Y103.215 E0.00565
G1 X130.075 Y106.785 E0.09303
G1 X130.047 Y107.000 E0.00565
G1 X129.969 Y107.187 E0.00526
G1 X129.847 Y107.347 E0.00526
G1 X129.687 Y107.469 E0.00526
G1 X129.500 Y107.547 E0.00526
G1 X129.285 Y107.575 E0.00565
G1 X120.715 Y107.575 E0.22331
G1 X120.500 Y107.547 E0.00565
G1 X120.292 Y107.453 E0.00594
M204 S1000
G1 X120.247 Y107.302 F10800.000
G1 F8640.000
G1 X120.153 Y107.347 E-0.04041
G1 X120.031 Y107.187 E-0.04660
G1 X119.953 Y107.000 E-0.04660
G1 X119.925 Y106.785 E-0.05003
G1 X119.925 Y104.289 E-0.57636
G1 E-0.04000 F2100.00000
G1 Z0.950 F10800.000
G1 X121.732 Y107.032
G1 Z0.350
G1 E0.80000 F2100.00000
G1 F900
G1 X122.419 Y106.345 E0.02620
G1 X122.419 Y105.733 E0.01648
G1 X121.308 Y106.844 E0.04234
G1 X120.705 Y106.836 E0.01627
G1 X122.419 Y105.122 E0.06535
G1 X122.419 Y104.511 E0.01648
G1 X120.656 Y106.273 E0.06720
G1 X120.656 Y105.662 E0.01648
G1 X122.419 Y103.899 E0.06720
G1 X122.419 Y103.288 E0.01648
G1 X120.656 Y105.051 E0.06720
G1 X120.656 Y104.439 E0.01648
G1 X121.939 Y103.156 E0.04892
G1 X121.328 Y103.156 E0.01648
G1 X120.656 Y103.828 E0.02562
G1 X120.663 Y103.210 E0.01667
G1 X120.905 Y102.968 E0.00921
G1 F8640.000
G1 X120.663 Y103.210 E-0.07893
G1 X120.656 Y103.828 E-0.14277
G1 X121.328 Y103.156 E-0.21942
G1 X121.939 Y103.156 E-0.14115
G1 X121.395 Y103.700 E-0.17773
G1 E-0.04000 F2100.00000
G1 Z0.950 F10800.000
G1 X128.268 Y102.968
G1 Z0.350
G1 E0.80000 F2100.00000
G1 F900
G1 X127.581 Y103.655 E0.02619
G1 X127.581 Y104.267 E0.01648
G1 X128.692 Y103.156 E0.04233
G1 X129.295 Y103.164 E0.01628
G1 X127.581 Y104.878 E0.06535
G1 X127.581 Y105.489 E0.01648
G1 X129.344 Y103.727 E0.06720
G1 X129.344 Y104.338 E0.01648
G1 X127.581 Y106.101 E0.06720
G1 X127.581 Y106.712 E0.01648
G1 X129.344 Y104.949 E0.06720
G1 X129.344 Y105.560 E0.01648
G1 X128.060 Y106.844 E0.04893
G1 X128.672 Y106.844 E0.01648
G1 X129.344 Y106.172 E0.02562
G1 X129.337 Y106.790 E0.01667
G1 X129.095 Y107.032 E0.00922
;BEFORE_LAYER_CHANGE
G92 E0.0
;0.5


G1 F8640.000
G1 X129.337 Y106.790 E-0.07897
G1 X129.344 Y106.172 E-0.14276
G1 X128.672 Y106.844 E-0.21946
G1 X128.060 Y106.844 E-0.14115
G1 X128.604 Y106.300 E-0.17764
G1 E-0.04000 F2100.00000
