; generated by PrusaSlicer 2.2.0+ on 2020-11-25 at 16:40:57 UTC

; 

; external perimeters extrusion width = 0.45mm
; perimeters extrusion width = 0.45mm
; infill extrusion width = 0.45mm
; solid infill extrusion width = 0.45mm
; top infill extrusion width = 0.40mm
; first layer extrusion width = 0.42mm

M73 P0 R36
M73 Q0 S36
M201 X1000 Y1000 Z200 E5000 ; sets maximum accelerations, mm/sec^2
M203 X200 Y200 Z12 E120 ; sets maximum feedrates, mm/sec
M204 P1250 R1250 T1250 ; sets acceleration (P, T) and retract acceleration (R), mm/sec^2
M205 X8.00 Y8.00 Z0.40 E4.50 ; sets the jerk limits, mm/sec
M205 S0 T0 ; sets the minimum extruding and travel feed rate, mm/sec
M107
M862.3 P "MK3S" ; printer model check
M862.1 P0.4 ; nozzle diameter check
M115 U3.9.1 ; tell printer latest fw version
G90 ; use absolute coordinates
M83 ; extruder relative mode
M104 S215 ; set extruder temp
M140 S60 ; set bed temp
M190 S60 ; wait for bed temp
M109 S215 ; wait for extruder temp
G28 W ; home all without mesh bed level
G80 ; mesh bed leveling
G1 Y-3.0 F1000.0 ; go outside print area
G92 E0.0
G1 X60.0 E9.0 F1000.0 ; intro line
M73 Q0 S36
M73 P0 R36
G1 X100.0 E12.5 F1000.0 ; intro line
G92 E0.0
M221 S95

; Don't change E values below. Excessive value can damage the printer.

M907 E538 ; set extruder motor current
G21 ; set units to millimeters
G90 ; use absolute coordinates
M83 ; use relative distances for extrusion
M900 K0.05 ; Filament gcode LA 1.5
M900 K30 ; Filament gcode LA 1.0
;BEFORE_LAYER_CHANGE
G92 E0.0
;0.2


G1 E-0.80000 F2100.00000
G1 Z0.600 F10800.000
;AFTER_LAYER_CHANGE
;0.2
G1 X116.120 Y98.771
G1 Z0.200
G1 E0.80000 F2100.00000
M204 S1000
G1 F1200.000
G1 X116.688 Y97.889 E0.03288
G1 X117.128 Y97.490 E0.01861
G1 X117.635 Y97.182 E0.01861
G1 X118.191 Y96.975 E0.01861
G1 X118.777 Y96.877 E0.01861
G1 X131.004 Y96.869 E0.38339
G1 X132.091 Y97.065 E0.03463
G1 X133.043 Y97.627 E0.03463
G1 X133.740 Y98.484 E0.03463
G1 X134.096 Y99.529 E0.03463
G1 X134.125 Y110.192 E0.33433
G1 X133.883 Y111.221 E0.03315
G1 X133.312 Y112.111 E0.03315
G1 X132.834 Y112.538 E0.02011
G1 X132.282 Y112.857 E0.01998
G1 X131.677 Y113.057 E0.01998
G1 X131.040 Y113.131 E0.02011
G1 X118.821 Y113.126 E0.38311
G1 X117.783 Y112.885 E0.03342
G1 X116.889 Y112.312 E0.03328
G1 X116.462 Y111.834 E0.02011
G1 X116.143 Y111.282 E0.01998
G1 X115.943 Y110.677 E0.01998
G1 X115.869 Y110.044 E0.01998
G1 X115.876 Y99.790 E0.32150
G1 X116.106 Y98.829 E0.03100
G1 F8640.000
G1 X116.688 Y97.889 E-0.25525
G1 X117.128 Y97.490 E-0.13708
G1 X117.635 Y97.182 E-0.13708
G1 X118.191 Y96.975 E-0.13708
G1 X118.591 Y96.908 E-0.09352
G1 E-0.04000 F2100.00000
G1 Z0.800 F10800.000
G1 X117.828 Y97.507
G1 Z0.200
G1 E0.80000 F2100.00000
G1 F1200.000
G1 X118.831 Y97.251 E0.03246
G1 X131.004 Y97.246 E0.38167
G1 X131.971 Y97.423 E0.03082
G1 X132.814 Y97.928 E0.03082
G1 X133.424 Y98.693 E0.03069
G1 X133.729 Y99.627 E0.03082
G1 X133.749 Y110.164 E0.33037
G1 X133.530 Y111.089 E0.02980
G1 X133.006 Y111.887 E0.02993
G1 X132.589 Y112.249 E0.01733
G1 X132.104 Y112.523 E0.01745
G1 X131.575 Y112.694 E0.01745
G1 X131.021 Y112.754 E0.01745
G1 X118.852 Y112.750 E0.38154
G1 X117.915 Y112.531 E0.03018
G1 X117.113 Y112.006 E0.03006
G1 X116.751 Y111.589 E0.01733
G1 X116.477 Y111.104 E0.01745
G1 X116.307 Y110.579 E0.01733
G1 X116.246 Y110.025 E0.01745
G1 X116.251 Y99.828 E0.31973
G1 X116.472 Y98.907 E0.02968
G1 X116.994 Y98.113 E0.02980
G1 X117.780 Y97.543 E0.03045
G1 X117.996 Y97.850 F10800.000
G1 F1200.000
G1 X118.873 Y97.626 E0.02838
G1 X131.004 Y97.623 E0.38034
G1 X131.846 Y97.778 E0.02684
G1 X132.578 Y98.222 E0.02684
G1 X133.105 Y98.896 E0.02684
G1 X133.360 Y99.714 E0.02684
G1 X133.374 Y110.129 E0.32657
G1 X133.177 Y110.955 E0.02661
G1 X132.705 Y111.656 E0.02649
G1 X131.928 Y112.188 E0.02954
G1 X131.009 Y112.377 E0.02942
G1 X118.882 Y112.374 E0.38023
G1 X118.052 Y112.180 E0.02673
G1 X117.344 Y111.705 E0.02673
G1 X116.812 Y110.928 E0.02954
G1 X116.623 Y110.009 E0.02942
G1 X116.627 Y99.863 E0.31811
G1 X116.825 Y99.042 E0.02649
G1 X117.295 Y98.344 E0.02637
G1 X117.947 Y97.885 E0.02502
G1 F8640.000
G1 X118.873 Y97.626 E-0.22202
G1 X121.203 Y97.626 E-0.53798
G1 E-0.04000 F2100.00000
G1 Z0.800 F10800.000
G1 X119.787 Y100.787
G1 Z0.200
G1 E0.80000 F2100.00000
G1 F1200.000
G1 X130.213 Y100.787 E0.32689
G1 X130.213 Y109.213 E0.26419
G1 X119.787 Y109.213 E0.32689
G1 X119.787 Y100.847 E0.26231
G1 X119.410 Y100.410 F10800.000
G1 F1200.000
G1 X130.590 Y100.410 E0.35054
G1 X130.590 Y109.590 E0.28783
G1 X119.410 Y109.590 E0.35054
G1 X119.410 Y100.470 E0.28595
G1 X119.800 Y100.501 F10800.000
G1 F8640.000
G1 X122.701 Y100.452 E-0.76000
G1 E-0.04000 F2100.00000
G1 Z0.800 F10800.000
G1 X130.100 Y101.678
G1 Z0.200
G1 E0.80000 F2100.00000
G1 F1200.000
G1 X129.492 Y101.070 E0.02746
G1 X128.949 Y101.070 E0.01736
G1 X129.930 Y102.051 E0.04434
G1 X129.930 Y102.595 E0.01736
G1 X128.405 Y101.070 E0.06889
G1 X127.862 Y101.070 E0.01736
G1 X129.930 Y103.138 E0.09344
G1 X129.930 Y103.681 E0.01736
G1 X127.319 Y101.070 E0.11799
G1 X126.775 Y101.070 E0.01736
G1 X129.930 Y104.225 E0.14254
G1 X129.930 Y104.768 E0.01736
G1 X126.232 Y101.070 E0.16709
G1 X125.688 Y101.070 E0.01736
G1 X129.930 Y105.312 E0.19164
G1 X129.930 Y105.855 E0.01736
G1 X125.145 Y101.070 E0.21619
G1 X124.602 Y101.070 E0.01736
G1 X129.930 Y106.398 E0.24074
G1 X129.930 Y106.942 E0.01736
G1 X124.058 Y101.070 E0.26529
G1 X123.515 Y101.070 E0.01736
G1 X129.930 Y107.485 E0.28984
G1 X129.930 Y108.028 E0.01736
G1 X122.972 Y101.070 E0.31439
G1 X122.428 Y101.070 E0.01736
G1 X129.930 Y108.572 E0.33895
G1 X129.930 Y108.930 E0.01145
G1 X129.745 Y108.930 E0.00591
G1 X121.885 Y101.070 E0.35514
G1 X121.342 Y101.070 E0.01736
G1 X129.202 Y108.930 E0.35514
G1 X128.658 Y108.930 E0.01736
G1 X120.798 Y101.070 E0.35514
G1 X120.255 Y101.070 E0.01736
G1 X128.115 Y108.930 E0.35514
G1 X127.572 Y108.930 E0.01736
G1 X120.070 Y101.428 E0.33894
G1 X120.070 Y101.972 E0.01736
G1 X127.028 Y108.930 E0.31439
G1 X126.485 Y108.930 E0.01736
G1 X120.070 Y102.515 E0.28984
G1 X120.070 Y103.058 E0.01736
G1 X125.942 Y108.930 E0.26529
G1 X125.398 Y108.930 E0.01736
G1 X120.070 Y103.602 E0.24074
G1 X120.070 Y104.145 E0.01736
G1 X124.855 Y108.930 E0.21619
G1 X124.311 Y108.930 E0.01736
G1 X120.070 Y104.689 E0.19164
G1 X120.070 Y105.232 E0.01736
G1 X123.768 Y108.930 E0.16709
G1 X123.225 Y108.930 E0.01736
G1 X120.070 Y105.775 E0.14254
G1 X120.070 Y106.319 E0.01736
G1 X122.681 Y108.930 E0.11799
G1 X122.138 Y108.930 E0.01736
G1 X120.070 Y106.862 E0.09344
G1 X120.070 Y107.405 E0.01736
G1 X121.595 Y108.930 E0.06889
G1 X121.051 Y108.930 E0.01736
G1 X120.070 Y107.949 E0.04434
G1 X120.070 Y108.492 E0.01736
G1 X120.678 Y109.100 E0.02745
M106 S255
;BEFORE_LAYER_CHANGE
G92 E0.0
;0.35


G1 F8640.000
G1 X120.070 Y108.492 E-0.19842
G1 X120.070 Y107.949 E-0.12547
G1 X121.051 Y108.930 E-0.32045
G1 X121.552 Y108.930 E-0.11566
G1 E-0.04000 F2100.00000
G1 Z0.800 F10800.000
;AFTER_LAYER_CHANGE
;0.35
G1 X117.783 Y112.885
G1 Z0.350
G1 E0.80000 F2100.00000
G1 F1464
G1 X116.889 Y112.312 E0.02567
G1 X116.462 Y111.834 E0.01551
G1 X116.143 Y111.282 E0.01541
G1 X115.943 Y110.677 E0.01541
G1 X115.869 Y110.044 E0.01541
G1 X115.876 Y99.790 E0.24799
G1 X116.120 Y98.771 E0.02536
G1 X116.688 Y97.889 E0.02536
G1 X117.128 Y97.490 E0.01436
G1 X117.635 Y97.182 E0.01436
G1 X118.191 Y96.975 E0.01436
G1 X118.777 Y96.877 E0.01436
G1 X131.004 Y96.869 E0.29572
G1 X132.091 Y97.065 E0.02671
G1 X133.043 Y97.627 E0.02671
G1 X133.740 Y98.484 E0.02671
G1 X134.096 Y99.529 E0.02671
G1 X134.125 Y110.192 E0.25788
G1 X133.883 Y111.221 E0.02557
G1 X133.312 Y112.111 E0.02557
G1 X132.834 Y112.538 E0.01551
G1 X132.282 Y112.857 E0.01541
G1 X131.677 Y113.057 E0.01541
G1 X131.040 Y113.131 E0.01551
G1 X118.821 Y113.126 E0.29551
G1 X117.841 Y112.898 E0.02433
G1 X117.926 Y112.534 F10800.000
G1 F1464
G1 X117.113 Y112.006 E0.02344
G1 X116.751 Y111.589 E0.01336
G1 X116.477 Y111.104 E0.01346
G1 X116.307 Y110.579 E0.01336
G1 X116.246 Y110.025 E0.01346
G1 X116.251 Y99.828 E0.24662
G1 X116.472 Y98.907 E0.02289
G1 X116.994 Y98.113 E0.02299
G1 X117.828 Y97.507 E0.02494
G1 X118.831 Y97.251 E0.02504
G1 X131.004 Y97.246 E0.29440
G1 X131.971 Y97.423 E0.02377
G1 X132.814 Y97.928 E0.02377
G1 X133.424 Y98.693 E0.02367
G1 X133.729 Y99.627 E0.02377
G1 X133.749 Y110.164 E0.25483
G1 X133.530 Y111.089 E0.02299
G1 X133.006 Y111.887 E0.02309
G1 X132.589 Y112.249 E0.01336
G1 X132.104 Y112.523 E0.01346
G1 X131.575 Y112.694 E0.01346
G1 X131.021 Y112.754 E0.01346
G1 X118.852 Y112.750 E0.29430
G1 X117.985 Y112.548 E0.02155
G1 F8640.000
G1 X117.113 Y112.006 E-0.23690
G1 X116.751 Y111.589 E-0.12759
G1 X116.477 Y111.104 E-0.12853
G1 X116.307 Y110.579 E-0.12759
G1 X116.246 Y110.025 E-0.12853
G1 X116.246 Y109.978 E-0.01086
G1 E-0.04000 F2100.00000
G1 Z0.950 F10800.000
G1 X116.812 Y110.928
G1 Z0.350
G1 E0.80000 F2100.00000
G1 F1464
G1 X116.623 Y110.009 E0.02270
G1 X116.627 Y99.863 E0.24537
G1 X116.825 Y99.042 E0.02043
G1 X117.295 Y98.344 E0.02034
G1 X118.016 Y97.836 E0.02134
G1 X118.873 Y97.626 E0.02134
G1 X131.004 Y97.623 E0.29338
G1 X131.846 Y97.778 E0.02071
G1 X132.578 Y98.222 E0.02071
G1 X133.105 Y98.896 E0.02071
G1 X133.360 Y99.714 E0.02071
G1 X133.374 Y110.129 E0.25190
G1 X133.177 Y110.955 E0.02052
G1 X132.705 Y111.656 E0.02043
G1 X131.928 Y112.188 E0.02279
G1 X131.009 Y112.377 E0.02270
G1 X118.882 Y112.374 E0.29328
G1 X118.052 Y112.180 E0.02062
G1 X117.344 Y111.705 E0.02061
G1 X116.845 Y110.977 E0.02134
G1 F8640.000
G1 X116.623 Y110.009 E-0.22952
G1 X116.624 Y107.711 E-0.53048
G1 E-0.04000 F2100.00000
G1 Z0.950 F10800.000
G1 X119.643 Y109.357
G1 Z0.350
G1 E0.80000 F2100.00000
M204 S800
G1 F1464
G1 X119.643 Y100.643 E0.22706
G1 X130.357 Y100.643 E0.27917
G1 X130.357 Y109.357 E0.22706
G1 X119.703 Y109.357 E0.27761
M204 S1000
G1 X119.225 Y109.775 F10800.000
M204 S800
G1 F1464
G1 X119.225 Y100.225 E0.24883
G1 X130.775 Y100.225 E0.30094
G1 X130.775 Y109.775 E0.24883
G1 X119.285 Y109.775 E0.29938
M204 S1000
G1 X119.341 Y109.392 F10800.000
G1 F8640.000
G1 X119.264 Y106.484 E-0.76000
G1 E-0.04000 F2100.00000
G1 Z0.950 F10800.000
G1 X129.382 Y109.232
G1 Z0.350
G1 E0.80000 F2100.00000
G1 F1464
G1 X130.044 Y108.570 E0.02450
G1 X130.044 Y107.976 E0.01556
G1 X128.976 Y109.044 E0.03955
G1 X128.382 Y109.044 E0.01556
G1 X130.044 Y107.382 E0.06156
G1 X130.044 Y106.788 E0.01556
G1 X127.788 Y109.044 E0.08357
G1 X127.194 Y109.044 E0.01556
G1 X130.044 Y106.194 E0.10558
G1 X130.044 Y105.600 E0.01556
G1 X126.600 Y109.044 E0.12759
G1 X126.006 Y109.044 E0.01556
G1 X130.044 Y105.006 E0.14960
G1 X130.044 Y104.412 E0.01556
G1 X125.412 Y109.044 E0.17161
G1 X124.818 Y109.044 E0.01556
G1 X130.044 Y103.818 E0.19362
G1 X130.044 Y103.224 E0.01556
G1 X124.224 Y109.044 E0.21563
G1 X123.630 Y109.044 E0.01556
G1 X130.044 Y102.630 E0.23764
G1 X130.044 Y102.035 E0.01556
G1 X123.035 Y109.044 E0.25966
G1 X122.441 Y109.044 E0.01556
G1 X130.044 Y101.441 E0.28167
G1 X130.044 Y100.956 E0.01271
G1 X129.935 Y100.956 E0.00285
G1 X121.847 Y109.044 E0.29964
G1 X121.253 Y109.044 E0.01556
G1 X129.341 Y100.956 E0.29964
G1 X128.747 Y100.956 E0.01556
G1 X120.659 Y109.044 E0.29964
G1 X120.065 Y109.044 E0.01556
G1 X128.153 Y100.956 E0.29964
G1 X127.559 Y100.956 E0.01556
G1 X119.956 Y108.559 E0.28166
G1 X119.956 Y107.964 E0.01556
G1 X126.964 Y100.956 E0.25965
G1 X126.370 Y100.956 E0.01556
G1 X119.956 Y107.370 E0.23764
G1 X119.956 Y106.776 E0.01556
G1 X125.776 Y100.956 E0.21563
G1 X125.182 Y100.956 E0.01556
G1 X119.956 Y106.182 E0.19362
G1 X119.956 Y105.588 E0.01556
G1 X124.588 Y100.956 E0.17161
G1 X123.994 Y100.956 E0.01556
G1 X119.956 Y104.994 E0.14960
G1 X119.956 Y104.400 E0.01556
G1 X123.400 Y100.956 E0.12759
G1 X122.806 Y100.956 E0.01556
G1 X119.956 Y103.806 E0.10558
G1 X119.956 Y103.212 E0.01556
G1 X122.212 Y100.956 E0.08357
G1 X121.618 Y100.956 E0.01556
G1 X119.956 Y102.618 E0.06156
G1 X119.956 Y102.024 E0.01556
G1 X121.024 Y100.956 E0.03955
G1 X120.429 Y100.956 E0.01556
G1 X119.768 Y101.617 E0.02450
;BEFORE_LAYER_CHANGE
G92 E0.0
;0.5


G1 F8640.000
G1 X120.429 Y100.956 E-0.21595
G1 X121.024 Y100.956 E-0.13718
G1 X119.956 Y102.024 E-0.34855
G1 X119.956 Y102.276 E-0.05833
G1 E-0.04000 F2100.00000
G1 Z0.950 F10800.000
;AFTER_LAYER_CHANGE
;0.5
G1 X116.120 Y98.771
G1 Z0.500
G1 E0.80000 F2100.00000
G1 F1462
G1 X116.688 Y97.889 E0.02536
G1 X117.128 Y97.490 E0.01436
G1 X117.635 Y97.182 E0.01436
G1 X118.191 Y96.975 E0.01436
G1 X118.777 Y96.877 E0.01436
G1 X131.004 Y96.869 E0.29572
G1 X132.091 Y97.065 E0.02671
G1 X133.043 Y97.627 E0.02671
G1 X133.740 Y98.484 E0.02671
G1 X134.096 Y99.529 E0.02671
G1 X134.125 Y110.192 E0.25788
G1 X133.883 Y111.221 E0.02557
G1 X133.312 Y112.111 E0.02557
G1 X132.834 Y112.538 E0.01551
G1 X132.282 Y112.857 E0.01541
G1 X131.677 Y113.057 E0.01541
G1 X131.040 Y113.131 E0.01551
G1 X118.821 Y113.126 E0.29551
G1 X117.783 Y112.885 E0.02578
G1 X116.889 Y112.312 E0.02567
G1 X116.462 Y111.834 E0.01551
G1 X116.143 Y111.282 E0.01541
G1 X115.943 Y110.677 E0.01541
G1 X115.869 Y110.044 E0.01541
G1 X115.876 Y99.790 E0.24799
G1 X116.106 Y98.829 E0.02391
G1 F8640.000
G1 X116.688 Y97.889 E-0.25525
G1 X117.128 Y97.490 E-0.13708
G1 X117.635 Y97.182 E-0.13708
G1 X118.191 Y96.975 E-0.13708
G1 X118.591 Y96.908 E-0.09352
G1 E-0.04000 F2100.00000
G1 Z1.100 F10800.000
G1 X117.828 Y97.507
G1 Z0.500
G1 E0.80000 F2100.00000
G1 F1462
G1 X118.831 Y97.251 E0.02504
G1 X131.004 Y97.246 E0.29440
G1 X131.971 Y97.423 E0.02377
G1 X132.814 Y97.928 E0.02377
G1 X133.424 Y98.693 E0.02367
G1 X133.729 Y99.627 E0.02377
G1 X133.749 Y110.164 E0.25483
G1 X133.530 Y111.089 E0.02299
G1 X133.006 Y111.887 E0.02309
G1 X132.589 Y112.249 E0.01336
G1 X132.104 Y112.523 E0.01346
G1 X131.575 Y112.694 E0.01346
G1 X131.021 Y112.754 E0.01346
G1 X118.852 Y112.750 E0.29430
G1 X117.915 Y112.531 E0.02328
G1 X117.113 Y112.006 E0.02318
G1 X116.751 Y111.589 E0.01336
G1 X116.477 Y111.104 E0.01346
G1 X116.307 Y110.579 E0.01336
G1 X116.246 Y110.025 E0.01346
G1 X116.251 Y99.828 E0.24662
G1 X116.472 Y98.907 E0.02289
G1 X116.994 Y98.113 E0.02299
G1 X117.780 Y97.543 E0.02349
G1 X117.996 Y97.850 F10800.000
G1 F1462
G1 X118.873 Y97.626 E0.02189
G1 X131.004 Y97.623 E0.29338
G1 X131.846 Y97.778 E0.02071
G1 X132.578 Y98.222 E0.02071
G1 X133.105 Y98.896 E0.02071
G1 X133.360 Y99.714 E0.02071
G1 X133.374 Y110.129 E0.25190
G1 X133.177 Y110.955 E0.02052
G1 X132.705 Y111.656 E0.02043
G1 X131.928 Y112.188 E0.02279
G1 X131.009 Y112.377 E0.02270
G1 X118.882 Y112.374 E0.29328
G1 X118.052 Y112.180 E0.02062
G1 X117.344 Y111.705 E0.02061
G1 X116.812 Y110.928 E0.02279
G1 X116.623 Y110.009 E0.02270
G1 X116.627 Y99.863 E0.24537
M73 Q2 S35
G1 X116.825 Y99.042 E0.02043
G1 X117.295 Y98.344 E0.02034
G1 X117.947 Y97.885 E0.01930
G1 F8640.000
G1 X118.873 Y97.626 E-0.22202
G1 X121.203 Y97.626 E-0.53798
M73 P2 R35
G1 E-0.04000 F2100.00000
G1 Z1.100 F10800.000
G1 X119.643 Y100.643
G1 Z0.500
G1 E0.80000 F2100.00000
M204 S800
G1 F1462
G1 X130.357 Y100.643 E0.27917
G1 X130.357 Y109.357 E0.22706
G1 X119.643 Y109.357 E0.27917
G1 X119.643 Y100.703 E0.22550
M204 S1000
G1 X119.225 Y100.225 F10800.000
M204 S800
G1 F1462
G1 X130.775 Y100.225 E0.30094
G1 X130.775 Y109.775 E0.24883
G1 X119.225 Y109.775 E0.30094
G1 X119.225 Y100.285 E0.24727
M204 S1000
G1 X119.614 Y100.316 F10800.000
G1 F8640.000
G1 X122.516 Y100.268 E-0.76000
G1 E-0.04000 F2100.00000
G1 Z1.100 F10800.000
G1 X130.232 Y101.618
G1 Z0.500
G1 E0.80000 F2100.00000
G1 F1462
G1 X129.570 Y100.956 E0.02450
G1 X128.976 Y100.956 E0.01556
G1 X130.044 Y102.024 E0.03955
G1 X130.044 Y102.618 E0.01556
G1 X128.382 Y100.956 E0.06156
G1 X127.788 Y100.956 E0.01556
G1 X130.044 Y103.212 E0.08357
G1 X130.044 Y103.806 E0.01556
G1 X127.194 Y100.956 E0.10558
G1 X126.600 Y100.956 E0.01556
G1 X130.044 Y104.400 E0.12759
G1 X130.044 Y104.994 E0.01556
G1 X126.006 Y100.956 E0.14960
G1 X125.412 Y100.956 E0.01556
G1 X130.044 Y105.588 E0.17161
G1 X130.044 Y106.182 E0.01556
G1 X124.818 Y100.956 E0.19362
G1 X124.224 Y100.956 E0.01556
G1 X130.044 Y106.776 E0.21563
G1 X130.044 Y107.370 E0.01556
G1 X123.630 Y100.956 E0.23764
G1 X123.035 Y100.956 E0.01556
G1 X130.044 Y107.965 E0.25966
G1 X130.044 Y108.559 E0.01556
