; generated by PrusaSlicer 2.2.0+ on 2020-11-25 at 16:41:25 UTC

; 

; external perimeters extrusion width = 0.45mm
; perimeters extrusion width = 0.45mm
; infill extrusion width = 0.45mm
; solid infill extrusion width = 0.45mm
; top infill extrusion width = 0.40mm
; first layer extrusion width = 0.42mm

M73 P0 R48
M73 Q0 S48
M201 X1000 Y1000 Z200 E5000 ; sets maximum accelerations, mm/sec^2
M203 X200 Y200 Z12 E120 ; sets maximum feedrates, mm/sec
M204 P1250 R1250 T1250 ; sets acceleration (P, T) and retract acceleration (R), mm/sec^2
M205 X8.00 Y8.00 Z0.40 E4.50 ; sets the jerk limits, mm/sec
M205 S0 T0 ; sets the minimum extruding and travel feed rate, mm/sec
M107
M862.3 P "MK3S" ; printer model check
M862.1 P0.4 ; nozzle diameter check
M115 U3.9.1 ; tell printer latest fw version
G90 ; use absolute coordinates
M83 ; extruder relative mode
M104 S215 ; set extruder temp
M140 S60 ; set bed temp
M190 S60 ; wait for bed temp
M109 S215 ; wait for extruder temp
G28 W ; home all without mesh bed level
G80 ; mesh bed leveling
G1 Y-3.0 F1000.0 ; go outside print area
G92 E0.0
G1 X60.0 E9.0 F1000.0 ; intro line
M73 Q0 S48
M73 P0 R48
G1 X100.0 E12.5 F1000.0 ; intro line
G92 E0.0
M221 S95

; Don't change E values below. Excessive value can damage the printer.

M907 E538 ; set extruder motor current
G21 ; set units to millimeters
G90 ; use absolute coordinates
M83 ; use relative distances for extrusion
M900 K0.05 ; Filament gcode LA 1.5
M900 K30 ; Filament gcode LA 1.0
;BEFORE_LAYER_CHANGE
G92 E0.0
;0.2


G1 E-0.80000 F2100.00000
G1 Z0.600 F10800.000
;AFTER_LAYER_CHANGE
;0.2
G1 X117.061 Y98.921
G1 Z0.200
G1 E0.80000 F2100.00000
M204 S1000
G1 F1200.000
G1 X117.508 Y98.104 E0.02922
G1 X117.947 Y97.636 E0.02011
G1 X118.472 Y97.267 E0.02011
G1 X119.061 Y97.013 E0.02011
G1 X119.694 Y96.884 E0.02025
G1 X130.004 Y96.869 E0.32327
G1 X131.083 Y97.062 E0.03436
G1 X132.026 Y97.612 E0.03423
G1 X132.725 Y98.457 E0.03436
G1 X133.089 Y99.490 E0.03436
G1 X133.128 Y110.153 E0.33432
G1 X132.942 Y111.071 E0.02936
G1 X132.492 Y111.896 E0.02950
G1 X132.020 Y112.393 E0.02148
G1 X131.447 Y112.777 E0.02161
G1 X130.804 Y113.026 E0.02161
G1 X130.127 Y113.129 E0.02148
G1 X119.834 Y113.127 E0.32274
G1 X118.921 Y112.939 E0.02922
G1 X118.104 Y112.492 E0.02922
G1 X117.607 Y112.020 E0.02148
G1 X117.223 Y111.447 E0.02161
G1 X116.974 Y110.804 E0.02161
G1 X116.871 Y110.127 E0.02148
G1 X116.873 Y99.834 E0.32274
G1 X117.049 Y98.980 E0.02734
G1 X117.416 Y99.055 F10800.000
G1 F1200.000
G1 X117.833 Y98.300 E0.02707
G1 X118.226 Y97.893 E0.01771
G1 X118.689 Y97.578 E0.01758
G1 X119.207 Y97.362 E0.01758
G1 X119.762 Y97.256 E0.01771
G1 X130.004 Y97.246 E0.32114
G1 X130.959 Y97.418 E0.03044
G1 X131.799 Y97.914 E0.03056
G1 X132.410 Y98.668 E0.03044
G1 X132.724 Y99.591 E0.03056
G1 X132.751 Y110.127 E0.33036
G1 X132.582 Y110.959 E0.02663
G1 X132.167 Y111.700 E0.02663
G1 X131.746 Y112.130 E0.01886
G1 X131.245 Y112.457 E0.01873
G1 X130.682 Y112.668 E0.01886
G1 X130.091 Y112.753 E0.01873
G1 X119.865 Y112.751 E0.32063
G1 X119.037 Y112.580 E0.02651
G1 X118.300 Y112.167 E0.02651
G1 X117.870 Y111.746 E0.01886
G1 X117.543 Y111.245 E0.01873
G1 X117.332 Y110.682 E0.01886
G1 X117.247 Y110.091 E0.01873
G1 X117.249 Y99.865 E0.32063
G1 X117.404 Y99.114 E0.02403
G1 F8640.000
G1 X117.833 Y98.300 E-0.21265
G1 X118.226 Y97.893 E-0.13042
G1 X118.689 Y97.578 E-0.12947
G1 X119.207 Y97.362 E-0.12947
G1 X119.762 Y97.256 E-0.13042
G1 X119.881 Y97.256 E-0.02758
G1 E-0.04000 F2100.00000
G1 Z0.800 F10800.000
G1 X118.896 Y97.895
G1 Z0.200
G1 E0.80000 F2100.00000
G1 F1200.000
G1 X119.824 Y97.629 E0.03024
G1 X130.004 Y97.623 E0.31918
G1 X130.842 Y97.777 E0.02673
G1 X131.569 Y98.215 E0.02661
G1 X132.096 Y98.880 E0.02661
G1 X132.356 Y99.687 E0.02661
G1 X132.375 Y110.103 E0.32657
G1 X132.223 Y110.842 E0.02367
G1 X131.849 Y111.494 E0.02355
G1 X131.486 Y111.856 E0.01609
G1 X131.053 Y112.131 E0.01609
G1 X130.571 Y112.308 E0.01609
G1 X130.062 Y112.376 E0.01609
G1 X119.893 Y112.375 E0.31883
G1 X119.158 Y112.223 E0.02355
G1 X118.506 Y111.849 E0.02355
G1 X118.144 Y111.486 E0.01609
G1 X117.869 Y111.053 E0.01609
G1 X117.692 Y110.571 E0.01609
G1 X117.624 Y110.062 E0.01609
G1 X117.625 Y99.893 E0.31883
G1 X117.777 Y99.158 E0.02355
G1 X118.151 Y98.506 E0.02355
G1 X118.850 Y97.933 E0.02836
G1 F8640.000
G1 X119.824 Y97.629 E-0.23550
G1 X122.095 Y97.628 E-0.52450
G1 E-0.04000 F2100.00000
G1 Z0.800 F10800.000
G1 X120.787 Y100.787
G1 Z0.200
G1 E0.80000 F2100.00000
G1 F1200.000
G1 X129.213 Y100.787 E0.26419
G1 X129.213 Y109.213 E0.26419
G1 X120.787 Y109.213 E0.26419
G1 X120.787 Y100.847 E0.26231
G1 X120.410 Y100.410 F10800.000
G1 F1200.000
G1 X129.590 Y100.410 E0.28783
G1 X129.590 Y109.590 E0.28783
G1 X120.410 Y109.590 E0.28783
G1 X120.410 Y100.470 E0.28595
G1 X120.796 Y100.514 F10800.000
G1 F8640.000
G1 X123.701 Y100.448 E-0.76000
G1 E-0.04000 F2100.00000
G1 Z0.800 F10800.000
G1 X129.100 Y101.686
G1 Z0.200
G1 E0.80000 F2100.00000
G1 F1200.000
G1 X128.483 Y101.070 E0.02815
G1 X127.934 Y101.070 E0.01773
G1 X128.930 Y102.066 E0.04547
G1 X128.930 Y102.615 E0.01773
G1 X127.385 Y101.070 E0.07055
G1 X126.836 Y101.070 E0.01773
G1 X128.930 Y103.164 E0.09563
G1 X128.930 Y103.713 E0.01773
G1 X126.287 Y101.070 E0.12070
G1 X125.738 Y101.070 E0.01773
G1 X128.930 Y104.262 E0.14578
G1 X128.930 Y104.812 E0.01773
G1 X125.188 Y101.070 E0.17085
G1 X124.639 Y101.070 E0.01773
G1 X128.930 Y105.361 E0.19593
G1 X128.930 Y105.910 E0.01773
G1 X124.090 Y101.070 E0.22100
G1 X123.541 Y101.070 E0.01773
G1 X128.930 Y106.459 E0.24608
G1 X128.930 Y107.008 E0.01773
G1 X122.992 Y101.070 E0.27116
G1 X122.443 Y101.070 E0.01773
G1 X128.930 Y107.557 E0.29623
G1 X128.930 Y108.106 E0.01773
G1 X121.894 Y101.070 E0.32131
G1 X121.344 Y101.070 E0.01773
G1 X128.930 Y108.656 E0.34638
G1 X128.930 Y108.930 E0.00886
G1 X128.655 Y108.930 E0.00887
G1 X121.070 Y101.345 E0.34638
G1 X121.070 Y101.894 E0.01773
G1 X128.106 Y108.930 E0.32130
G1 X127.557 Y108.930 E0.01773
G1 X121.070 Y102.443 E0.29623
G1 X121.070 Y102.992 E0.01773
G1 X127.008 Y108.930 E0.27115
G1 X126.459 Y108.930 E0.01773
G1 X121.070 Y103.541 E0.24607
G1 X121.070 Y104.090 E0.01773
G1 X125.910 Y108.930 E0.22100
G1 X125.361 Y108.930 E0.01773
G1 X121.070 Y104.639 E0.19592
G1 X121.070 Y105.189 E0.01773
G1 X124.811 Y108.930 E0.17085
G1 X124.262 Y108.930 E0.01773
G1 X121.070 Y105.738 E0.14577
G1 X121.070 Y106.287 E0.01773
G1 X123.713 Y108.930 E0.12070
G1 X123.164 Y108.930 E0.01773
G1 X121.070 Y106.836 E0.09562
G1 X121.070 Y107.385 E0.01773
G1 X122.615 Y108.930 E0.07054
G1 X122.066 Y108.930 E0.01773
G1 X121.070 Y107.934 E0.04547
G1 X121.070 Y108.484 E0.01773
G1 X121.686 Y109.100 E0.02814
M106 S255
;BEFORE_LAYER_CHANGE
G92 E0.0
;0.35


G1 F8640.000
G1 X121.070 Y108.484 E-0.20124
G1 X121.070 Y107.934 E-0.12680
G1 X122.066 Y108.930 E-0.32516
G1 X122.528 Y108.930 E-0.10680
G1 E-0.04000 F2100.00000
G1 Z0.800 F10800.000
;AFTER_LAYER_CHANGE
;0.35
G1 X118.921 Y112.939
G1 Z0.350
G1 E0.80000 F2100.00000
G1 F1260
G1 X118.104 Y112.492 E0.02254
G1 X117.607 Y112.020 E0.01657
G1 X117.223 Y111.447 E0.01667
G1 X116.974 Y110.804 E0.01667
G1 X116.871 Y110.127 E0.01657
G1 X116.873 Y99.834 E0.24894
G1 X117.061 Y98.921 E0.02254
G1 X117.508 Y98.104 E0.02254
G1 X117.947 Y97.636 E0.01551
G1 X118.472 Y97.267 E0.01551
G1 X119.061 Y97.013 E0.01551
G1 X119.694 Y96.884 E0.01562
G1 X130.004 Y96.869 E0.24935
G1 X131.083 Y97.062 E0.02651
G1 X132.026 Y97.612 E0.02640
G1 X132.725 Y98.457 E0.02651
G1 X133.089 Y99.490 E0.02651
G1 X133.128 Y110.153 E0.25787
G1 X132.942 Y111.071 E0.02265
G1 X132.492 Y111.896 E0.02275
G1 X132.020 Y112.393 E0.01657
G1 X131.447 Y112.777 E0.01667
G1 X130.804 Y113.026 E0.01667
G1 X130.127 Y113.129 E0.01657
G1 X119.834 Y113.127 E0.24894
G1 X118.980 Y112.951 E0.02109
G1 X119.055 Y112.584 F10800.000
G1 F1260
G1 X118.300 Y112.167 E0.02088
G1 X117.870 Y111.746 E0.01455
G1 X117.543 Y111.245 E0.01445
G1 X117.332 Y110.682 E0.01455
G1 X117.247 Y110.091 E0.01445
G1 X117.249 Y99.865 E0.24732
G1 X117.420 Y99.037 E0.02044
G1 X117.833 Y98.300 E0.02044
G1 X118.226 Y97.893 E0.01366
G1 X118.689 Y97.578 E0.01356
G1 X119.207 Y97.362 E0.01356
G1 X119.762 Y97.256 E0.01366
G1 X130.004 Y97.246 E0.24771
G1 X130.959 Y97.418 E0.02348
G1 X131.799 Y97.914 E0.02357
G1 X132.410 Y98.668 E0.02348
G1 X132.724 Y99.591 E0.02357
G1 X132.751 Y110.127 E0.25482
G1 X132.582 Y110.959 E0.02054
G1 X132.167 Y111.700 E0.02054
G1 X131.746 Y112.130 E0.01455
G1 X131.245 Y112.457 E0.01445
G1 X130.682 Y112.668 E0.01455
G1 X130.091 Y112.753 E0.01445
G1 X119.865 Y112.751 E0.24732
G1 X119.114 Y112.596 E0.01853
G1 X119.190 Y112.230 F10800.000
G1 F1260
G1 X118.506 Y111.849 E0.01892
G1 X118.144 Y111.486 E0.01241
G1 X117.869 Y111.053 E0.01241
G1 X117.692 Y110.571 E0.01241
G1 X117.624 Y110.062 E0.01241
G1 X117.625 Y99.893 E0.24593
G1 X117.777 Y99.158 E0.01816
G1 X118.151 Y98.506 E0.01816
G1 X118.896 Y97.895 E0.02333
G1 X119.824 Y97.629 E0.02333
G1 X130.004 Y97.623 E0.24620
G1 X130.842 Y97.777 E0.02062
G1 X131.569 Y98.215 E0.02052
G1 X132.096 Y98.880 E0.02052
G1 X132.356 Y99.687 E0.02052
G1 X132.375 Y110.103 E0.25189
G1 X132.223 Y110.842 E0.01825
G1 X131.849 Y111.494 E0.01816
G1 X131.486 Y111.856 E0.01241
G1 X131.053 Y112.131 E0.01241
G1 X130.571 Y112.308 E0.01241
G1 X130.062 Y112.376 E0.01241
G1 X119.893 Y112.375 E0.24593
G1 X119.249 Y112.242 E0.01592
G1 F8640.000
G1 X118.506 Y111.849 E-0.19385
G1 X118.144 Y111.486 E-0.11850
G1 X117.869 Y111.053 E-0.11850
G1 X117.692 Y110.571 E-0.11850
G1 X117.624 Y110.062 E-0.11850
G1 X117.624 Y109.663 E-0.09214
G1 E-0.04000 F2100.00000
G1 Z0.950 F10800.000
G1 X120.643 Y109.357
G1 Z0.350
G1 E0.80000 F2100.00000
M204 S800
G1 F1260
G1 X120.643 Y100.643 E0.22706
G1 X129.357 Y100.643 E0.22706
G1 X129.357 Y109.357 E0.22706
G1 X120.703 Y109.357 E0.22550
M204 S1000
G1 X120.225 Y109.775 F10800.000
M204 S800
G1 F1260
G1 X120.225 Y100.225 E0.24883
G1 X129.775 Y100.225 E0.24883
G1 X129.775 Y109.775 E0.24883
G1 X120.285 Y109.775 E0.24727
M204 S1000
G1 X120.329 Y109.389 F10800.000
G1 F8640.000
G1 X120.264 Y106.484 E-0.76000
G1 E-0.04000 F2100.00000
G1 Z0.950 F10800.000
G1 X120.768 Y101.638
G1 Z0.350
G1 E0.80000 F2100.00000
G1 F1260
G1 X121.450 Y100.956 E0.02582
G1 X122.057 Y100.956 E0.01628
G1 X120.956 Y102.057 E0.04171
G1 X120.956 Y102.665 E0.01628
G1 X122.665 Y100.956 E0.06473
G1 X123.272 Y100.956 E0.01628
G1 X120.956 Y103.272 E0.08775
G1 X120.956 Y103.880 E0.01628
G1 X123.880 Y100.956 E0.11077
G1 X124.487 Y100.956 E0.01628
G1 X120.956 Y104.487 E0.13378
G1 X120.956 Y105.095 E0.01628
G1 X125.095 Y100.956 E0.15680
G1 X125.702 Y100.956 E0.01628
G1 X120.956 Y105.702 E0.17982
G1 X120.956 Y106.310 E0.01628
G1 X126.310 Y100.956 E0.20284
G1 X126.917 Y100.956 E0.01628
G1 X120.956 Y106.917 E0.22586
G1 X120.956 Y107.525 E0.01628
G1 X127.525 Y100.956 E0.24887
G1 X128.132 Y100.956 E0.01628
G1 X120.956 Y108.132 E0.27189
G1 X120.956 Y108.740 E0.01628
G1 X128.740 Y100.956 E0.29491
G1 X129.044 Y100.956 E0.00814
G1 X129.044 Y101.260 E0.00814
G1 X121.260 Y109.044 E0.29491
G1 X121.867 Y109.044 E0.01628
G1 X129.044 Y101.867 E0.27190
G1 X129.044 Y102.475 E0.01628
G1 X122.475 Y109.044 E0.24888
G1 X123.082 Y109.044 E0.01628
G1 X129.044 Y103.082 E0.22586
G1 X129.044 Y103.690 E0.01628
G1 X123.690 Y109.044 E0.20284
G1 X124.298 Y109.044 E0.01628
G1 X129.044 Y104.298 E0.17983
G1 X129.044 Y104.905 E0.01628
G1 X124.905 Y109.044 E0.15681
G1 X125.513 Y109.044 E0.01628
G1 X129.044 Y105.513 E0.13379
G1 X129.044 Y106.120 E0.01628
G1 X126.120 Y109.044 E0.11077
G1 X126.728 Y109.044 E0.01628
G1 X129.044 Y106.728 E0.08775
G1 X129.044 Y107.335 E0.01628
G1 X127.335 Y109.044 E0.06474
G1 X127.943 Y109.044 E0.01628
G1 X129.044 Y107.943 E0.04172
G1 X129.044 Y108.550 E0.01628
G1 X128.362 Y109.232 E0.02582
;BEFORE_LAYER_CHANGE
G92 E0.0
;0.5


G1 F8640.000
G1 X129.044 Y108.550 E-0.22257
G1 X129.044 Y107.943 E-0.14028
G1 X127.943 Y109.044 E-0.35956
G1 X127.780 Y109.044 E-0.03759
G1 E-0.04000 F2100.00000
G1 Z0.950 F10800.000
;AFTER_LAYER_CHANGE
;0.5
G1 X132.725 Y98.457
G1 Z0.500
G1 E0.80000 F2100.00000
G1 F1264
G1 X133.089 Y99.490 E0.02651
G1 X133.128 Y110.153 E0.25787
G1 X132.942 Y111.071 E0.02265
G1 X132.492 Y111.896 E0.02275
G1 X132.020 Y112.393 E0.01657
G1 X131.447 Y112.777 E0.01667
G1 X130.804 Y113.026 E0.01667
G1 X130.127 Y113.129 E0.01657
G1 X119.834 Y113.127 E0.24894
G1 X118.921 Y112.939 E0.02254
G1 X118.104 Y112.492 E0.02254
G1 X117.607 Y112.020 E0.01657
G1 X117.223 Y111.447 E0.01667
G1 X116.974 Y110.804 E0.01667
G1 X116.871 Y110.127 E0.01657
G1 X116.873 Y99.834 E0.24894
G1 X117.061 Y98.921 E0.02254
G1 X117.508 Y98.104 E0.02254
G1 X117.947 Y97.636 E0.01551
G1 X118.472 Y97.267 E0.01551
G1 X119.061 Y97.013 E0.01551
G1 X119.694 Y96.884 E0.01562
G1 X130.004 Y96.869 E0.24935
G1 X131.083 Y97.062 E0.02651
G1 X132.026 Y97.612 E0.02640
G1 X132.686 Y98.411 E0.02506
G1 X132.394 Y98.648 F10800.000
G1 F1264
G1 X132.724 Y99.591 E0.02416
G1 X132.751 Y110.127 E0.25482
G1 X132.582 Y110.959 E0.02054
G1 X132.167 Y111.700 E0.02054
G1 X131.746 Y112.130 E0.01455
G1 X131.245 Y112.457 E0.01445
G1 X130.682 Y112.668 E0.01455
G1 X130.091 Y112.753 E0.01445
G1 X119.865 Y112.751 E0.24732
G1 X119.037 Y112.580 E0.02044
G1 X118.300 Y112.167 E0.02044
G1 X117.870 Y111.746 E0.01455
G1 X117.543 Y111.245 E0.01445
G1 X117.332 Y110.682 E0.01455
G1 X117.247 Y110.091 E0.01445
G1 X117.249 Y99.865 E0.24732
G1 X117.420 Y99.037 E0.02044
G1 X117.833 Y98.300 E0.02044
G1 X118.226 Y97.893 E0.01366
G1 X118.689 Y97.578 E0.01356
G1 X119.207 Y97.362 E0.01356
G1 X119.762 Y97.256 E0.01366
G1 X130.004 Y97.246 E0.24771
G1 X130.959 Y97.418 E0.02348
G1 X131.799 Y97.914 E0.02357
G1 X132.357 Y98.601 E0.02141
G1 X132.096 Y98.880 F10800.000
G1 F1264
G1 X132.356 Y99.687 E0.02052
G1 X132.375 Y110.103 E0.25189
G1 X132.223 Y110.842 E0.01825
G1 X131.849 Y111.494 E0.01816
G1 X131.486 Y111.856 E0.01241
G1 X131.053 Y112.131 E0.01241
G1 X130.571 Y112.308 E0.01241
G1 X130.062 Y112.376 E0.01241
G1 X119.893 Y112.375 E0.24593
G1 X119.158 Y112.223 E0.01816
G1 X118.506 Y111.849 E0.01816
G1 X118.144 Y111.486 E0.01241
G1 X117.869 Y111.053 E0.01241
G1 X117.692 Y110.571 E0.01241
G1 X117.624 Y110.062 E0.01241
G1 X117.625 Y99.893 E0.24593
G1 X117.777 Y99.158 E0.01816
G1 X118.151 Y98.506 E0.01816
G1 X118.896 Y97.895 E0.02333
G1 X119.824 Y97.629 E0.02333
G1 X130.004 Y97.623 E0.24620
G1 X130.842 Y97.777 E0.02062
G1 X131.569 Y98.215 E0.02052
G1 X132.059 Y98.833 E0.01907
G1 F8640.000
G1 X132.356 Y99.687 E-0.20898
G1 X132.361 Y102.074 E-0.55102
G1 E-0.04000 F2100.00000
G1 Z1.100 F10800.000
G1 X129.357 Y100.643
G1 Z0.500
G1 E0.80000 F2100.00000
M204 S800
G1 F1264
G1 X129.357 Y109.357 E0.22706
G1 X120.643 Y109.357 E0.22706
G1 X120.643 Y100.643 E0.22706
G1 X129.297 Y100.643 E0.22550
M204 S1000
G1 X129.775 Y100.225 F10800.000
M204 S800
G1 F1264
G1 X129.775 Y109.775 E0.24883
G1 X120.225 Y109.775 E0.24883
G1 X120.225 Y100.225 E0.24883
M73 Q2 S47
G1 X129.715 Y100.225 E0.24727
M73 P2 R47
M204 S1000
G1 X129.671 Y100.611 F10800.000
G1 F8640.000
G1 X129.736 Y103.516 E-0.76000
G1 E-0.04000 F2100.00000
G1 Z1.100 F10800.000
G1 X121.638 Y109.232
G1 Z0.500
G1 E0.80000 F2100.00000
G1 F1264
G1 X120.956 Y108.550 E0.02582
G1 X120.956 Y107.943 E0.01628
G1 X122.057 Y109.044 E0.04171
G1 X122.665 Y109.044 E0.01628
G1 X120.956 Y107.335 E0.06473
G1 X120.956 Y106.728 E0.01628
G1 X123.272 Y109.044 E0.08775
G1 X123.880 Y109.044 E0.01628
G1 X120.956 Y106.120 E0.11077
G1 X120.956 Y105.513 E0.01628
G1 X124.487 Y109.044 E0.13378
G1 X125.095 Y109.044 E0.01628
G1 X120.956 Y104.905 E0.15680
G1 X120.956 Y104.298 E0.01628
G1 X125.702 Y109.044 E0.17982
G1 X126.310 Y109.044 E0.01628
G1 X120.956 Y103.690 E0.20284
G1 X120.956 Y103.083 E0.01628
G1 X126.917 Y109.044 E0.22586
G1 X127.525 Y109.044 E0.01628
G1 X120.956 Y102.475 E0.24887
G1 X120.956 Y101.868 E0.01628
G1 X128.132 Y109.044 E0.27189
G1 X128.740 Y109.044 E0.01628
G1 X120.956 Y101.260 E0.29491
G1 X120.956 Y100.956 E0.00814
G1 X121.260 Y100.956 E0.00814
G1 X129.044 Y108.740 E0.29491
G1 X129.044 Y108.133 E0.01628
G1 X121.867 Y100.956 E0.27190
G1 X122.475 Y100.956 E0.01628
G1 X129.044 Y107.525 E0.24888
G1 X129.044 Y106.918 E0.01628
